filmlog/Views/Shaders/LutBWNeutral.cube
TITLE "Generated by Resolve"
LUT_3D_SIZE 9
0.340032 0.341909 0.341909
0.425452 0.427222 0.427222
0.502129 0.503746 0.503746
0.560311 0.561791 0.561791
0.613596 0.614939 0.614939
0.657435 0.658656 0.658656
0.353002 0.354879 0.354879
0.379644 0.381491 0.381491
0.337972 0.339879 0.339879
0.32459 0.326497 0.326497
0.409339 0.411139 0.411139
0.489265 0.490913 0.490913
0.550317 0.551827 0.551827
0.603723 0.605097 0.605097
0.649729 0.650965 0.650965
0.261341 0.263279 0.263279
0.309224 0.311147 0.311147
0.404044 0.405859 0.405859
0.309239 0.311147 0.311147
0.393301 0.395132 0.395132
0.475364 0.477043 0.477043
0.540246 0.541772 0.541772
0.473503 0.475181 0.475181
0.554391 0.555886 0.555886
0.313069 0.314992 0.314992
0.358709 0.360571 0.360571
0.442649 0.444389 0.444389
0.293782 0.295705 0.295705
0.376883 0.378744 0.378744
0.348898 0.35079 0.35079
0.440909 0.442664 0.442664
0.534951 0.536492 0.536492
0.617121 0.618448 0.618448
0.344808 0.3467 0.3467
0.380636 0.382483 0.382483
0.458259 0.459968 0.459968
0.18819 0.190066 0.190066
0.272084 0.274022 0.274022
0.382376 0.384207 0.384207
0.486564 0.488212 0.488212
0.56965 0.571099 0.571099
0.640711 0.641978 0.641978
0.370993 0.372854 0.372854
0.403876 0.405676 0.405676
0.466133 0.467826 0.467826
0.22446 0.226383 0.226383
0.348653 0.35053 0.35053
0.478553 0.480217 0.480217
0.597742 0.599115 0.599115
0.695567 0.696666 0.696666
0.780255 0.781079 0.781079
0.462226 0.463935 0.463935
0.47982 0.481483 0.481483
0.535592 0.537133 0.537133
0.371527 0.373373 0.373373
0.507149 0.508751 0.508751
0.625864 0.627176 0.627176
0.737728 0.738689 0.738689
0.819394 0.820081 0.820081
0.884092 0.88455 0.88455
0.526452 0.528008 0.528008
0.538811 0.540352 0.540352
0.589944 0.591348 0.591348
0.447608 0.449348 0.449348
0.602731 0.604089 0.604089
0.731289 0.732265 0.732265
0.83476 0.835386 0.835386
0.908171 0.908522 0.908522
0.962356 0.962509 0.962509
0.580575 0.581994 0.581994
0.585931 0.587335 0.587335
0.634928 0.63621 0.63621
0.540429 0.54197 0.54197
0.658381 0.659586 0.659586
0.795178 0.795956 0.795956
0.901503 0.901884 0.901884
0.97464 0.974731 0.974731
1 1 1
0.624292 0.625589 0.625589
0.625315 0.626627 0.626627
0.672145 0.67332 0.67332
0.301503 0.303426 0.303426
0.385138 0.386969 0.386969
0.468391 0.470069 0.470069
0.535042 0.536583 0.536583
0.588708 0.590112 0.590112
0.301717 0.303639 0.303639
0.378622 0.380468 0.380468
0.546685 0.548196 0.548196
0.541939 0.543465 0.543465
0.286061 0.287984 0.287984
0.368704 0.370565 0.370565
0.454124 0.455848 0.455848
0.523598 0.52517 0.52517
0.578408 0.579843 0.579843
0.29572 0.297642 0.297642
0.268971 0.270893 0.270893
0.397589 0.399405 0.399405
0.573617 0.575051 0.575051
0.270329 0.272251 0.272251
0.353109 0.354986 0.354986
0.438758 0.440513 0.440513
0.511971 0.513558 0.513558
0.451545 0.453269 0.453269
0.232593 0.234516 0.234516
0.325216 0.327108 0.327108
0.424598 0.426383 0.426383
0.599954 0.601328 0.601328
0.254643 0.256565 0.256565
0.337453 0.339345 0.339345
0.314427 0.31635 0.31635
0.411994 0.413794 0.413794
0.508095 0.509697 0.509697
0.271977 0.273915 0.273915
0.358938 0.3608 0.3608
0.443854 0.445609 0.445609
0.601221 0.602594 0.602594
0.156024 0.157839 0.157839
0.23595 0.237873 0.237873
0.338582 0.340475 0.340475
0.450126 0.45185 0.45185
0.539483 0.541024 0.541024
0.288045 0.289967 0.289967
0.369345 0.371206 0.371206
0.451225 0.452949 0.452949
0.590738 0.592142 0.592142
0.217151 0.219074 0.219074
0.333288 0.335195 0.335195
0.463127 0.464836 0.464836
0.585794 0.587213 0.587213
0.691066 0.69218 0.69218
0.385351 0.387198 0.387198
0.457038 0.458747 0.458747
0.514443 0.51603 0.51603
0.629679 0.630961 0.630961
0.340948 0.342824 0.342824
0.475074 0.476753 0.476753
0.603021 0.604395 0.604395
0.719509 0.720516 0.720516
0.811261 0.811963 0.811963
0.457557 0.459266 0.459266
0.524392 0.525963 0.525963
0.576989 0.578424 0.578424
0.687724 0.688853 0.688853
0.450675 0.452399 0.452399
0.552224 0.553719 0.553719
0.701946 0.703014 0.703014
0.812039 0.812741 0.812741
0.898787 0.899184 0.899184
0.514992 0.516579 0.516579
0.577249 0.578683 0.578683
0.627222 0.628519 0.628519
0.735485 0.736446 0.736446
0.553841 0.555352 0.555352
0.587854 0.589258 0.589258
0.75494 0.75584 0.75584
0.874998 0.875486 0.875486
0.958816 0.958968 0.958968
0.556329 0.557809 0.557809
0.620157 0.621469 0.621469
0.668498 0.669673 0.669673
0.775433 0.776257 0.776257
0.262531 0.264454 0.264454
0.345357 0.34725 0.34725
0.430808 0.432563 0.432563
0.211429 0.213336 0.213336
0.264347 0.26627 0.26627
0.380621 0.382467 0.382467
0.569696 0.571145 0.571145
0.714473 0.715496 0.715496
0.656825 0.65803 0.65803
0.246754 0.248676 0.248676
0.329641 0.331533 0.331533
0.414893 0.416678 0.416678
0.203784 0.205692 0.205692
0.255604 0.257542 0.257542
0.373312 0.375158 0.375158
0.429175 0.430945 0.430945
0.543282 0.544808 0.544808
0.677958 0.679103 0.679103
0.233082 0.235004 0.235004
0.314473 0.316396 0.316396
0.39881 0.400626 0.400626
0.195209 0.197101 0.197101
0.168521 0.170367 0.170367
0.265934 0.267872 0.267872
0.444526 0.446265 0.446265
0.6009 0.602274 0.602274
0.718608 0.719631 0.719631
0.220401 0.222309 0.222309
0.299016 0.300938 0.300938
0.278981 0.280903 0.280903
0.134707 0.136477 0.136477
0.205249 0.207156 0.207156
0.302342 0.304265 0.304265
0.457588 0.459297 0.459297
0.619196 0.620523 0.620523
0.731899 0.732876 0.732876
0.131823 0.133577 0.133577
0.199557 0.20145 0.20145
0.296254 0.298177 0.298177
0.153536 0.155352 0.155352
0.225055 0.226978 0.226978
0.318044 0.319951 0.319951
0.45478 0.456504 0.456504
0.620447 0.621775 0.621775
0.732631 0.733608 0.733608
0.214252 0.216159 0.216159
0.318929 0.320851 0.320851
0.445441 0.447181 0.447181
0.252064 0.253986 0.253986
0.327337 0.329229 0.329229
0.407401 0.409201 0.409201
0.513756 0.515343 0.515343
0.672251 0.673426 0.673426
0.774823 0.775662 0.775662
0.33843 0.340322 0.340322
0.43328 0.435035 0.435035
0.573968 0.575402 0.575402
0.333333 0.335225 0.335225
0.40798 0.409781 0.409781
0.483818 0.485481 0.485481
0.580987 0.582422 0.582422
0.742824 0.74377 0.74377
0.841856 0.842451 0.842451
0.468452 0.470146 0.470146
0.496117 0.497749 0.497749
0.657893 0.659098 0.659098
0.38999 0.391821 0.391821
0.465995 0.467704 0.467704
0.541115 0.542641 0.542641
0.63122 0.632502 0.632502
0.798245 0.798993 0.798993
0.895125 0.895537 0.895537
0.576577 0.578012 0.578012
0.58114 0.582574 0.582574
0.701717 0.702785 0.702785
0.431464 0.433219 0.433219
0.509789 0.511391 0.511391
0.586343 0.587762 0.587762
0.675837 0.676997 0.676997
0.842573 0.843168 0.843168
0.93875 0.938994 0.938994
0.226352 0.228275 0.228275
0.306798 0.308721 0.308721
0.133455 0.13521 0.13521
0.209827 0.211734 0.211734
0.374365 0.376211 0.376211
0.532464 0.53402 0.53402
0.679423 0.680568 0.680568
0.789731 0.790509 0.790509
0.69807 0.699153 0.699153
0.215061 0.216983 0.216983
0.291341 0.293263 0.293263
0.123705 0.125429 0.125429
0.199329 0.201221 0.201221
0.360739 0.3626 0.3626
0.518105 0.519692 0.519692
0.528267 0.529824 0.529824
0.592004 0.593393 0.593393
0.709163 0.710216 0.710216
0.204181 0.206088 0.206088
0.275669 0.277592 0.277592
0.114336 0.11603 0.11603
0.189166 0.191043 0.191043
0.250721 0.252644 0.252644
0.379858 0.381704 0.381704
0.537453 0.538994 0.538994
0.662242 0.663447 0.663447
0.753597 0.754513 0.754513
0.192981 0.194873 0.194873
0.259983 0.261921 0.261921
0.0574655 0.0588235 0.0588235
0.119692 0.121401 0.121401
0.26041 0.262348 0.262348
0.419562 0.421347 0.421347
0.56907 0.57052 0.57052
0.685115 0.686244 0.686244
0.768811 0.769665 0.769665
0.108644 0.110307 0.110307
0.163073 0.164904 0.164904
0.0628824 0.064271 0.064271
0.13463 0.1364 0.1364
0.264179 0.266102 0.266102
0.427176 0.428946 0.428946
0.572396 0.573846 0.573846
0.686595 0.687724 0.687724
0.768994 0.769848 0.769848
0.214664 0.216571 0.216571
0.299321 0.301244 0.301244
0.153521 0.155337 0.155337
0.239231 0.241154 0.241154
0.357275 0.359152 0.359152
0.519036 0.520623 0.520623
0.650919 0.65214 0.65214
0.749615 0.750546 0.750546
0.822461 0.823117 0.823117
0.362066 0.363928 0.363928
0.393179 0.39501 0.39501
0.223987 0.22591 0.22591
0.321462 0.323369 0.323369
0.439017 0.440772 0.440772
0.603906 0.605264 0.605264
0.731914 0.732891 0.732891
0.824857 0.825513 0.825513
0.891676 0.892088 0.892088
0.506966 0.508568 0.508568
0.504341 0.505959 0.505959
0.272602 0.274525 0.274525
0.379309 0.381155 0.381155
0.500023 0.50164 0.50164
0.66627 0.66746 0.66746
0.793622 0.7944 0.7944
0.88397 0.884413 0.884413
0.947265 0.947478 0.947478
0.66775 0.66894 0.66894
0.5944 0.595789 0.595789
0.296407 0.298329 0.298329
0.420676 0.422461 0.422461
0.545693 0.547204 0.547204
0.715587 0.716625 0.716625
0.841627 0.842237 0.842237
0.930968 0.931228 0.931228
0.992569 0.992599 0.992599
0.03888 0.0400397 0.0400397
0.0719615 0.0734264 0.0734264
0.150896 0.152697 0.152697
0.285618 0.287541 0.287541
0.440574 0.442313 0.442313
0.606577 0.607935 0.607935
0.749783 0.750713 0.750713
0.865812 0.866331 0.866331
0.763821 0.764691 0.764691
0.0344549 0.0355535 0.0355535
0.0639658 0.0653697 0.0653697
0.137377 0.139147 0.139147
0.266087 0.268009 0.268009
0.432486 0.434256 0.434256
0.600992 0.602365 0.602365
0.591745 0.593149 0.593149
0.632807 0.634089 0.634089
0.737942 0.738903 0.738903
0.0305638 0.0316167 0.0316167
0.056733 0.0580758 0.0580758
0.124773 0.126497 0.126497
0.246632 0.248569 0.248569
0.31519 0.317113 0.317113
0.43032 0.43209 0.43209
0.568872 0.570336 0.570336
0.676509 0.677653 0.677653
0.75671 0.75761 0.75761
0.0265202 0.027512 0.027512
0.0502174 0.0514992 0.0514992
0.0627451 0.0641337 0.0641337
0.158221 0.160052 0.160052
0.308476 0.310384 0.310384
0.45861 0.460319 0.460319
0.582559 0.583978 0.583978
0.686748 0.687861 0.687861
0.766567 0.767422 0.767422
0 0 0
0.0168917 0.0183719 0.0183719
0.0692912 0.0707408 0.0707408
0.175006 0.176867 0.176867
0.315236 0.317143 0.317143
0.460838 0.462547 0.462547
0.583276 0.58471 0.58471
0.687053 0.688182 0.688182
0.765774 0.766644 0.766644
0.0605478 0.0619211 0.0619211
0.0840772 0.0856184 0.0856184
0.169467 0.171313 0.171313
0.296818 0.298741 0.298741
0.443442 0.445197 0.445197
0.57911 0.580545 0.580545
0.687282 0.688411 0.688411
0.773281 0.774136 0.774136
0.838865 0.839475 0.839475
0.227192 0.229114 0.229114
0.150546 0.152361 0.152361
0.251408 0.253346 0.253346
0.388617 0.390448 0.390448
0.536614 0.538155 0.538155
0.669886 0.671061 0.671061
0.770291 0.77113 0.77113
0.849912 0.850492 0.850492
0.909697 0.910048 0.910048
0.921019 0.921324 0.921324
0.197238 0.19913 0.19913
0.313436 0.315343 0.315343
0.454002 0.455726 0.455726
0.60087 0.602243 0.602243
0.734462 0.735424 0.735424
0.832517 0.833143 0.833143
0.908629 0.90898 0.90898
0.964675 0.964828 0.964828
1 1 1
0.252338 0.254276 0.254276
0.357809 0.35967 0.35967
0.500313 0.501945 0.501945
0.648203 0.649454 0.649454
0.782696 0.783505 0.783505
0.881315 0.881773 0.881773
0.95436 0.954543 0.954543
1 1 1
0.0787823 0.080293 0.080293
0.14522 0.147021 0.147021
0.276829 0.278767 0.278767
0.446067 0.447791 0.447791
0.612284 0.613626 0.613626
0.757702 0.758587 0.758587
0.879469 0.879927 0.879927
0.974227 0.974319 0.974319
0.841901 0.842496 0.842496
0.0832837 0.0848096 0.0848096
0.143252 0.145037 0.145037
0.26891 0.270848 0.270848
0.434577 0.436332 0.436332
0.60119 0.602564 0.602564
0.749325 0.750256 0.750256
0.70605 0.707103 0.707103
0.724529 0.725536 0.725536
0.81648 0.817166 0.817166
0.0911421 0.0927291 0.0927291
0.142458 0.144244 0.144244
0.261036 0.262974 0.262974
0.423072 0.424842 0.424842
0.45771 0.459419 0.459419
0.552285 0.55378 0.55378
0.679896 0.681041 0.681041
0.772412 0.773266 0.773266
0.838453 0.839063 0.839063
0.114534 0.116213 0.116213
0.141497 0.143282 0.143282
0.166842 0.168688 0.168688
0.296422 0.298344 0.298344
0.446998 0.448722 0.448722
0.586694 0.588113 0.588113
0.697398 0.698482 0.698482
0.783001 0.783795 0.783795
0.844602 0.845197 0.845197
0.49131 0.492958 0.492958
0.0821546 0.0836805 0.0836805
0.170474 0.172335 0.172335
0.310872 0.312779 0.312779
0.455909 0.457633 0.457633
0.591989 0.593378 0.593378
0.69836 0.699443 0.699443
0.782086 0.782895 0.782895
0.8439 0.84448 0.84448
0.523857 0.525429 0.525429
0.0972 0.0988174 0.0988174
0.184695 0.186572 0.186572
0.313664 0.315587 0.315587
0.45127 0.452995 0.452995
0.585504 0.586908 0.586908
0.693248 0.694347 0.694347
0.776364 0.777203 0.777203
0.838972 0.839582 0.839582
0.740093 0.741039 0.741039
0.169085 0.170932 0.170932
0.26865 0.270573 0.270573
0.406363 0.408179 0.408179
0.54316 0.544686 0.544686
0.670329 0.671489 0.671489
0.771191 0.772045 0.772045
0.847883 0.848463 0.848463
0.906386 0.906752 0.906752
0.914397 0.914733 0.914733
0.249912 0.25185 0.25185
0.325704 0.327611 0.327611
0.469963 0.471656 0.471656
0.606638 0.607996 0.607996
0.73315 0.734127 0.734127
0.832212 0.832853 0.832853
0.906523 0.906874 0.906874
0.960815 0.960967 0.960967
1 1 1
0.328649 0.330541 0.330541
0.357305 0.359182 0.359182
0.513695 0.515282 0.515282
0.652796 0.654017 0.654017
0.778958 0.779782 0.779782
0.879194 0.879652 0.879652
0.950973 0.951171 0.951171
1 1 1
0.201389 0.203281 0.203281
0.278004 0.279927 0.279927
0.406638 0.408438 0.408438
0.556802 0.558297 0.558297
0.71313 0.714168 0.714168
0.847715 0.848295 0.848295
0.95378 0.953964 0.953964
1 1 1
0.877104 0.877577 0.877577
0.305821 0.307729 0.307729
0.273304 0.275242 0.275242
0.39382 0.395651 0.395651
0.542184 0.543709 0.543709
0.697215 0.698299 0.698299
0.836637 0.837263 0.837263
0.771115 0.771969 0.771969
0.781842 0.78265 0.78265
0.873106 0.873594 0.873594
0.893629 0.894041 0.894041
0.267567 0.269505 0.269505
0.381415 0.383261 0.383261
0.52755 0.529122 0.529122
0.536263 0.537804 0.537804
0.624598 0.625895 0.625895
0.744106 0.745037 0.745037
0.831495 0.832135 0.832135
0.895781 0.896193 0.896193
0.893629 0.894041 0.894041
0.266285 0.268208 0.268208
0.261631 0.263554 0.263554
0.376532 0.378378 0.378378
0.523354 0.524926 0.524926
0.659876 0.661082 0.661082
0.763546 0.764416 0.764416
0.841474 0.842069 0.842069
0.90071 0.901106 0.901106
0.708598 0.709651 0.709651
0.162905 0.164752 0.164752
0.258762 0.260685 0.260685
0.392401 0.394217 0.394217
0.533516 0.535073 0.535073
0.663996 0.665187 0.665187
0.76466 0.76553 0.76553
0.840833 0.841443 0.841443
0.899321 0.899702 0.899702
0.690593 0.691707 0.691707
0.180438 0.182315 0.182315
0.254963 0.256901 0.256901
0.388617 0.390448 0.390448
0.527611 0.529183 0.529183
0.656138 0.657359 0.657359
0.758053 0.758953 0.758953
0.835004 0.83563 0.83563
0.894316 0.894728 0.894728
0.775753 0.776577 0.776577
0.247013 0.248936 0.248936
0.236255 0.238178 0.238178
0.377844 0.37969 0.37969
0.515694 0.517281 0.517281
0.643336 0.644587 0.644587
0.750927 0.751842 0.751842
0.830716 0.831357 0.831357
0.89485 0.895247 0.895247
0.966567 0.966705 0.966705
1 1 1
0.308705 0.310613 0.310613
0.43357 0.435325 0.435325
0.575814 0.577264 0.577264
0.701961 0.703029 0.703029
0.810239 0.810941 0.810941
0.886931 0.887358 0.887358
0.94667 0.946883 0.946883
1 1 1
1 1 1
0.371679 0.373526 0.373526
0.468025 0.469718 0.469718
0.618601 0.619928 0.619928
0.74551 0.746456 0.746456
0.853147 0.853697 0.853697
0.930129 0.930404 0.930404
0.987823 0.987869 0.987869
1 1 1
0.368231 0.370092 0.370092
0.478157 0.479835 0.479835
0.617945 0.619272 0.619272
0.759823 0.760708 0.760708
0.892622 0.893034 0.893034
0.99559 0.995605 0.995605
1 1 1
0.90312 0.903502 0.903502
1 1 1
0.361669 0.363531 0.363531
0.465461 0.467155 0.467155
0.60116 0.602533 0.602533
0.741558 0.742504 0.742504
0.877379 0.877852 0.877852
0.808148 0.808881 0.808881
0.816922 0.817609 0.817609
0.913222 0.913573 0.913573
1 1 1
0.353506 0.355383 0.355383
0.456062 0.457786 0.457786
0.584466 0.585885 0.585885
0.571496 0.572961 0.572961
0.656489 0.657694 0.657694
0.782254 0.783062 0.783062
0.871427 0.871931 0.871931
0.936843 0.937087 0.937087
1 1 1
0.369589 0.37145 0.37145
0.318822 0.320729 0.320729
0.415595 0.41738 0.41738
0.557992 0.559487 0.559487
0.692683 0.693782 0.693782
0.801587 0.802319 0.802319
0.881514 0.881971 0.881971
0.942763 0.942977 0.942977
0.903014 0.90338 0.90338
1 1 1
0.291142 0.293065 0.293065
0.427405 0.429175 0.429175
0.567483 0.568933 0.568933
0.695048 0.696147 0.696147
0.80235 0.803098 0.803098
0.879835 0.880293 0.880293
0.940551 0.94078 0.94078
0.917861 0.918181 0.918181
1 1 1
0.307301 0.309209 0.309209
0.416678 0.418463 0.418463
0.559915 0.561395 0.561395
0.685405 0.686519 0.686519
0.793744 0.794507 0.794507
0.872587 0.873075 0.873075
0.933639 0.933898 0.933898
0.947295 0.947494 0.947494
1 1 1
0.322347 0.324254 0.324254
0.392157 0.393973 0.393988
0.54493 0.546441 0.546441
0.670527 0.671702 0.671702
0.780377 0.781201 0.781201
0.862806 0.86334 0.86334
0.925261 0.925551 0.925551
1 1 1
1 1 1
0.335409 0.337301 0.337301
0.365072 0.366934 0.366934
0.527703 0.529259 0.529259
0.657481 0.658686 0.658686
0.773114 0.773968 0.773968
0.861631 0.862165 0.862165
0.927687 0.927962 0.927962
1 1 1
1 1 1
0.406867 0.408667 0.408667
0.400992 0.402808 0.402808
0.564736 0.566201 0.566201
0.698054 0.699153 0.699153
0.813245 0.813947 0.813947
0.902296 0.902678 0.902678
0.967697 0.967834 0.967834
1 1 1
0.443717 0.445457 0.445457
0.520165 0.521737 0.521737
0.640528 0.641794 0.641794
0.773434 0.774273 0.774273
0.908003 0.90837 0.90837
1 1 1
1 1 1
0.925444 0.925734 0.925734
1 1 1
0.504753 0.506371 0.506371
0.506477 0.508095 0.508095
0.621622 0.62295 0.62295
0.754925 0.755825 0.755825
0.889418 0.889845 0.889845
0.827863 0.828519 0.828519
0.84329 0.843885 0.843885
0.943832 0.944045 0.944045
1 1 1
1 1 1
0.480629 0.482292 0.482292
0.60235 0.603723 0.603723
0.579416 0.58085 0.58085
0.666758 0.667948 0.667948
0.804196 0.804929 0.804929
0.8972 0.897597 0.897597
0.966522 0.966659 0.966659
1 1 1
1 1 1
0.341085 0.342977 0.342977
0.418982 0.420768 0.420768
0.564752 0.566232 0.566232
0.700084 0.701167 0.701167
0.820996 0.821668 0.821668
0.907576 0.907942 0.907942
0.971115 0.971222 0.971222
1 1 1
1 1 1
0.361166 0.363043 0.363043
0.422492 0.424277 0.424277
0.57174 0.57319 0.57319
0.701717 0.7028 0.7028
0.818647 0.819333 0.819333
0.905394 0.90576 0.90576
0.967926 0.968048 0.968048
1 1 1
1 1 1
0.389166 0.390997 0.390997
0.394491 0.396323 0.396323
0.560449 0.561929 0.561929
0.690867 0.691981 0.691981
0.808606 0.809323 0.809323
0.896406 0.896803 0.896803
0.960906 0.961059 0.961059
1 1 1
1 1 1
0.427054 0.428824 0.428824
0.400519 0.402335 0.402335
0.540612 0.542138 0.542138
0.674815 0.675975 0.675975
0.79202 0.792798 0.792798
0.884733 0.885176 0.885176
0.95111 0.951293 0.951293
1 1 1
1 1 1
1 1 1
0.412085 0.413886 0.413886
0.516106 0.517693 0.517693
0.656443 0.657664 0.657664
0.774548 0.775387 0.775387
0.872496 0.872984 0.872984
0.94052 0.940749 0.940749
1 1 1
1 1 1
1 1 1
0.421744 0.423529 0.423529
0.48481 0.486473 0.486473
0.644739 0.645975 0.645975
0.766155 0.767025 0.767025
0.869947 0.870451 0.870451
0.943496 0.943709 0.943709
