filmlog/Views/Shaders/LutBWNeutral.cube
TITLE "Generated by Resolve"
LUT_3D_SIZE 33
0.340032 0.341909 0.341909
0.3608 0.362661 0.362661
0.382406 0.384253 0.384253
0.404028 0.405844 0.405844
0.425452 0.427222 0.427222
0.446479 0.448203 0.448203
0.466011 0.467704 0.467704
0.484611 0.486275 0.486275
0.502129 0.503746 0.503746
0.517754 0.519341 0.519341
0.53312 0.534661 0.534661
0.546929 0.54844 0.54844
0.560311 0.561791 0.561791
0.573312 0.574762 0.574762
0.586892 0.588312 0.588312
0.600473 0.601846 0.601846
0.613596 0.614939 0.614939
0.625315 0.626627 0.626627
0.636362 0.637644 0.637644
0.647089 0.648341 0.648341
0.657435 0.658656 0.658656
0.665888 0.667079 0.667079
0.674235 0.675395 0.675395
0.682307 0.683436 0.683436
0.353002 0.354879 0.354879
0.336873 0.338766 0.338766
0.347997 0.349874 0.349874
0.362158 0.364019 0.364019
0.379644 0.381491 0.381491
0.288197 0.29012 0.29012
0.306508 0.308431 0.308431
0.322667 0.324575 0.324575
0.337972 0.339879 0.339879
0.33608 0.337972 0.337972
0.356985 0.358862 0.358862
0.378286 0.380133 0.380133
0.399969 0.401785 0.401785
0.421363 0.423148 0.423148
0.442466 0.444205 0.444205
0.46247 0.464179 0.464179
0.481163 0.482841 0.482841
0.499077 0.500694 0.500694
0.5149 0.516503 0.516503
0.530251 0.531807 0.531807
0.544396 0.545922 0.545922
0.557794 0.559274 0.559274
0.570886 0.572335 0.572335
0.584375 0.585794 0.585794
0.597955 0.599329 0.599329
0.611185 0.612543 0.612543
0.623209 0.624521 0.624521
0.634256 0.635538 0.635538
0.64509 0.646342 0.646342
0.655726 0.656931 0.656931
0.664332 0.665537 0.665537
0.672679 0.673854 0.673854
0.680842 0.681987 0.681987
0.352056 0.353948 0.353948
0.336004 0.337896 0.337896
0.347127 0.34902 0.34902
0.257023 0.258961 0.258961
0.27306 0.274998 0.274998
0.288151 0.290089 0.290089
0.305135 0.307057 0.307057
0.328252 0.330159 0.330159
0.351919 0.353796 0.353796
0.332052 0.333959 0.333959
0.353094 0.354971 0.354971
0.374182 0.376028 0.376028
0.395911 0.397726 0.397726
0.417441 0.419226 0.419226
0.438605 0.44036 0.44036
0.458808 0.460533 0.460533
0.477729 0.479408 0.479408
0.496132 0.497765 0.497765
0.511955 0.513542 0.513542
0.527398 0.528954 0.528954
0.541878 0.543404 0.543404
0.555367 0.556863 0.556863
0.56846 0.569924 0.569924
0.581872 0.583291 0.583291
0.595422 0.596811 0.596811
0.608667 0.61001 0.61001
0.621103 0.622431 0.622431
0.632258 0.633555 0.633555
0.643091 0.644358 0.644358
0.653727 0.654948 0.654948
0.662715 0.663905 0.663905
0.671138 0.672312 0.672312
0.679301 0.680446 0.680446
0.351049 0.352926 0.352926
0.237217 0.239139 0.239139
0.24567 0.247593 0.247593
0.257084 0.259007 0.259007
0.2766 0.278538 0.278538
0.299138 0.30106 0.30106
0.323156 0.325063 0.325063
0.347234 0.349111 0.349111
0.371115 0.372976 0.372976
0.328359 0.330251 0.330251
0.349203 0.351095 0.351095
0.36997 0.371832 0.371832
0.391867 0.393698 0.393698
0.413382 0.415167 0.415167
0.434623 0.436377 0.436377
0.455283 0.457008 0.457008
0.474174 0.475853 0.475853
0.492729 0.494362 0.494362
0.508995 0.510597 0.510597
0.524529 0.526101 0.526101
0.539361 0.540902 0.540902
0.55285 0.554345 0.554345
0.566033 0.567498 0.567498
0.579232 0.580667 0.580667
0.592905 0.594293 0.594293
0.606256 0.607614 0.607614
0.619013 0.620325 0.620325
0.630152 0.631449 0.631449
0.641108 0.642359 0.642359
0.651728 0.652949 0.652949
0.661158 0.662348 0.662348
0.669505 0.670695 0.670695
0.533913 0.53547 0.53547
0.249348 0.25127 0.25127
0.24242 0.244358 0.244358
0.25536 0.257298 0.257298
0.273365 0.275303 0.275303
0.293767 0.295689 0.295689
0.316197 0.318105 0.318105
0.340322 0.342214 0.342214
0.364523 0.366384 0.366384
0.388434 0.390265 0.390265
0.32459 0.326497 0.326497
0.345235 0.347127 0.347127
0.365881 0.367758 0.367758
0.387839 0.38967 0.38967
0.409339 0.411139 0.411139
0.430777 0.432547 0.432547
0.451606 0.453346 0.453346
0.470741 0.472435 0.472435
0.489265 0.490913 0.490913
0.506035 0.507652 0.507652
0.521675 0.523262 0.523262
0.536751 0.538293 0.538293
0.550317 0.551827 0.551827
0.563516 0.564981 0.564981
0.576715 0.578149 0.578149
0.590387 0.591791 0.591791
0.603723 0.605097 0.605097
0.616861 0.618189 0.618189
0.628061 0.629358 0.629358
0.639109 0.64036 0.64036
0.649729 0.650965 0.650965
0.522911 0.524483 0.524483
0.520623 0.522194 0.522194
0.539528 0.54107 0.54107
0.261341 0.263279 0.263279
0.254215 0.256153 0.256153
0.269215 0.271138 0.271138
0.288014 0.289937 0.289937
0.309224 0.311147 0.311147
0.332341 0.334249 0.334249
0.356344 0.358221 0.358221
0.380743 0.382589 0.382589
0.404044 0.405859 0.405859
0.32076 0.322667 0.322667
0.341375 0.343267 0.343267
0.362066 0.363943 0.363943
0.383703 0.38555 0.38555
0.405356 0.407156 0.407156
0.42681 0.42858 0.42858
0.44773 0.449454 0.449454
0.467201 0.468894 0.468894
0.485817 0.487465 0.487465
0.50309 0.504707 0.504707
0.518715 0.520302 0.520302
0.534081 0.535622 0.535622
0.547799 0.54931 0.54931
0.56109 0.56257 0.56257
0.57409 0.575525 0.575525
0.587869 0.589273 0.589273
0.601328 0.602701 0.602701
0.61445 0.615778 0.615778
0.626062 0.627359 0.627359
0.511254 0.512856 0.512856
0.502464 0.504082 0.504082
0.522927 0.524498 0.524498
0.538674 0.5402 0.5402
0.556252 0.557748 0.557748
0.273869 0.275792 0.275792
0.267582 0.26952 0.26952
0.283314 0.285237 0.285237
0.302663 0.304585 0.304585
0.324269 0.326162 0.326162
0.347631 0.349508 0.349508
0.371267 0.373129 0.373129
0.394903 0.396735 0.396735
0.416922 0.418723 0.418723
0.31693 0.318837 0.318837
0.337438 0.33933 0.33933
0.358267 0.360128 0.360128
0.379705 0.381552 0.381552
0.401282 0.403098 0.403098
0.422736 0.424506 0.424506
0.443854 0.445594 0.445594
0.463661 0.465354 0.465354
0.482368 0.484031 0.484031
0.50013 0.501762 0.501762
0.515862 0.517449 0.517449
0.531212 0.532769 0.532769
0.545281 0.546807 0.546807
0.558663 0.560159 0.560159
0.571664 0.573114 0.573114
0.585229 0.586648 0.586648
0.598795 0.600168 0.600168
0.519051 0.520638 0.520638
0.481315 0.482979 0.482979
0.502602 0.504234 0.504234
0.519936 0.521508 0.521508
0.538033 0.539574 0.539574
0.556451 0.557946 0.557946
0.575143 0.576593 0.576593
0.287465 0.289387 0.289387
0.281193 0.283116 0.283116
0.297276 0.299199 0.299199
0.316838 0.318746 0.318746
0.338094 0.339986 0.339986
0.360952 0.362829 0.362829
0.383261 0.385092 0.385092
0.406027 0.407843 0.407843
0.427054 0.428824 0.428824
0.313115 0.315038 0.315038
0.333394 0.335302 0.335302
0.35436 0.356237 0.356237
0.375479 0.377325 0.377325
0.397345 0.399176 0.399176
0.418799 0.420584 0.420584
0.439979 0.441733 0.441733
0.459998 0.461707 0.461707
0.47892 0.480598 0.480598
0.497078 0.498711 0.498711
0.512901 0.514504 0.514504
0.528359 0.529915 0.529915
0.542763 0.544289 0.544289
0.556146 0.557641 0.557641
0.569238 0.570703 0.570703
0.582712 0.584131 0.584131
0.457771 0.45948 0.45948
0.479942 0.481621 0.481621
0.49836 0.499977 0.499977
0.516457 0.518044 0.518044
0.536294 0.537835 0.537835
0.556283 0.557778 0.557778
0.575784 0.577218 0.577218
0.59501 0.596399 0.596399
0.300649 0.302571 0.302571
0.29398 0.295903 0.295903
0.309941 0.311849 0.311849
0.329305 0.331212 0.331212
0.349538 0.351415 0.351415
0.371359 0.373205 0.373205
0.393256 0.395087 0.395087
0.415213 0.416999 0.416999
0.435752 0.437507 0.437507
0.309239 0.311147 0.311147
0.32961 0.331518 0.331518
0.350469 0.352361 0.352361
0.371374 0.373236 0.373236
0.393301 0.395132 0.395132
0.41474 0.416526 0.416526
0.435996 0.437751 0.437751
0.456474 0.458183 0.458183
0.475364 0.477043 0.477043
0.493935 0.495567 0.495567
0.510048 0.511666 0.511666
0.52549 0.527062 0.527062
0.540246 0.541772 0.541772
0.553719 0.55523 0.55523
0.431434 0.433204 0.433204
0.454429 0.456138 0.456138
0.473503 0.475181 0.475181
0.492927 0.494575 0.494575
0.513741 0.515343 0.515343
0.53373 0.535271 0.535271
0.554391 0.555886 0.555886
0.575494 0.576944 0.576944
0.595102 0.59649 0.59649
0.613931 0.615259 0.615259
0.313069 0.314992 0.314992
0.30605 0.307958 0.307958
0.320867 0.322774 0.322774
0.3393 0.341192 0.341192
0.358709 0.360571 0.360571
0.379767 0.381613 0.381613
0.40116 0.402975 0.402975
0.422889 0.424659 0.424659
0.442649 0.444389 0.444389
0.305364 0.307286 0.307286
0.325841 0.327749 0.327749
0.346593 0.348486 0.348486
0.367178 0.369039 0.369039
0.389273 0.391104 0.391104
0.410681 0.412482 0.412482
0.432013 0.433783 0.433783
0.452827 0.454551 0.454551
0.471931 0.47361 0.47361
0.490471 0.492119 0.492119
0.507103 0.508705 0.508705
0.522637 0.524208 0.524208
0.40882 0.41062 0.41062
0.426444 0.428214 0.428214
0.446494 0.448218 0.448218
0.466407 0.468101 0.468101
0.487495 0.489143 0.489143
0.508797 0.510399 0.510399
0.530892 0.532448 0.532448
0.552026 0.553521 0.553521
0.572702 0.574151 0.574151
0.593561 0.594965 0.594965
0.613367 0.61471 0.61471
0.631434 0.632731 0.632731
0.323751 0.325658 0.325658
0.314473 0.316381 0.316381
0.329366 0.331273 0.331273
0.347112 0.349004 0.349004
0.365896 0.367758 0.367758
0.386542 0.388373 0.388373
0.407218 0.409033 0.409033
0.428901 0.430671 0.430671
0.448127 0.449866 0.449866
0.301503 0.303426 0.303426
0.322011 0.323919 0.323919
0.342641 0.344518 0.344518
0.363348 0.365209 0.365209
0.385122 0.386969 0.386969
0.406683 0.408484 0.408484
0.428046 0.429816 0.429816
0.449119 0.450843 0.450843
0.468376 0.470069 0.470069
0.487007 0.48867 0.48867
0.383154 0.384985 0.384985
0.396689 0.398505 0.398505
0.417487 0.419287 0.419287
0.437201 0.438956 0.438956
0.459052 0.460761 0.460761
0.481071 0.482734 0.482734
0.503273 0.504891 0.504891
0.525841 0.527413 0.527413
0.548135 0.549645 0.549645
0.569192 0.570657 0.570657
0.58996 0.591363 0.591363
0.610574 0.611917 0.611917
0.629664 0.630961 0.630961
0.645594 0.646845 0.646845
0.332357 0.334264 0.334264
0.32195 0.323842 0.323842
0.336339 0.338231 0.338231
0.35346 0.355337 0.355337
0.371908 0.373754 0.373754
0.392126 0.393957 0.393957
0.412207 0.414008 0.414008
0.432761 0.434516 0.434516
0.452491 0.454215 0.454215
0.297627 0.29955 0.29955
0.318273 0.32018 0.32018
0.338781 0.340673 0.340673
0.359533 0.36141 0.36141
0.381003 0.382849 0.382849
0.402731 0.404547 0.404547
0.424094 0.425879 0.425879
0.445106 0.446845 0.446845
0.353567 0.355444 0.355444
0.363546 0.365408 0.365408
0.38555 0.387396 0.387396
0.405661 0.407477 0.407477
0.428031 0.429801 0.429801
0.450538 0.452262 0.452262
0.47335 0.475029 0.475029
0.496605 0.498238 0.498238
0.519722 0.521294 0.521294
0.542077 0.543603 0.543603
0.564202 0.565682 0.565682
0.584848 0.586267 0.586267
0.60499 0.606348 0.606348
0.624613 0.625925 0.625925
0.641642 0.642908 0.642908
0.656123 0.657343 0.657343
0.33933 0.341222 0.341222
0.327779 0.329686 0.329686
0.342428 0.34432 0.34432
0.357824 0.359686 0.359686
0.376883 0.378729 0.378729
0.396048 0.397864 0.397864
0.416709 0.418494 0.418494
0.43653 0.438285 0.438285
0.455802 0.457511 0.457511
0.293782 0.295705 0.295705
0.314458 0.316365 0.316365
0.334752 0.336645 0.336645
0.355734 0.35761 0.35761
0.376883 0.378744 0.378744
0.398672 0.400488 0.400488
0.321889 0.323796 0.323796
0.326024 0.327916 0.327916
0.348898 0.35079 0.35079
0.370748 0.37261 0.37261
0.394568 0.396384 0.396384
0.41735 0.419135 0.419135
0.440909 0.442664 0.442664
0.46421 0.465904 0.465904
0.488151 0.489815 0.489815
0.512291 0.513878 0.513878
0.534951 0.536492 0.536492
0.557015 0.558511 0.558511
0.578073 0.579507 0.579507
0.598764 0.600137 0.600137
0.617121 0.618448 0.618448
0.634348 0.63563 0.63563
0.65069 0.651926 0.651926
0.665095 0.666285 0.666285
0.344808 0.3467 0.3467
0.332265 0.334157 0.334157
0.347158 0.349035 0.349035
0.362234 0.364111 0.364111
0.380636 0.382483 0.382483
0.399039 0.400854 0.400854
0.419577 0.421363 0.421363
0.440299 0.442054 0.442054
0.458259 0.459968 0.459968
0.289952 0.291875 0.291875
0.310567 0.312474 0.312474
0.330877 0.332769 0.332769
0.351843 0.353719 0.353719
0.315129 0.317037 0.317037
0.285634 0.287556 0.287556
0.307881 0.309789 0.309789
0.33077 0.332662 0.332662
0.354742 0.356619 0.356619
0.379934 0.381765 0.381765
0.405737 0.407538 0.407538
0.429572 0.431342 0.431342
0.453819 0.455543 0.455543
0.478233 0.479896 0.479896
0.501976 0.503594 0.503594
0.526696 0.528252 0.528252
0.548974 0.550484 0.550484
0.569329 0.570794 0.570794
0.589792 0.591196 0.591196
0.609323 0.610681 0.610681
0.625666 0.626963 0.626963
0.641978 0.643229 0.643229
0.657969 0.65919 0.65919
0.671748 0.672923 0.672923
0.348913 0.35079 0.35079
0.335576 0.337469 0.337469
0.34966 0.351537 0.351537
0.365652 0.367514 0.367514
0.383062 0.384909 0.384909
0.401511 0.403326 0.403326
0.421759 0.423545 0.423545
0.442161 0.443915 0.443915
0.460029 0.461738 0.461738
0.286061 0.287984 0.287984
0.306691 0.308598 0.308598
0.327108 0.329015 0.329015
0.246021 0.247944 0.247944
0.266133 0.26807 0.26807
0.287938 0.28986 0.28986
0.311299 0.313222 0.313222
0.33727 0.339162 0.339162
0.363928 0.365789 0.365789
0.389975 0.391791 0.391791
0.416831 0.418616 0.418616
0.442145 0.443885 0.443885
0.466529 0.468223 0.468223
0.491783 0.493431 0.493431
0.51603 0.517632 0.517632
0.537697 0.539239 0.539239
0.558343 0.559823 0.559823
0.5785 0.579934 0.579934
0.597604 0.598993 0.598993
0.615869 0.617197 0.617197
0.632136 0.633417 0.633417
0.648173 0.649409 0.649409
0.663417 0.664607 0.664607
0.676417 0.677577 0.677577
0.351568 0.353445 0.353445
0.338003 0.339895 0.339895
0.351354 0.353231 0.353231
0.367559 0.369421 0.369421
0.384924 0.386755 0.386755
0.403113 0.404913 0.404913
0.423499 0.425269 0.425269
0.443671 0.445411 0.445411
0.461128 0.462837 0.462837
0.282094 0.284016 0.284016
0.20911 0.211017 0.211017
0.226581 0.228504 0.228504
0.246189 0.248127 0.248127
0.267536 0.269459 0.269459
0.292103 0.294026 0.294026
0.317891 0.319799 0.319799
0.345083 0.346975 0.346975
0.372839 0.374685 0.374685
0.400534 0.40235 0.40235
0.428077 0.429847 0.429847
0.453727 0.455451 0.455451
0.479103 0.480781 0.480781
0.503578 0.505196 0.505196
0.524865 0.526436 0.526436
0.545251 0.546777 0.546777
0.565301 0.566766 0.566766
0.583886 0.585306 0.585306
0.602899 0.604257 0.604257
0.621607 0.622919 0.622919
0.637797 0.639063 0.639063
0.652308 0.653529 0.653529
0.66656 0.66775 0.66775
0.679667 0.680812 0.680812
0.353399 0.355276 0.355276
0.33994 0.341833 0.341833
0.35285 0.354726 0.354726
0.368719 0.370565 0.370565
0.386023 0.387854 0.387854
0.404318 0.406119 0.406119
0.424475 0.426261 0.426261
0.44448 0.44622 0.44622
0.461952 0.463661 0.463661
0.18819 0.190066 0.190066
0.206699 0.208606 0.208606
0.226627 0.22855 0.22855
0.248661 0.250584 0.250584
0.272084 0.274022 0.274022
0.297826 0.299748 0.299748
0.324834 0.326726 0.326726
0.352758 0.354635 0.354635
0.382376 0.384207 0.384207
0.410178 0.411978 0.411978
0.437079 0.438834 0.438834
0.462425 0.464134 0.464134
0.486564 0.488212 0.488212
0.509544 0.511147 0.511147
0.530236 0.531792 0.531792
0.549889 0.5514 0.5514
0.56965 0.571099 0.571099
0.589929 0.591333 0.591333
0.608942 0.610285 0.610285
0.625513 0.626825 0.626825
0.640711 0.641978 0.641978
0.655207 0.656428 0.656428
0.676677 0.677821 0.677821
0.697383 0.698482 0.698482
0.370993 0.372854 0.372854
0.359243 0.36112 0.36112
0.372702 0.374563 0.374563
0.38851 0.390341 0.390341
0.403876 0.405676 0.405676
0.420005 0.42179 0.42179
0.437552 0.439307 0.439307
0.453361 0.455085 0.455085
0.466133 0.467826 0.467826
0.186343 0.18822 0.18822
0.207324 0.209232 0.209232
0.229389 0.231312 0.231312
0.252415 0.254353 0.254353
0.277638 0.279576 0.279576
0.303883 0.305791 0.305791
0.330846 0.332753 0.332753
0.35996 0.361822 0.361822
0.389334 0.391165 0.391165
0.416556 0.418357 0.418357
0.442786 0.444526 0.444526
0.468299 0.469993 0.469993
0.491432 0.49308 0.49308
0.513283 0.51487 0.51487
0.533822 0.535363 0.535363
0.554696 0.556191 0.556191
0.578546 0.57998 0.57998
0.60351 0.604868 0.604868
0.626825 0.628138 0.628138
0.649973 0.651209 0.651209
0.673198 0.674357 0.674357
0.694896 0.695979 0.695979
0.715038 0.716075 0.716075
0.733974 0.734951 0.734951
0.396155 0.397971 0.397971
0.382895 0.384726 0.384726
0.394965 0.39678 0.39678
0.409903 0.411704 0.411704
0.425391 0.427161 0.427161
0.440879 0.442634 0.442634
0.457206 0.458915 0.458915
0.471824 0.473503 0.473503
0.485634 0.487297 0.487297
0.186236 0.188113 0.188113
0.208988 0.210895 0.210895
0.231861 0.233783 0.233783
0.25658 0.258518 0.258518
0.282017 0.283955 0.283955
0.307622 0.309545 0.309545
0.336965 0.338857 0.338857
0.365606 0.367468 0.367468
0.393515 0.395331 0.395331
0.420371 0.422156 0.422156
0.447807 0.449546 0.449546
0.481209 0.482887 0.482887
0.511269 0.512856 0.512856
0.53933 0.540871 0.540871
0.567483 0.568948 0.568948
0.595148 0.596536 0.596536
0.620569 0.621881 0.621881
0.643977 0.645228 0.645228
0.666728 0.667918 0.667918
0.690333 0.691447 0.691447
0.712993 0.714046 0.714046
0.731746 0.732723 0.732723
0.750195 0.75111 0.75111
0.768612 0.769467 0.769467
0.419791 0.421576 0.421576
0.403983 0.405798 0.405798
0.415625 0.417411 0.417411
0.430289 0.432044 0.432044
0.444678 0.446418 0.446418
0.459937 0.461646 0.461646
0.475807 0.477485 0.477485
0.489754 0.491402 0.491402
0.503212 0.504829 0.504829
0.187121 0.188998 0.188998
0.210834 0.212741 0.212741
0.237705 0.239628 0.239628
0.268345 0.270283 0.270283
0.298878 0.300801 0.300801
0.332662 0.334554 0.334554
0.366323 0.368185 0.368185
0.398032 0.399847 0.399847
0.430488 0.432258 0.432258
0.464607 0.4663 0.4663
0.497917 0.499535 0.499535
0.529015 0.530571 0.530571
0.556985 0.55848 0.55848
0.584237 0.585657 0.585657
0.61178 0.613123 0.613123
0.637049 0.638331 0.638331
0.65948 0.660685 0.660685
0.681727 0.682857 0.682857
0.704662 0.70573 0.70573
0.727016 0.728008 0.728008
0.747723 0.748653 0.748653
0.76585 0.76672 0.76672
0.783246 0.784054 0.784054
0.800381 0.801129 0.801129
0.441947 0.443687 0.443687
0.424155 0.425925 0.425925
0.434577 0.436347 0.436347
0.448554 0.450294 0.450294
0.462821 0.46453 0.46453
0.478218 0.479896 0.479896
0.493065 0.494713 0.494713
0.506783 0.5084 0.5084
0.519844 0.521431 0.521431
0.22446 0.226383 0.226383
0.254246 0.256168 0.256168
0.284749 0.286687 0.286687
0.314549 0.316457 0.316457
0.348653 0.35053 0.35053
0.381292 0.383139 0.383139
0.411963 0.413748 0.413748
0.444495 0.446235 0.446235
0.478553 0.480217 0.480217
0.511742 0.513344 0.513344
0.542412 0.543938 0.543938
0.571572 0.573022 0.573022
0.597742 0.599115 0.599115
0.625391 0.626688 0.626688
0.652125 0.653361 0.653361
0.673899 0.675059 0.675059
0.695567 0.696666 0.696666
0.717891 0.718929 0.718929
0.740169 0.741115 0.741115
0.761166 0.762036 0.762036
0.780255 0.781079 0.781079
0.797192 0.797955 0.797955
0.814069 0.814771 0.814771
0.830732 0.831373 0.831373
0.462226 0.463935 0.463935
0.441962 0.443702 0.443702
0.452522 0.454246 0.454246
0.466224 0.467933 0.467933
0.47982 0.481483 0.481483
0.494087 0.49572 0.49572
0.509331 0.510933 0.510933
0.523247 0.524819 0.524819
0.535592 0.537133 0.537133
0.267659 0.269581 0.269581
0.298497 0.30042 0.30042
0.327092 0.329 0.329
0.360403 0.36228 0.36228
0.392935 0.394766 0.394766
0.424491 0.426261 0.426261
0.456992 0.458717 0.458717
0.489189 0.490837 0.490837
0.52163 0.523201 0.523201
0.553368 0.554864 0.554864
0.580636 0.582071 0.582071
0.607675 0.609033 0.609033
0.63595 0.637232 0.637232
0.663127 0.664332 0.664332
0.68748 0.688594 0.688594
0.708873 0.709926 0.709926
0.730877 0.731853 0.731853
0.753536 0.754452 0.754452
0.773297 0.774136 0.774136
0.791638 0.792416 0.792416
0.810101 0.810819 0.810819
0.826993 0.827649 0.827649
0.841779 0.842374 0.842374
0.856519 0.857069 0.857069
0.480903 0.482567 0.482567
0.459236 0.460945 0.460945
0.469291 0.470985 0.470985
0.482155 0.483818 0.483818
0.495933 0.497566 0.497566
0.509377 0.510979 0.510979
0.524865 0.526436 0.526436
0.538308 0.539849 0.539849
0.550103 0.551598 0.551598
0.306172 0.308095 0.308095
0.337957 0.339849 0.339864
0.369131 0.370993 0.370993
0.401556 0.403372 0.403372
0.43238 0.43415 0.43415
0.465721 0.467414 0.467414
0.497932 0.499565 0.499565
0.52961 0.531167 0.531167
0.558312 0.559792 0.559792
0.587259 0.588678 0.588678
0.616541 0.617884 0.617884
0.646555 0.647807 0.647807
0.675471 0.676631 0.676631
0.698665 0.699748 0.699748
0.720577 0.721584 0.721584
0.742336 0.743267 0.743267
0.763912 0.764782 0.764782
0.783597 0.784405 0.784405
0.801984 0.802716 0.802716
0.820249 0.820935 0.820935
0.837232 0.837842 0.837842
0.852445 0.85301 0.85301
0.86685 0.867353 0.867353
0.881346 0.881788 0.881788
0.497917 0.499535 0.499535
0.475593 0.477272 0.477272
0.484871 0.486534 0.486534
0.497627 0.49926 0.49926
0.511421 0.513024 0.513024
0.524041 0.525612 0.525612
0.538827 0.540368 0.540368
0.552758 0.554253 0.554253
0.564309 0.565789 0.565789
0.341238 0.34313 0.34313
0.375967 0.377813 0.377813
0.406775 0.408591 0.408591
0.438453 0.440208 0.440208
0.471916 0.473594 0.473594
0.504921 0.506539 0.506539
0.533196 0.534752 0.534752
0.561456 0.562921 0.562921
0.590967 0.592371 0.592371
0.623484 0.624796 0.624796
0.655299 0.656519 0.656519
0.683223 0.684352 0.684352
0.7084 0.709453 0.709453
0.730114 0.73109 0.73109
0.751766 0.752682 0.752682
0.772717 0.773571 0.773571
0.792386 0.793164 0.793164
0.811322 0.812039 0.812039
0.828489 0.829145 0.829145
0.844999 0.845579 0.845579
0.86125 0.861784 0.861784
0.876707 0.87718 0.87718
0.890013 0.89044 0.89044
0.90219 0.902556 0.902556
0.512398 0.514 0.514
0.491493 0.493141 0.493141
0.499947 0.501579 0.501579
0.51191 0.513512 0.513512
0.525353 0.526925 0.526925
0.538231 0.539773 0.539773
0.552392 0.553903 0.553903
0.566705 0.56817 0.56817
0.577432 0.578866 0.578866
0.371527 0.373373 0.373373
0.405035 0.406836 0.406836
0.438804 0.440558 0.440558
0.472694 0.474372 0.474372
0.507149 0.508751 0.508751
0.535363 0.536919 0.536919
0.563775 0.565255 0.565255
0.5944 0.595789 0.595789
0.625864 0.627176 0.627176
0.658152 0.659373 0.659373
0.68661 0.687739 0.687739
0.712306 0.713344 0.713344
0.737728 0.738689 0.738689
0.759106 0.759991 0.759991
0.780362 0.781186 0.781186
0.801358 0.80209 0.80209
0.819394 0.820081 0.820081
0.835889 0.8365 0.8365
0.852232 0.852796 0.852796
0.868376 0.868879 0.868879
0.884092 0.88455 0.88455
0.898238 0.898634 0.898634
0.910369 0.910719 0.910719
0.921965 0.922271 0.922271
0.526452 0.528008 0.528008
0.505837 0.507454 0.507454
0.513603 0.515206 0.515206
0.525429 0.527001 0.527001
0.538811 0.540352 0.540352
0.552117 0.553613 0.553613
0.565515 0.566979 0.566979
0.579065 0.580499 0.580499
0.589944 0.591348 0.591348
0.394461 0.396292 0.396292
0.431281 0.433051 0.433051
0.466789 0.468498 0.468498
0.502495 0.504112 0.504112
0.534752 0.536309 0.536309
0.56437 0.565835 0.565835
0.596338 0.597726 0.597726
0.62681 0.628107 0.628107
0.654978 0.656199 0.656199
0.684779 0.685908 0.685908
0.714153 0.71519 0.71519
0.739193 0.740154 0.740154
0.763912 0.764797 0.764797
0.786175 0.786984 0.786984
0.807172 0.807889 0.807889
0.826474 0.827131 0.827131
0.843061 0.843671 0.843671
0.85919 0.859724 0.859724
0.874891 0.87538 0.87538
0.890349 0.890776 0.890776
0.904921 0.905287 0.905287
0.9187 0.91902 0.91902
0.930159 0.930434 0.930434
0.941604 0.941833 0.941833
0.541314 0.542855 0.542855
0.519112 0.520684 0.520684
0.526894 0.528466 0.528466
0.538659 0.5402 0.5402
0.551507 0.553002 0.553002
0.564965 0.56643 0.56643
0.578256 0.57969 0.57969
0.591196 0.592599 0.592599
0.602106 0.603479 0.603479
0.412909 0.41471 0.41471
0.45211 0.453834 0.453834
0.490471 0.492119 0.492119
0.527062 0.528634 0.528634
0.55819 0.55967 0.55967
0.59115 0.592538 0.592538
0.623697 0.62501 0.62501
0.652461 0.653696 0.653696
0.680507 0.681651 0.681651
0.710323 0.71136 0.71136
0.73904 0.739986 0.739986
0.764294 0.765164 0.765164
0.78883 0.789624 0.789624
0.811002 0.811704 0.811704
0.830823 0.831464 0.831464
0.849867 0.850446 0.850446
0.86595 0.866453 0.866453
0.881422 0.88188 0.88188
0.896834 0.897231 0.897231
0.911406 0.911757 0.911757
0.925261 0.925566 0.925566
0.938109 0.938338 0.938338
0.949584 0.949783 0.949783
0.961044 0.961196 0.961196
0.555734 0.557229 0.557229
0.53196 0.533516 0.533516
0.539544 0.54107 0.54107
0.550942 0.552453 0.552453
0.563363 0.564828 0.564828
0.577493 0.578927 0.578927
0.590646 0.592035 0.592035
0.603082 0.60444 0.60444
0.613458 0.614786 0.614786
0.432837 0.434607 0.434607
0.468421 0.470115 0.470115
0.512383 0.513985 0.513985
0.545068 0.546593 0.546593
0.580438 0.581872 0.581872
0.615961 0.617288 0.617288
0.647532 0.648768 0.648768
