filmlog/Views/Shaders/LutBWNeutral.cube
TITLE "Generated by Resolve"
LUT_3D_SIZE 5
0.340032 0.341909 0.341909
0.502129 0.503746 0.503746
0.613596 0.614939 0.614939
0.353002 0.354879 0.354879
0.337972 0.339879 0.339879
0.309239 0.311147 0.311147
0.475364 0.477043 0.477043
0.473503 0.475181 0.475181
0.313069 0.314992 0.314992
0.442649 0.444389 0.444389
0.18819 0.190066 0.190066
0.382376 0.384207 0.384207
0.56965 0.571099 0.571099
0.370993 0.372854 0.372854
0.466133 0.467826 0.467826
0.371527 0.373373 0.373373
0.625864 0.627176 0.627176
0.819394 0.820081 0.820081
0.526452 0.528008 0.528008
0.589944 0.591348 0.591348
0.540429 0.54197 0.54197
0.795178 0.795956 0.795956
0.97464 0.974731 0.974731
0.624292 0.625589 0.625589
0.672145 0.67332 0.67332
0.262531 0.264454 0.264454
0.430808 0.432563 0.432563
0.264347 0.26627 0.26627
0.569696 0.571145 0.571145
0.656825 0.65803 0.65803
0.233082 0.235004 0.235004
0.39881 0.400626 0.400626
0.168521 0.170367 0.170367
0.444526 0.446265 0.446265
0.718608 0.719631 0.719631
0.131823 0.133577 0.133577
0.296254 0.298177 0.298177
0.225055 0.226978 0.226978
0.45478 0.456504 0.456504
0.732631 0.733608 0.733608
0.33843 0.340322 0.340322
0.573968 0.575402 0.575402
0.40798 0.409781 0.409781
0.580987 0.582422 0.582422
0.841856 0.842451 0.842451
0.576577 0.578012 0.578012
0.701717 0.702785 0.702785
0.509789 0.511391 0.511391
0.675837 0.676997 0.676997
0.93875 0.938994 0.938994
0.03888 0.0400397 0.0400397
0.150896 0.152697 0.152697
0.440574 0.442313 0.442313
0.749783 0.750713 0.750713
0.763821 0.764691 0.764691
0.0305638 0.0316167 0.0316167
0.124773 0.126497 0.126497
0.31519 0.317113 0.317113
0.568872 0.570336 0.570336
0.75671 0.75761 0.75761
0 0 0
0.0692912 0.0707408 0.0707408
0.315236 0.317143 0.317143
0.583276 0.58471 0.58471
0.765774 0.766644 0.766644
0.227192 0.229114 0.229114
0.251408 0.253346 0.253346
0.536614 0.538155 0.538155
0.770291 0.77113 0.77113
0.909697 0.910048 0.910048
1 1 1
0.357809 0.35967 0.35967
0.648203 0.649454 0.649454
0.881315 0.881773 0.881773
1 1 1
0.201389 0.203281 0.203281
0.406638 0.408438 0.408438
0.71313 0.714168 0.714168
0.95378 0.953964 0.953964
0.877104 0.877577 0.877577
0.893629 0.894041 0.894041
0.381415 0.383261 0.383261
0.536263 0.537804 0.537804
0.744106 0.745037 0.745037
0.895781 0.896193 0.896193
0.708598 0.709651 0.709651
0.258762 0.260685 0.260685
0.533516 0.535073 0.535073
0.76466 0.76553 0.76553
0.899321 0.899702 0.899702
0.775753 0.776577 0.776577
0.236255 0.238178 0.238178
0.515694 0.517281 0.517281
0.750927 0.751842 0.751842
0.89485 0.895247 0.895247
1 1 1
0.371679 0.373526 0.373526
0.618601 0.619928 0.619928
0.853147 0.853697 0.853697
0.987823 0.987869 0.987869
1 1 1
0.520165 0.521737 0.521737
0.773434 0.774273 0.774273
1 1 1
0.925444 0.925734 0.925734
1 1 1
0.480629 0.482292 0.482292
0.579416 0.58085 0.58085
0.804196 0.804929 0.804929
0.966522 0.966659 0.966659
1 1 1
0.361166 0.363043 0.363043
0.57174 0.57319 0.57319
0.818647 0.819333 0.819333
0.967926 0.968048 0.968048
1 1 1
0.427054 0.428824 0.428824
0.540612 0.542138 0.542138
0.79202 0.792798 0.792798
0.95111 0.951293 0.951293
1 1 1
1 1 1
0.48481 0.486473 0.486473
0.766155 0.767025 0.767025
0.943496 0.943709 0.943709
