filmlog/Views/Shaders/LutExposure.cube
TITLE "Generated by Resolve"
LUT_3D_SIZE 33
0.176043 0.369528 0.0801709
0.176043 0.369528 0.0801709
0.176043 0.369528 0.0801709
0.176043 0.369528 0.0801709
0.369528 0.810681 0.313863
0.369528 0.810681 0.313863
0.369528 0.810681 0.313863
0.369528 0.810681 0.313863
0.369528 0.810681 0.313863
0.369528 0.810681 0.313863
0.369528 0.810681 0.313863
0.369528 0.810681 0.313863
0.263111 0.263111 0.263111
0.263111 0.263111 0.263111
0.263111 0.263111 0.263111
0.263111 0.263111 0.263111
0.263111 0.263111 0.263111
0.263111 0.263111 0.263111
0.263111 0.263111 0.263111
0.263111 0.263111 0.263111
0.263111 0.263111 0.263111
0.263111 0.263111 0.263111
0.263111 0.263111 0.263111
0.263111 0.263111 0.263111
0.263111 0.263111 0.263111
1 0.902632 0.0801709
1 0.902632 0.0801709
1 0.902632 0.0801709
1 0.902632 0.0801709
1 0.902632 0.0801709
0.810681 0.263111 0.0801709
0.810681 0.263111 0.0801709
0.810681 0.263111 0.0801709
0.176043 0.369528 0.0801709
0.176043 0.369528 0.0801709
0.176043 0.369528 0.0801709
0.176043 0.369528 0.0801709
0.369528 0.810681 0.313863
0.369528 0.810681 0.313863
0.369528 0.810681 0.313863
0.369528 0.810681 0.313863
0.369528 0.810681 0.313863
0.369528 0.810681 0.313863
0.369528 0.810681 0.313863
0.369528 0.810681 0.313863
0.369528 0.810681 0.313863
0.263111 0.263111 0.263111
0.263111 0.263111 0.263111
0.263111 0.263111 0.263111
0.263111 0.263111 0.263111
0.263111 0.263111 0.263111
0.263111 0.263111 0.263111
0.263111 0.263111 0.263111
0.263111 0.263111 0.263111
0.263111 0.263111 0.263111
0.263111 0.263111 0.263111
0.263111 0.263111 0.263111
0.263111 0.263111 0.263111
1 0.902632 0.0801709
1 0.902632 0.0801709
1 0.902632 0.0801709
1 0.902632 0.0801709
1 0.902632 0.0801709
0.810681 0.263111 0.0801709
0.810681 0.263111 0.0801709
0.810681 0.263111 0.0801709
0.176043 0.369528 0.0801709
0.176043 0.369528 0.0801709
0.176043 0.369528 0.0801709
0.176043 0.369528 0.0801709
0.369528 0.810681 0.313863
0.369528 0.810681 0.313863
0.369528 0.810681 0.313863
0.369528 0.810681 0.313863
0.369528 0.810681 0.313863
0.369528 0.810681 0.313863
0.369528 0.810681 0.313863
0.369528 0.810681 0.313863
0.369528 0.810681 0.313863
0.263111 0.263111 0.263111
0.263111 0.263111 0.263111
0.263111 0.263111 0.263111
0.263111 0.263111 0.263111
0.263111 0.263111 0.263111
0.263111 0.263111 0.263111
0.263111 0.263111 0.263111
0.263111 0.263111 0.263111
0.263111 0.263111 0.263111
0.263111 0.263111 0.263111
0.263111 0.263111 0.263111
0.263111 0.263111 0.263111
1 0.902632 0.0801709
1 0.902632 0.0801709
1 0.902632 0.0801709
1 0.902632 0.0801709
0.810681 0.263111 0.0801709
0.810681 0.263111 0.0801709
0.810681 0.263111 0.0801709
0.810681 0.263111 0.0801709
0.176043 0.369528 0.0801709
0.176043 0.369528 0.0801709
0.176043 0.369528 0.0801709
0.176043 0.369528 0.0801709
0.369528 0.810681 0.313863
0.369528 0.810681 0.313863
0.369528 0.810681 0.313863
0.369528 0.810681 0.313863
0.369528 0.810681 0.313863
0.369528 0.810681 0.313863
0.369528 0.810681 0.313863
0.369528 0.810681 0.313863
0.369528 0.810681 0.313863
0.263111 0.263111 0.263111
0.263111 0.263111 0.263111
0.263111 0.263111 0.263111
0.263111 0.263111 0.263111
0.263111 0.263111 0.263111
0.263111 0.263111 0.263111
0.263111 0.263111 0.263111
0.263111 0.263111 0.263111
0.263111 0.263111 0.263111
0.263111 0.263111 0.263111
0.263111 0.263111 0.263111
0.263111 0.263111 0.263111
1 0.902632 0.0801709
1 0.902632 0.0801709
1 0.902632 0.0801709
1 0.902632 0.0801709
0.810681 0.263111 0.0801709
0.810681 0.263111 0.0801709
0.810681 0.263111 0.0801709
0.810681 0.263111 0.0801709
0.176043 0.369528 0.0801709
0.176043 0.369528 0.0801709
0.176043 0.369528 0.0801709
0.176043 0.369528 0.0801709
0.176043 0.369528 0.0801709
0.369528 0.810681 0.313863
0.369528 0.810681 0.313863
0.369528 0.810681 0.313863
0.369528 0.810681 0.313863
0.369528 0.810681 0.313863
0.369528 0.810681 0.313863
0.369528 0.810681 0.313863
0.369528 0.810681 0.313863
0.263111 0.263111 0.263111
0.263111 0.263111 0.263111
0.263111 0.263111 0.263111
0.263111 0.263111 0.263111
0.263111 0.263111 0.263111
0.263111 0.263111 0.263111
0.263111 0.263111 0.263111
0.263111 0.263111 0.263111
0.263111 0.263111 0.263111
0.263111 0.263111 0.263111
0.263111 0.263111 0.263111
1 0.902632 0.0801709
1 0.902632 0.0801709
1 0.902632 0.0801709
1 0.902632 0.0801709
1 0.902632 0.0801709
0.810681 0.263111 0.0801709
0.810681 0.263111 0.0801709
0.810681 0.263111 0.0801709
0.810681 0.263111 0.0801709
0.176043 0.369528 0.0801709
0.176043 0.369528 0.0801709
0.176043 0.369528 0.0801709
0.176043 0.369528 0.0801709
0.176043 0.369528 0.0801709
0.369528 0.810681 0.313863
0.369528 0.810681 0.313863
0.369528 0.810681 0.313863
0.369528 0.810681 0.313863
0.369528 0.810681 0.313863
0.369528 0.810681 0.313863
0.369528 0.810681 0.313863
0.369528 0.810681 0.313863
0.263111 0.263111 0.263111
0.263111 0.263111 0.263111
0.263111 0.263111 0.263111
0.263111 0.263111 0.263111
0.263111 0.263111 0.263111
0.263111 0.263111 0.263111
0.263111 0.263111 0.263111
0.263111 0.263111 0.263111
0.263111 0.263111 0.263111
0.263111 0.263111 0.263111
0.263111 0.263111 0.263111
1 0.902632 0.0801709
1 0.902632 0.0801709
1 0.902632 0.0801709
1 0.902632 0.0801709
1 0.902632 0.0801709
0.810681 0.263111 0.0801709
0.810681 0.263111 0.0801709
0.810681 0.263111 0.0801709
0.810681 0.263111 0.0801709
0.176043 0.369528 0.0801709
0.176043 0.369528 0.0801709
0.176043 0.369528 0.0801709
0.176043 0.369528 0.0801709
0.176043 0.369528 0.0801709
0.369528 0.810681 0.313863
0.369528 0.810681 0.313863
0.369528 0.810681 0.313863
0.369528 0.810681 0.313863
0.369528 0.810681 0.313863
0.369528 0.810681 0.313863
0.369528 0.810681 0.313863
0.369528 0.810681 0.313863
0.369528 0.810681 0.313863
0.263111 0.263111 0.263111
0.263111 0.263111 0.263111
0.263111 0.263111 0.263111
0.263111 0.263111 0.263111
0.263111 0.263111 0.263111
0.263111 0.263111 0.263111
0.263111 0.263111 0.263111
0.263111 0.263111 0.263111
0.263111 0.263111 0.263111
1 0.902632 0.0801709
1 0.902632 0.0801709
1 0.902632 0.0801709
1 0.902632 0.0801709
1 0.902632 0.0801709
1 0.902632 0.0801709
0.810681 0.263111 0.0801709
0.810681 0.263111 0.0801709
0.810681 0.263111 0.0801709
0.810681 0.263111 0.0801709
0.176043 0.369528 0.0801709
0.176043 0.369528 0.0801709
0.176043 0.369528 0.0801709
0.176043 0.369528 0.0801709
0.176043 0.369528 0.0801709
0.369528 0.810681 0.313863
0.369528 0.810681 0.313863
0.369528 0.810681 0.313863
0.369528 0.810681 0.313863
0.369528 0.810681 0.313863
0.369528 0.810681 0.313863
0.369528 0.810681 0.313863
0.369528 0.810681 0.313863
0.369528 0.810681 0.313863
0.263111 0.263111 0.263111
0.263111 0.263111 0.263111
0.263111 0.263111 0.263111
0.263111 0.263111 0.263111
0.263111 0.263111 0.263111
0.263111 0.263111 0.263111
0.263111 0.263111 0.263111
0.263111 0.263111 0.263111
0.263111 0.263111 0.263111
1 0.902632 0.0801709
1 0.902632 0.0801709
1 0.902632 0.0801709
1 0.902632 0.0801709
1 0.902632 0.0801709
0.810681 0.263111 0.0801709
0.810681 0.263111 0.0801709
0.810681 0.263111 0.0801709
0.810681 0.263111 0.0801709
0.810681 0.263111 0.0801709
0.176043 0.369528 0.0801709
0.176043 0.369528 0.0801709
0.176043 0.369528 0.0801709
0.176043 0.369528 0.0801709
0.176043 0.369528 0.0801709
0.369528 0.810681 0.313863
0.369528 0.810681 0.313863
0.369528 0.810681 0.313863
0.369528 0.810681 0.313863
0.369528 0.810681 0.313863
0.369528 0.810681 0.313863
0.369528 0.810681 0.313863
0.369528 0.810681 0.313863
0.369528 0.810681 0.313863
0.263111 0.263111 0.263111
0.263111 0.263111 0.263111
0.263111 0.263111 0.263111
0.263111 0.263111 0.263111
0.263111 0.263111 0.263111
0.263111 0.263111 0.263111
0.263111 0.263111 0.263111
0.263111 0.263111 0.263111
0.263111 0.263111 0.263111
1 0.902632 0.0801709
1 0.902632 0.0801709
1 0.902632 0.0801709
1 0.902632 0.0801709
1 0.902632 0.0801709
0.810681 0.263111 0.0801709
0.810681 0.263111 0.0801709
0.810681 0.263111 0.0801709
0.810681 0.263111 0.0801709
0.810681 0.263111 0.0801709
0.176043 0.369528 0.0801709
0.176043 0.369528 0.0801709
0.176043 0.369528 0.0801709
0.176043 0.369528 0.0801709
0.176043 0.369528 0.0801709
0.176043 0.369528 0.0801709
0.369528 0.810681 0.313863
0.369528 0.810681 0.313863
0.369528 0.810681 0.313863
0.369528 0.810681 0.313863
0.369528 0.810681 0.313863
0.369528 0.810681 0.313863
0.369528 0.810681 0.313863
0.263111 0.263111 0.263111
0.263111 0.263111 0.263111
0.263111 0.263111 0.263111
0.263111 0.263111 0.263111
0.263111 0.263111 0.263111
0.263111 0.263111 0.263111
0.263111 0.263111 0.263111
0.263111 0.263111 0.263111
0.263111 0.263111 0.263111
1 0.902632 0.0801709
1 0.902632 0.0801709
1 0.902632 0.0801709
1 0.902632 0.0801709
1 0.902632 0.0801709
1 0.902632 0.0801709
0.810681 0.263111 0.0801709
0.810681 0.263111 0.0801709
0.810681 0.263111 0.0801709
0.810681 0.263111 0.0801709
0.810681 0.263111 0.0801709
0.176043 0.369528 0.0801709
0.176043 0.369528 0.0801709
0.176043 0.369528 0.0801709
0.176043 0.369528 0.0801709
0.176043 0.369528 0.0801709
0.176043 0.369528 0.0801709
0.369528 0.810681 0.313863
0.369528 0.810681 0.313863
0.369528 0.810681 0.313863
0.369528 0.810681 0.313863
0.369528 0.810681 0.313863
0.369528 0.810681 0.313863
0.369528 0.810681 0.313863
0.263111 0.263111 0.263111
0.263111 0.263111 0.263111
0.263111 0.263111 0.263111
0.263111 0.263111 0.263111
0.263111 0.263111 0.263111
0.263111 0.263111 0.263111
0.263111 0.263111 0.263111
0.263111 0.263111 0.263111
0.263111 0.263111 0.263111
1 0.902632 0.0801709
1 0.902632 0.0801709
1 0.902632 0.0801709
1 0.902632 0.0801709
1 0.902632 0.0801709
1 0.902632 0.0801709
0.810681 0.263111 0.0801709
0.810681 0.263111 0.0801709
0.810681 0.263111 0.0801709
0.810681 0.263111 0.0801709
0.810681 0.263111 0.0801709
0.176043 0.369528 0.902632
0.176043 0.369528 0.0801709
0.176043 0.369528 0.0801709
0.176043 0.369528 0.0801709
0.176043 0.369528 0.0801709
0.176043 0.369528 0.0801709
0.369528 0.810681 0.313863
0.369528 0.810681 0.313863
0.369528 0.810681 0.313863
0.369528 0.810681 0.313863
0.369528 0.810681 0.313863
0.369528 0.810681 0.313863
0.263111 0.263111 0.263111
0.263111 0.263111 0.263111
0.263111 0.263111 0.263111
0.263111 0.263111 0.263111
0.263111 0.263111 0.263111
0.263111 0.263111 0.263111
0.263111 0.263111 0.263111
0.263111 0.263111 0.263111
0.263111 0.263111 0.263111
0.263111 0.263111 0.263111
1 0.902632 0.0801709
1 0.902632 0.0801709
1 0.902632 0.0801709
1 0.902632 0.0801709
1 0.902632 0.0801709
1 0.902632 0.0801709
0.810681 0.263111 0.0801709
0.810681 0.263111 0.0801709
0.810681 0.263111 0.0801709
0.810681 0.263111 0.0801709
0.810681 0.263111 0.0801709
0.176043 0.369528 0.902632
0.176043 0.369528 0.0801709
0.176043 0.369528 0.0801709
0.176043 0.369528 0.0801709
0.176043 0.369528 0.0801709
0.176043 0.369528 0.0801709
0.369528 0.810681 0.313863
0.369528 0.810681 0.313863
0.369528 0.810681 0.313863
0.369528 0.810681 0.313863
0.369528 0.810681 0.313863
0.369528 0.810681 0.313863
0.263111 0.263111 0.263111
0.263111 0.263111 0.263111
0.263111 0.263111 0.263111
0.263111 0.263111 0.263111
0.263111 0.263111 0.263111
0.263111 0.263111 0.263111
0.263111 0.263111 0.263111
0.263111 0.263111 0.263111
0.263111 0.263111 0.263111
0.263111 0.263111 0.263111
1 0.902632 0.0801709
1 0.902632 0.0801709
1 0.902632 0.0801709
1 0.902632 0.0801709
1 0.902632 0.0801709
1 0.902632 0.0801709
0.810681 0.263111 0.0801709
0.810681 0.263111 0.0801709
0.810681 0.263111 0.0801709
0.810681 0.263111 0.0801709
0.810681 0.263111 0.0801709
0.176043 0.369528 0.902632
0.176043 0.369528 0.0801709
0.176043 0.369528 0.0801709
0.176043 0.369528 0.0801709
0.176043 0.369528 0.0801709
0.176043 0.369528 0.0801709
0.369528 0.810681 0.313863
0.369528 0.810681 0.313863
0.369528 0.810681 0.313863
0.369528 0.810681 0.313863
0.369528 0.810681 0.313863
0.369528 0.810681 0.313863
0.263111 0.263111 0.263111
0.263111 0.263111 0.263111
0.263111 0.263111 0.263111
0.263111 0.263111 0.263111
0.263111 0.263111 0.263111
0.263111 0.263111 0.263111
0.263111 0.263111 0.263111
0.263111 0.263111 0.263111
0.263111 0.263111 0.263111
0.263111 0.263111 0.263111
1 0.902632 0.0801709
1 0.902632 0.0801709
1 0.902632 0.0801709
1 0.902632 0.0801709
1 0.902632 0.0801709
1 0.902632 0.0801709
0.810681 0.263111 0.0801709
0.810681 0.263111 0.0801709
0.810681 0.263111 0.0801709
0.810681 0.263111 0.0801709
0.810681 0.263111 0.0801709
0.176043 0.369528 0.902632
0.176043 0.369528 0.0801709
0.176043 0.369528 0.0801709
0.176043 0.369528 0.0801709
0.176043 0.369528 0.0801709
0.369528 0.810681 0.313863
0.369528 0.810681 0.313863
0.369528 0.810681 0.313863
0.369528 0.810681 0.313863
0.369528 0.810681 0.313863
0.369528 0.810681 0.313863
0.369528 0.810681 0.313863
0.263111 0.263111 0.263111
0.263111 0.263111 0.263111
0.263111 0.263111 0.263111
0.263111 0.263111 0.263111
0.263111 0.263111 0.263111
0.263111 0.263111 0.263111
0.263111 0.263111 0.263111
0.263111 0.263111 0.263111
0.263111 0.263111 0.263111
0.263111 0.263111 0.263111
1 0.902632 0.0801709
1 0.902632 0.0801709
1 0.902632 0.0801709
1 0.902632 0.0801709
1 0.902632 0.0801709
1 0.902632 0.0801709
0.810681 0.263111 0.0801709
0.810681 0.263111 0.0801709
0.810681 0.263111 0.0801709
0.810681 0.263111 0.0801709
0.810681 0.263111 0.0801709
0.176043 0.369528 0.902632
0.176043 0.369528 0.0801709
0.176043 0.369528 0.0801709
0.176043 0.369528 0.0801709
0.176043 0.369528 0.0801709
0.369528 0.810681 0.313863
0.369528 0.810681 0.313863
0.369528 0.810681 0.313863
0.369528 0.810681 0.313863
0.369528 0.810681 0.313863
0.369528 0.810681 0.313863
0.369528 0.810681 0.313863
0.263111 0.263111 0.263111
0.263111 0.263111 0.263111
0.263111 0.263111 0.263111
0.263111 0.263111 0.263111
0.263111 0.263111 0.263111
0.263111 0.263111 0.263111
0.263111 0.263111 0.263111
0.263111 0.263111 0.263111
0.263111 0.263111 0.263111
0.263111 0.263111 0.263111
1 0.902632 0.0801709
1 0.902632 0.0801709
1 0.902632 0.0801709
1 0.902632 0.0801709
1 0.902632 0.0801709
1 0.902632 0.0801709
0.810681 0.263111 0.0801709
0.810681 0.263111 0.0801709
0.810681 0.263111 0.0801709
0.810681 0.263111 0.0801709
0.810681 0.263111 0.0801709
0.176043 0.369528 0.902632
0.176043 0.369528 0.0801709
0.176043 0.369528 0.0801709
0.176043 0.369528 0.0801709
0.176043 0.369528 0.0801709
0.369528 0.810681 0.313863
0.369528 0.810681 0.313863
0.369528 0.810681 0.313863
0.369528 0.810681 0.313863
0.369528 0.810681 0.313863
0.369528 0.810681 0.313863
0.369528 0.810681 0.313863
0.263111 0.263111 0.263111
0.263111 0.263111 0.263111
0.263111 0.263111 0.263111
0.263111 0.263111 0.263111
0.263111 0.263111 0.263111
0.263111 0.263111 0.263111
0.263111 0.263111 0.263111
0.263111 0.263111 0.263111
0.263111 0.263111 0.263111
0.263111 0.263111 0.263111
1 0.902632 0.0801709
1 0.902632 0.0801709
1 0.902632 0.0801709
1 0.902632 0.0801709
1 0.902632 0.0801709
1 0.902632 0.0801709
0.810681 0.263111 0.0801709
0.810681 0.263111 0.0801709
0.810681 0.263111 0.0801709
0.810681 0.263111 0.0801709
0.810681 0.263111 0.0801709
0.176043 0.369528 0.902632
0.176043 0.369528 0.0801709
0.176043 0.369528 0.0801709
0.176043 0.369528 0.0801709
0.176043 0.369528 0.0801709
0.369528 0.810681 0.313863
0.369528 0.810681 0.313863
0.369528 0.810681 0.313863
0.369528 0.810681 0.313863
0.369528 0.810681 0.313863
0.369528 0.810681 0.313863
0.369528 0.810681 0.313863
0.263111 0.263111 0.263111
0.263111 0.263111 0.263111
0.263111 0.263111 0.263111
0.263111 0.263111 0.263111
0.263111 0.263111 0.263111
0.263111 0.263111 0.263111
0.263111 0.263111 0.263111
0.263111 0.263111 0.263111
0.263111 0.263111 0.263111
0.263111 0.263111 0.263111
1 0.902632 0.0801709
1 0.902632 0.0801709
1 0.902632 0.0801709
1 0.902632 0.0801709
1 0.902632 0.0801709
1 0.902632 0.0801709
0.810681 0.263111 0.0801709
0.810681 0.263111 0.0801709
0.810681 0.263111 0.0801709
0.810681 0.263111 0.0801709
0.810681 0.263111 0.0801709
0.176043 0.369528 0.902632
0.176043 0.369528 0.0801709
0.176043 0.369528 0.0801709
0.176043 0.369528 0.0801709
0.176043 0.369528 0.0801709
0.369528 0.810681 0.313863
0.369528 0.810681 0.313863
0.369528 0.810681 0.313863
0.369528 0.810681 0.313863
0.369528 0.810681 0.313863
0.369528 0.810681 0.313863
0.369528 0.810681 0.313863
0.263111 0.263111 0.263111
0.263111 0.263111 0.263111
0.263111 0.263111 0.263111
0.263111 0.263111 0.263111
0.263111 0.263111 0.263111
0.263111 0.263111 0.263111
0.263111 0.263111 0.263111
0.263111 0.263111 0.263111
0.263111 0.263111 0.263111
1 0.902632 0.0801709
1 0.902632 0.0801709
1 0.902632 0.0801709
1 0.902632 0.0801709
1 0.902632 0.0801709
1 0.902632 0.0801709
1 0.902632 0.0801709
0.810681 0.263111 0.0801709
0.810681 0.263111 0.0801709
0.810681 0.263111 0.0801709
0.810681 0.263111 0.0801709
0.810681 0.263111 0.0801709
0.176043 0.369528 0.902632
0.176043 0.369528 0.0801709
0.176043 0.369528 0.0801709
0.176043 0.369528 0.0801709
0.176043 0.369528 0.0801709
0.369528 0.810681 0.313863
0.369528 0.810681 0.313863
0.369528 0.810681 0.313863
0.369528 0.810681 0.313863
0.369528 0.810681 0.313863
0.369528 0.810681 0.313863
0.369528 0.810681 0.313863
0.263111 0.263111 0.263111
0.263111 0.263111 0.263111
0.263111 0.263111 0.263111
0.263111 0.263111 0.263111
0.263111 0.263111 0.263111
0.263111 0.263111 0.263111
0.263111 0.263111 0.263111
0.263111 0.263111 0.263111
0.263111 0.263111 0.263111
1 0.902632 0.0801709
1 0.902632 0.0801709
1 0.902632 0.0801709
1 0.902632 0.0801709
1 0.902632 0.0801709
1 0.902632 0.0801709
1 0.902632 0.0801709
0.810681 0.263111 0.0801709
0.810681 0.263111 0.0801709
0.810681 0.263111 0.0801709
0.810681 0.263111 0.0801709
0.810681 0.263111 0.0801709
0.176043 0.369528 0.902632
0.176043 0.369528 0.0801709
0.176043 0.369528 0.0801709
0.176043 0.369528 0.0801709
0.176043 0.369528 0.0801709
0.369528 0.810681 0.313863
0.369528 0.810681 0.313863
0.369528 0.810681 0.313863
0.369528 0.810681 0.313863
0.369528 0.810681 0.313863
0.369528 0.810681 0.313863
0.369528 0.810681 0.313863
0.263111 0.263111 0.263111
0.263111 0.263111 0.263111
0.263111 0.263111 0.263111
0.263111 0.263111 0.263111
0.263111 0.263111 0.263111
0.263111 0.263111 0.263111
0.263111 0.263111 0.263111
0.263111 0.263111 0.263111
0.263111 0.263111 0.263111
1 0.902632 0.0801709
1 0.902632 0.0801709
1 0.902632 0.0801709
1 0.902632 0.0801709
1 0.902632 0.0801709
1 0.902632 0.0801709
1 0.902632 0.0801709
0.810681 0.263111 0.0801709
0.810681 0.263111 0.0801709
0.810681 0.263111 0.0801709
0.810681 0.263111 0.0801709
0.810681 0.263111 0.0801709
0.176043 0.369528 0.902632
0.176043 0.369528 0.0801709
0.176043 0.369528 0.0801709
0.176043 0.369528 0.0801709
0.176043 0.369528 0.0801709
0.369528 0.810681 0.313863
0.369528 0.810681 0.313863
0.369528 0.810681 0.313863
0.369528 0.810681 0.313863
0.369528 0.810681 0.313863
0.369528 0.810681 0.313863
0.369528 0.810681 0.313863
0.263111 0.263111 0.263111
0.263111 0.263111 0.263111
0.263111 0.263111 0.263111
0.263111 0.263111 0.263111
0.263111 0.263111 0.263111
0.263111 0.263111 0.263111
0.263111 0.263111 0.263111
0.263111 0.263111 0.263111
0.263111 0.263111 0.263111
1 0.902632 0.0801709
1 0.902632 0.0801709
1 0.902632 0.0801709
1 0.902632 0.0801709
1 0.902632 0.0801709
1 0.902632 0.0801709
1 0.902632 0.0801709
0.810681 0.263111 0.0801709
0.810681 0.263111 0.0801709
0.810681 0.263111 0.0801709
0.810681 0.263111 0.0801709
0.810681 0.263111 0.0801709
0.176043 0.369528 0.902632
0.176043 0.369528 0.0801709
0.176043 0.369528 0.0801709
0.176043 0.369528 0.0801709
0.176043 0.369528 0.0801709
0.369528 0.810681 0.313863
0.369528 0.810681 0.313863
0.369528 0.810681 0.313863
0.369528 0.810681 0.313863
0.369528 0.810681 0.313863
0.369528 0.810681 0.313863
0.369528 0.810681 0.313863
0.263111 0.263111 0.263111
0.263111 0.263111 0.263111
0.263111 0.263111 0.263111
0.263111 0.263111 0.263111
0.263111 0.263111 0.263111
0.263111 0.263111 0.263111
0.263111 0.263111 0.263111
0.263111 0.263111 0.263111
0.263111 0.263111 0.263111
1 0.902632 0.0801709
1 0.902632 0.0801709
1 0.902632 0.0801709
1 0.902632 0.0801709
1 0.902632 0.0801709
1 0.902632 0.0801709
1 0.902632 0.0801709
0.810681 0.263111 0.0801709
0.810681 0.263111 0.0801709
0.810681 0.263111 0.0801709
0.810681 0.263111 0.0801709
0.810681 0.263111 0.0801709
0.176043 0.369528 0.902632
0.176043 0.369528 0.0801709
0.176043 0.369528 0.0801709
0.176043 0.369528 0.0801709
0.176043 0.369528 0.0801709
0.369528 0.810681 0.313863
0.369528 0.810681 0.313863
0.369528 0.810681 0.313863
0.369528 0.810681 0.313863
0.369528 0.810681 0.313863
0.369528 0.810681 0.313863
0.369528 0.810681 0.313863
0.263111 0.263111 0.263111
0.263111 0.263111 0.263111
0.263111 0.263111 0.263111
0.263111 0.263111 0.263111
0.263111 0.263111 0.263111
0.263111 0.263111 0.263111
0.263111 0.263111 0.263111
0.263111 0.263111 0.263111
0.263111 0.263111 0.263111
0.263111 0.263111 0.263111
1 0.902632 0.0801709
1 0.902632 0.0801709
1 0.902632 0.0801709
1 0.902632 0.0801709
1 0.902632 0.0801709
1 0.902632 0.0801709
0.810681 0.263111 0.0801709
0.810681 0.263111 0.0801709
0.810681 0.263111 0.0801709
0.810681 0.263111 0.0801709
0.810681 0.263111 0.0801709
0.176043 0.369528 0.902632
0.176043 0.369528 0.0801709
0.176043 0.369528 0.0801709
0.176043 0.369528 0.0801709
0.176043 0.369528 0.0801709
0.369528 0.810681 0.313863
0.369528 0.810681 0.313863
0.369528 0.810681 0.313863
0.369528 0.810681 0.313863
0.369528 0.810681 0.313863
0.369528 0.810681 0.313863
0.369528 0.810681 0.313863
0.263111 0.263111 0.263111
0.263111 0.263111 0.263111
0.263111 0.263111 0.263111
0.263111 0.263111 0.263111
0.263111 0.263111 0.263111
0.263111 0.263111 0.263111
0.263111 0.263111 0.263111
0.263111 0.263111 0.263111
0.263111 0.263111 0.263111
0.263111 0.263111 0.263111
1 0.902632 0.0801709
1 0.902632 0.0801709
1 0.902632 0.0801709
1 0.902632 0.0801709
1 0.902632 0.0801709
1 0.902632 0.0801709
0.810681 0.263111 0.0801709
0.810681 0.263111 0.0801709
0.810681 0.263111 0.0801709
0.810681 0.263111 0.0801709
0.810681 0.263111 0.0801709
0.176043 0.369528 0.902632
0.176043 0.369528 0.0801709
0.176043 0.369528 0.0801709
0.176043 0.369528 0.0801709
0.176043 0.369528 0.0801709
0.369528 0.810681 0.313863
0.369528 0.810681 0.313863
0.369528 0.810681 0.313863
0.369528 0.810681 0.313863
0.369528 0.810681 0.313863
0.369528 0.810681 0.313863
0.369528 0.810681 0.313863
0.263111 0.263111 0.263111
0.263111 0.263111 0.263111
0.263111 0.263111 0.263111
0.263111 0.263111 0.263111
0.263111 0.263111 0.263111
0.263111 0.263111 0.263111
0.263111 0.263111 0.263111
0.263111 0.263111 0.263111
0.263111 0.263111 0.263111
0.263111 0.263111 0.263111
1 0.902632 0.0801709
1 0.902632 0.0801709
1 0.902632 0.0801709
1 0.902632 0.0801709
1 0.902632 0.0801709
1 0.902632 0.0801709
0.810681 0.263111 0.0801709
0.810681 0.263111 0.0801709
0.810681 0.263111 0.0801709
0.810681 0.263111 0.0801709
0.810681 0.263111 0.0801709
0.176043 0.369528 0.902632
0.176043 0.369528 0.0801709
0.176043 0.369528 0.0801709
0.176043 0.369528 0.0801709
0.176043 0.369528 0.0801709
0.369528 0.810681 0.313863
0.369528 0.810681 0.313863
0.369528 0.810681 0.313863
0.369528 0.810681 0.313863
0.369528 0.810681 0.313863
0.369528 0.810681 0.313863
0.369528 0.810681 0.313863
0.263111 0.263111 0.263111
0.263111 0.263111 0.263111
0.263111 0.263111 0.263111
0.263111 0.263111 0.263111
0.263111 0.263111 0.263111
0.263111 0.263111 0.263111
0.263111 0.263111 0.263111
0.263111 0.263111 0.263111
0.263111 0.263111 0.263111
0.263111 0.263111 0.263111
1 0.902632 0.0801709
1 0.902632 0.0801709
1 0.902632 0.0801709
1 0.902632 0.0801709
1 0.902632 0.0801709
1 0.902632 0.0801709
0.810681 0.263111 0.0801709
0.810681 0.263111 0.0801709
0.810681 0.263111 0.0801709
0.810681 0.263111 0.0801709
0.810681 0.263111 0.0801709
0.176043 0.369528 0.902632
0.176043 0.369528 0.0801709
0.176043 0.369528 0.0801709
0.176043 0.369528 0.0801709
0.176043 0.369528 0.0801709
0.369528 0.810681 0.313863
0.369528 0.810681 0.313863
0.369528 0.810681 0.313863
0.369528 0.810681 0.313863
