filmlog/Shaders/LutBWContrast.cube
TITLE "Generated by Resolve"
LUT_3D_SIZE 33
0.39115 0.392981 0.392981
0.418326 0.420111 0.420111
0.446036 0.447776 0.447776
0.473075 0.474754 0.474754
0.499046 0.500664 0.500664
0.523766 0.525338 0.525338
0.546059 0.54757 0.54757
0.56669 0.568154 0.568154
0.585595 0.587015 0.587015
0.602029 0.603403 0.603403
0.617823 0.61915 0.61915
0.631693 0.632975 0.632975
0.644877 0.646113 0.646113
0.657389 0.65861 0.65861
0.670222 0.671397 0.671397
0.68278 0.683909 0.683909
0.694697 0.695796 0.695796
0.705165 0.706218 0.706218
0.714885 0.715923 0.715923
0.724224 0.725216 0.725216
0.733104 0.734081 0.734081
0.740291 0.741238 0.741238
0.747311 0.748241 0.748241
0.754055 0.754971 0.754971
0.408194 0.409995 0.409995
0.386999 0.38883 0.38883
0.401648 0.403449 0.403449
0.420096 0.421881 0.421881
0.442542 0.444282 0.444282
0.321859 0.323766 0.323766
0.346502 0.348394 0.348394
0.368124 0.369985 0.369985
0.388464 0.390295 0.390295
0.385946 0.387793 0.387793
0.413382 0.415183 0.415183
0.440818 0.442557 0.442557
0.468055 0.469749 0.469749
0.494163 0.495796 0.495796
0.519112 0.520699 0.520699
0.542062 0.543603 0.543603
0.562921 0.564385 0.564385
0.58233 0.583749 0.583749
0.599069 0.600443 0.600443
0.614908 0.616236 0.616236
0.629175 0.630472 0.630472
0.642405 0.643656 0.643656
0.65507 0.656291 0.656291
0.667872 0.669047 0.669047
0.680461 0.681605 0.681605
0.692531 0.693629 0.693629
0.703288 0.704372 0.704372
0.713054 0.714092 0.714092
0.722484 0.723507 0.723507
0.731624 0.732616 0.732616
0.738979 0.739925 0.739925
0.746014 0.746944 0.746944
0.75285 0.75375 0.75375
0.406958 0.408774 0.408774
0.38584 0.387671 0.387671
0.400504 0.402319 0.402319
0.279881 0.281804 0.281804
0.301457 0.30338 0.30338
0.321813 0.32372 0.32372
0.344671 0.346563 0.346563
0.37557 0.377417 0.377417
0.406775 0.408576 0.408576
0.380621 0.382467 0.382467
0.408316 0.410117 0.410117
0.435569 0.437324 0.437324
0.46302 0.464714 0.464714
0.489418 0.491066 0.491066
0.514611 0.516197 0.516197
0.537926 0.539452 0.539452
0.559121 0.560601 0.560601
0.579171 0.580606 0.580606
0.595972 0.59736 0.59736
0.611978 0.613321 0.613321
0.626657 0.62797 0.62797
0.64004 0.641306 0.641306
0.65275 0.653971 0.653971
0.665507 0.666697 0.666697
0.678141 0.679286 0.679286
0.690227 0.691341 0.691341
0.701411 0.702495 0.702495
0.711284 0.712337 0.712337
0.72076 0.721767 0.721767
0.729915 0.730907 0.730907
0.737591 0.738552 0.738552
0.744717 0.745647 0.745647
0.751553 0.752468 0.752468
0.405646 0.407446 0.407446
0.253361 0.255299 0.255299
0.264652 0.26659 0.26659
0.279957 0.28188 0.28188
0.306233 0.308156 0.308156
0.336599 0.338491 0.338491
0.368795 0.370642 0.370642
0.400641 0.402457 0.402457
0.431647 0.433402 0.433402
0.375692 0.377554 0.377554
0.403235 0.405035 0.405035
0.430182 0.431952 0.431952
0.457969 0.459678 0.459678
0.484504 0.486168 0.486168
0.509926 0.511528 0.511528
0.533913 0.535454 0.535454
0.555169 0.556664 0.556664
0.575509 0.576944 0.576944
0.592859 0.594263 0.594263
0.609049 0.610407 0.610407
0.62414 0.625437 0.625437
0.637552 0.638819 0.638819
0.650416 0.651652 0.651652
0.66302 0.66421 0.66421
0.675807 0.676966 0.676966
0.688045 0.689174 0.689174
0.69955 0.700633 0.700633
0.709438 0.710491 0.710491
0.71902 0.720043 0.720043
0.728206 0.729198 0.729198
0.736263 0.73724 0.73724
0.743343 0.744289 0.744289
0.618631 0.619959 0.619959
0.269566 0.271504 0.271504
0.260319 0.262242 0.262242
0.277653 0.279576 0.279576
0.301869 0.303792 0.303792
0.329366 0.331273 0.331273
0.359503 0.361364 0.361364
0.391546 0.393378 0.393378
0.423148 0.424918 0.424918
0.453651 0.455375 0.455375
0.370703 0.372549 0.372549
0.398016 0.399832 0.399832
0.424918 0.426688 0.426688
0.452903 0.454627 0.454627
0.479576 0.481254 0.481254
0.505379 0.506996 0.506996
0.529686 0.531243 0.531243
0.551354 0.552865 0.552865
0.571756 0.573205 0.573205
0.589746 0.59115 0.59115
0.606104 0.607462 0.607462
0.6215 0.622812 0.622812
0.635065 0.636347 0.636347
0.647974 0.64921 0.64921
0.660639 0.661845 0.661845
0.673472 0.674632 0.674632
0.685756 0.68687 0.68687
0.697627 0.698711 0.698711
0.707591 0.708644 0.708644
0.717281 0.718303 0.718303
0.726482 0.727489 0.727489
0.607385 0.608728 0.608728
0.605005 0.606363 0.606363
0.624308 0.62562 0.62562
0.285679 0.287602 0.287602
0.276112 0.278035 0.278035
0.296269 0.298192 0.298192
0.321614 0.323522 0.323522
0.350149 0.352041 0.352041
0.381003 0.382849 0.382849
0.412543 0.414343 0.414343
0.443931 0.44567 0.44567
0.473091 0.474769 0.474769
0.365591 0.367453 0.367453
0.392935 0.394766 0.394766
0.419974 0.421759 0.421759
0.447684 0.449424 0.449424
0.474708 0.476387 0.476387
0.500679 0.502297 0.502297
0.525216 0.526787 0.526787
0.547387 0.548898 0.548898
0.568002 0.569467 0.569467
0.586603 0.588022 0.588022
0.603037 0.604395 0.604395
0.618799 0.620111 0.620111
0.632563 0.63386 0.63386
0.645624 0.646876 0.646876
0.658137 0.659342 0.659342
0.671122 0.672297 0.672297
0.683558 0.684688 0.684688
0.69546 0.696544 0.696544
0.705821 0.706874 0.706874
0.595239 0.596628 0.596628
0.585946 0.58735 0.58735
0.607385 0.608743 0.608743
0.623438 0.62475 0.62475
0.640894 0.642161 0.642161
0.302541 0.304463 0.304463
0.294087 0.29601 0.29601
0.315282 0.317205 0.317205
0.34136 0.343236 0.343236
0.37026 0.372122 0.372122
0.40116 0.402975 0.402975
0.43183 0.4336 0.4336
0.461769 0.463478 0.463478
0.488807 0.490455 0.490455
0.360479 0.362341 0.362341
0.387732 0.389563 0.389563
0.415045 0.416831 0.416831
0.442618 0.444358 0.444358
0.469673 0.471366 0.471366
0.495796 0.497429 0.497429
0.520729 0.522301 0.522301
0.543404 0.54493 0.54493
0.564218 0.565698 0.565698
0.583459 0.584894 0.584894
0.600061 0.601434 0.601434
0.615885 0.617212 0.617212
0.63006 0.631357 0.631357
0.643259 0.644526 0.644526
0.655818 0.657038 0.657038
0.668666 0.669841 0.669841
0.681239 0.682383 0.682383
0.603372 0.604746 0.604746
0.563073 0.564553 0.564553
0.586099 0.587518 0.587518
0.604303 0.605661 0.605661
0.622797 0.624109 0.624109
0.641093 0.642359 0.642359
0.659144 0.660349 0.660349
0.320882 0.322789 0.322789
0.312413 0.314336 0.314336
0.334112 0.336004 0.336004
0.360342 0.362219 0.362219
0.388617 0.390448 0.390448
0.41854 0.420325 0.420325
0.44712 0.448844 0.448844
0.475532 0.477211 0.477211
0.500954 0.502586 0.502586
0.355367 0.357244 0.357244
0.382406 0.384237 0.384237
0.409964 0.411765 0.411765
0.437232 0.438987 0.438987
0.464805 0.466499 0.466499
0.491066 0.492714 0.492714
0.516213 0.517815 0.517815
0.539269 0.540795 0.540795
0.560433 0.561913 0.561913
0.580194 0.581628 0.581628
0.596979 0.598352 0.598352
0.61297 0.614298 0.614298
0.627543 0.62884 0.62884
0.640803 0.642054 0.642054
0.653498 0.654719 0.654719
0.6663 0.667491 0.667491
0.536721 0.538262 0.538262
0.561563 0.563043 0.563043
0.581567 0.582986 0.582986
0.600671 0.602045 0.602045
0.621042 0.622354 0.622354
0.64094 0.642191 0.642191
0.659754 0.66096 0.66096
0.677745 0.678904 0.678904
0.338643 0.340536 0.340536
0.329656 0.331563 0.331563
0.35111 0.352987 0.352987
0.376974 0.37882 0.37882
0.403662 0.405463 0.405463
0.431952 0.433707 0.433707
0.459709 0.461418 0.461418
0.486732 0.48838 0.48838
0.511254 0.512856 0.512856
0.350164 0.352041 0.352041
0.377371 0.379217 0.379217
0.404883 0.406699 0.406699
0.431983 0.433753 0.433753
0.459754 0.461463 0.461463
0.486152 0.4878 0.4878
0.511543 0.513146 0.513146
0.535256 0.536797 0.536797
0.556497 0.557992 0.557992
0.576806 0.578241 0.578241
0.593988 0.595376 0.595376
0.610025 0.611383 0.611383
0.62501 0.626322 0.626322
0.638422 0.639689 0.639689
0.506157 0.507774 0.507774
0.532906 0.534463 0.534463
0.554421 0.555932 0.555932
0.575723 0.577173 0.577173
0.597848 0.599237 0.599237
0.618448 0.61976 0.61976
0.639078 0.640345 0.640345
0.65948 0.660685 0.660685
0.677836 0.678981 0.678981
0.694987 0.696086 0.696086
0.355306 0.357183 0.357183
0.345876 0.347768 0.347768
0.365728 0.36759 0.36759
0.390204 0.392035 0.392035
0.41561 0.417411 0.417411
0.442679 0.444434 0.444434
0.469535 0.471229 0.471229
0.495964 0.497612 0.497612
0.519326 0.520897 0.520897
0.344961 0.346853 0.346853
0.372366 0.374228 0.374228
0.399802 0.401617 0.401617
0.426581 0.428367 0.428367
0.454704 0.456428 0.456428
0.481224 0.482902 0.482902
0.506844 0.508461 0.508461
0.53109 0.532631 0.532631
0.552682 0.554192 0.554192
0.573053 0.574502 0.574502
0.59086 0.592264 0.592264
0.607095 0.608454 0.608454
0.47895 0.480629 0.480629
0.500237 0.501854 0.501854
0.523781 0.525353 0.525353
0.546502 0.548012 0.548012
0.569833 0.571283 0.571283
0.592645 0.594049 0.594049
0.615549 0.616892 0.616892
0.636744 0.63801 0.63801
0.656825 0.65803 0.65803
0.676417 0.677577 0.677577
0.694484 0.695583 0.695583
0.710567 0.71162 0.71162
0.369589 0.37145 0.37145
0.357183 0.35906 0.35906
0.37705 0.378897 0.378897
0.400488 0.402304 0.402304
0.424933 0.426703 0.426703
0.45127 0.452995 0.452995
0.476997 0.478676 0.478676
0.503166 0.504784 0.504784
0.525689 0.527245 0.527245
0.339788 0.34168 0.34168
0.367254 0.369116 0.369116
0.394598 0.396414 0.396414
0.421637 0.423423 0.423423
0.449485 0.451225 0.451225
0.476326 0.478004 0.478004
0.502144 0.503761 0.503761
0.526818 0.528374 0.528374
0.548714 0.550225 0.550225
0.569314 0.570764 0.570764
0.446983 0.448722 0.448722
0.463981 0.465675 0.465675
0.489494 0.491142 0.491142
0.512963 0.514549 0.514549
0.538186 0.539727 0.539727
0.562799 0.564279 0.564279
0.586816 0.58822 0.58822
0.610391 0.611749 0.611749
0.632883 0.63418 0.63418
0.653468 0.654688 0.654688
0.673075 0.674235 0.674235
0.691966 0.693065 0.693065
0.70901 0.710063 0.710063
0.722927 0.723934 0.723934
0.381018 0.382864 0.382864
0.367163 0.369024 0.369024
0.386282 0.388128 0.388128
0.408789 0.41059 0.41059
0.432654 0.434424 0.434424
0.458289 0.459998 0.459998
0.483085 0.484749 0.484749
0.507713 0.509331 0.509331
0.530709 0.532265 0.532265
0.334554 0.336461 0.336461
0.362264 0.364126 0.364126
0.389517 0.391348 0.391348
0.416693 0.418479 0.418479
0.444266 0.446006 0.446006
0.471473 0.473152 0.473152
0.497429 0.499062 0.499062
0.522179 0.523751 0.523751
0.408911 0.410727 0.410727
0.421881 0.423667 0.423667
0.450019 0.451759 0.451759
0.475074 0.476753 0.476753
0.502129 0.503746 0.503746
0.52845 0.530022 0.530022
0.554269 0.555764 0.555764
0.579675 0.581109 0.581109
0.604074 0.605447 0.605447
0.626856 0.628153 0.628153
0.648646 0.649897 0.649897
0.668315 0.66949 0.66949
0.6869 0.688029 0.688029
0.70454 0.705608 0.705608
0.719493 0.720516 0.720516
0.731975 0.732952 0.732952
0.390249 0.392081 0.392081
0.374929 0.376791 0.376791
0.394339 0.396155 0.396155
0.414466 0.416251 0.416251
0.439017 0.440757 0.440757
0.463172 0.464881 0.464881
0.488533 0.490181 0.490181
0.512169 0.513771 0.513771
0.534493 0.536034 0.536034
0.329397 0.331289 0.331289
0.357153 0.35903 0.35903
0.384176 0.386023 0.386023
0.411749 0.41355 0.41355
0.439033 0.440787 0.440787
0.466438 0.468132 0.468132
0.367086 0.368948 0.368948
0.372595 0.374456 0.374456
0.402838 0.404639 0.404639
0.431174 0.432944 0.432944
0.461326 0.463035 0.463035
0.489311 0.490959 0.490959
0.517296 0.518883 0.518883
0.54403 0.545541 0.545541
0.57055 0.572015 0.572015
0.596323 0.597711 0.597711
0.619669 0.620996 0.620996
0.641657 0.642908 0.642908
0.661921 0.663127 0.663127
0.681208 0.682353 0.682353
0.697856 0.69894 0.69894
0.71313 0.714168 0.714168
0.727321 0.728313 0.728313
0.739605 0.740566 0.740566
0.397467 0.399283 0.399283
0.380896 0.382727 0.382727
0.400534 0.40235 0.40235
0.420203 0.421988 0.421988
0.443793 0.445533 0.445533
0.466911 0.468605 0.468605
0.492012 0.493645 0.493645
0.516579 0.518166 0.518166
0.537301 0.538827 0.538827
0.324224 0.326131 0.326131
0.351949 0.353826 0.353826
0.379049 0.380896 0.380896
0.406683 0.408484 0.408484
0.358068 0.35993 0.35993
0.31841 0.320317 0.320317
0.348348 0.350225 0.350225
0.378912 0.380758 0.380758
0.410468 0.412268 0.412268
0.442893 0.444633 0.444633
0.475166 0.476844 0.476844
0.50396 0.505577 0.505577
0.532235 0.533776 0.533776
0.55967 0.561151 0.561151
0.585428 0.586847 0.586847
0.611261 0.612619 0.612619
0.633738 0.635019 0.635019
0.65359 0.65481 0.65481
0.672923 0.674098 0.674098
0.690837 0.691951 0.691951
0.705455 0.706523 0.706523
0.719783 0.720806 0.720806
0.733562 0.734539 0.734539
0.745235 0.746166 0.746166
0.402838 0.404639 0.404639
0.385275 0.387121 0.387121
0.403815 0.405631 0.405631
0.424598 0.426383 0.426383
0.446876 0.4486 0.4486
0.469963 0.471656 0.471656
0.494636 0.496269 0.496269
0.518761 0.520348 0.520348
0.5393 0.540841 0.540841
0.318975 0.320882 0.320882
0.346746 0.348623 0.348623
0.374044 0.375906 0.375906
0.26511 0.267048 0.267048
0.292134 0.294057 0.294057
0.321508 0.323415 0.323415
0.352941 0.354818 0.354818
0.387518 0.389349 0.389349
0.422385 0.42417 0.42417
0.455573 0.457298 0.457298
0.488685 0.490333 0.490333
0.51873 0.520317 0.520317
0.546639 0.54815 0.54815
0.574487 0.575936 0.575936
0.600244 0.601617 0.601617
0.622461 0.623774 0.623774
0.642939 0.644205 0.644205
0.662333 0.663523 0.663523
0.68014 0.681285 0.681285
0.696727 0.697826 0.697826
0.711177 0.71223 0.71223
0.725139 0.726146 0.726146
0.738186 0.739147 0.739147
0.749157 0.750072 0.750072
0.406317 0.408133 0.408133
0.388495 0.390326 0.390326
0.406027 0.407843 0.407843
0.42707 0.42884 0.42884
0.449226 0.45095 0.45095
0.471931 0.47361 0.47361
0.496712 0.498344 0.498344
0.5205 0.522087 0.522087
0.540536 0.542077 0.542077
0.313634 0.315541 0.315541
0.216373 0.21828 0.21828
0.239277 0.241199 0.241199
0.265354 0.267292 0.267292
0.294011 0.295933 0.295933
0.327123 0.32903 0.32903
0.361761 0.363622 0.363622
0.397833 0.399649 0.399649
0.433845 0.435615 0.435615
0.468757 0.470436 0.470436
0.502174 0.503792 0.503792
0.532113 0.533669 0.533669
0.560632 0.562112 0.562112
0.587121 0.58854 0.58854
0.609384 0.610742 0.610742
0.63003 0.631327 0.631327
0.649699 0.650935 0.650935
0.667414 0.668589 0.668589
0.684993 0.686122 0.686122
0.701869 0.702937 0.702937
0.716136 0.717159 0.717159
0.72871 0.729702 0.729702
0.740856 0.741802 0.741802
0.751873 0.752773 0.752773
0.408698 0.410498 0.410498
0.391043 0.392874 0.392874
0.40798 0.409781 0.409781
0.42855 0.43032 0.43032
0.450614 0.452338 0.452338
0.473426 0.475105 0.475105
0.497887 0.499519 0.499519
0.521462 0.523033 0.523033
0.541497 0.543023 0.543023
0.189563 0.19144 0.19144
0.213245 0.215152 0.215152
0.239338 0.24126 0.24126
0.26865 0.270573 0.270573
0.300145 0.302068 0.302068
0.334844 0.336736 0.336736
0.371008 0.372869 0.372869
0.407874 0.409674 0.409674
0.445991 0.44773 0.44773
0.480598 0.482277 0.482277
0.51281 0.514412 0.514412
0.542016 0.543542 0.543542
0.568811 0.570275 0.570275
0.593439 0.594842 0.594842
0.614893 0.616236 0.616236
0.634638 0.63592 0.63592
0.653895 0.655116 0.655116
0.67306 0.67422 0.67422
0.690486 0.6916 0.6916
0.705333 0.706401 0.706401
0.718685 0.719707 0.719707
0.731182 0.732174 0.732174
0.749355 0.750286 0.750286
0.766522 0.767391 0.767391
0.431495 0.433265 0.433265
0.416312 0.418112 0.418112
0.433677 0.435447 0.435447
0.453758 0.455482 0.455482
0.472877 0.474556 0.474556
0.492515 0.494148 0.494148
0.513375 0.514961 0.514961
0.531701 0.533242 0.533242
0.546197 0.547707 0.547707
0.187228 0.189105 0.189105
0.214054 0.215976 0.215976
0.242985 0.244923 0.244923
0.273686 0.275624 0.275624
0.307637 0.30956 0.30956
0.342977 0.344869 0.344869
0.379019 0.380865 0.380865
0.417243 0.419028 0.419028
0.454795 0.456504 0.456504
0.488365 0.490013 0.490013
0.519478 0.52105 0.52105
0.548623 0.550134 0.550134
0.574121 0.575555 0.575555
0.597375 0.598749 0.598749
0.61854 0.619852 0.619852
0.639368 0.640635 0.640635
0.662379 0.663569 0.663569
0.685557 0.686687 0.686687
0.706508 0.707561 0.707561
0.726711 0.727703 0.727703
0.746441 0.747372 0.747372
0.764477 0.765347 0.765347
0.780911 0.78172 0.78172
0.796094 0.796857 0.796857
0.46331 0.465019 0.465019
0.446647 0.448386 0.448386
0.46183 0.463539 0.463539
0.480262 0.481941 0.481941
0.49897 0.500603 0.500603
0.517266 0.518853 0.518853
0.53608 0.537621 0.537621
0.55256 0.554055 0.554055
0.567803 0.569268 0.569268
0.187091 0.188968 0.188968
0.216205 0.218128 0.218128
0.24625 0.248188 0.248188
0.279271 0.281209 0.281209
0.313542 0.31545 0.31545
0.348013 0.349889 0.349889
0.387121 0.388952 0.388952
0.424552 0.426337 0.426337
0.460014 0.461723 0.461723
0.492958 0.494591 0.494591
0.525307 0.526879 0.526879
0.562966 0.564446 0.564446
0.595254 0.596643 0.596643
0.624109 0.625406 0.625406
0.651804 0.65304 0.65304
0.677882 0.679026 0.679026
0.700938 0.702022 0.702022
0.721523 0.72253 0.72253
0.740993 0.741955 0.741955
0.760723 0.761593 0.761593
0.779248 0.780072 0.780072
0.794324 0.795087 0.795087
0.808942 0.809659 0.809659
0.823377 0.824033 0.824033
0.492256 0.493904 0.493904
0.473014 0.474693 0.474693
0.487221 0.488884 0.488884
0.504799 0.506416 0.506416
0.521691 0.523262 0.523262
0.539193 0.540734 0.540734
0.557 0.558495 0.558495
0.572274 0.573724 0.573724
0.58674 0.588159 0.588159
0.188205 0.190082 0.190082
0.218601 0.220523 0.220523
0.254032 0.255955 0.255955
0.295109 0.297032 0.297032
0.336248 0.33814 0.33814
0.381415 0.383261 0.383261
0.425467 0.427253 0.427253
0.46566 0.467353 0.467353
0.505028 0.506645 0.506645
0.544472 0.545998 0.545998
0.581094 0.582513 0.582513
0.613642 0.614984 0.614984
0.641627 0.642878 0.642878
0.667735 0.668925 0.668925
0.693065 0.694163 0.694163
0.71548 0.716518 0.716518
0.734844 0.735821 0.735821
0.753582 0.754482 0.754482
0.772488 0.773327 0.773327
0.790539 0.791318 0.791318
0.806989 0.807721 0.807721
0.821225 0.821897 0.821897
0.83473 0.835355 0.835355
0.847929 0.848508 0.848508
0.518517 0.520088 0.520088
0.49749 0.499123 0.499123
0.50988 0.511482 0.511482
0.526177 0.527733 0.527733
0.542458 0.543984 0.543984
0.55967 0.561151 0.561151
0.575875 0.577325 0.577325
0.590539 0.591943 0.591943
0.604212 0.60557 0.60557
0.236469 0.238392 0.238392
0.276143 0.278065 0.278065
0.31722 0.319127 0.319127
0.35729 0.359167 0.359167
0.402502 0.404318 0.404318
0.444617 0.446357 0.446357
0.48278 0.484443 0.484443
0.521462 0.523049 0.523049
0.560021 0.561517 0.561517
0.595758 0.597147 0.597147
0.627207 0.628504 0.628504
0.655741 0.656947 0.656947
0.680262 0.681407 0.681407
0.705226 0.706279 0.706279
0.728557 0.729549 0.729549
0.747036 0.747951 0.747951
0.765042 0.765911 0.765911
0.783215 0.784024 0.784024
0.801022 0.80177 0.80177
0.817563 0.81825 0.81825
0.83241 0.833051 0.833051
0.845487 0.846067 0.846067
0.858396 0.858946 0.858946
0.871077 0.87158 0.87158
0.541787 0.543328 0.543328
0.518517 0.520104 0.520104
0.530739 0.532296 0.532296
0.546304 0.547829 0.547829
0.561425 0.562905 0.562905
0.576974 0.578408 0.578408
0.593225 0.594614 0.594614
0.607721 0.609064 0.609064
0.620325 0.621653 0.621653
0.294179 0.296101 0.296101
0.335744 0.337636 0.337636
0.374029 0.375875 0.375875
0.417823 0.419608 0.419608
0.459297 0.461006 0.461006
0.497887 0.499519 0.499519
0.535851 0.537392 0.537392
0.571664 0.573129 0.573129
0.606058 0.607416 0.607416
0.638071 0.639338 0.639338
0.664347 0.665537 0.665537
0.689342 0.690455 0.690455
0.714534 0.715572 0.715572
0.737942 0.738903 0.738903
0.758358 0.759243 0.759243
0.775906 0.776745 0.776745
0.793622 0.794385 0.794385
0.811582 0.812284 0.812284
0.827024 0.82768 0.82768
0.841199 0.84181 0.84181
0.855375 0.855924 0.855924
0.868238 0.868742 0.868742
0.879454 0.879927 0.879927
0.890608 0.89102 0.89102
0.562615 0.564095 0.564095
0.538399 0.53994 0.53994
0.549737 0.551247 0.551247
0.564004 0.565469 0.565469
0.578958 0.580392 0.580392
0.593271 0.594659 0.594659
0.609384 0.610742 0.610742
0.623072 0.624384 0.624384
0.634836 0.636118 0.636118
0.346059 0.347951 0.347951
0.388434 0.390265 0.390265
0.429099 0.430869 0.430869
0.470024 0.471717 0.471717
0.507286 0.508888 0.508888
0.545739 0.54725 0.54725
0.581094 0.582528 0.582528
0.614252 0.615595 0.615595
0.642908 0.64416 0.64416
0.670558 0.671733 0.671733
0.697337 0.698421 0.698421
0.723751 0.724758 0.724758
0.748363 0.749279 0.749279
0.767575 0.768444 0.768444
0.785367 0.786175 0.786175
0.802731 0.803479 0.803479
0.819699 0.820386 0.820386
0.835004 0.83563 0.83563
0.849149 0.849729 0.849729
0.863111 0.86363 0.86363
0.876005 0.876493 0.876493
0.887526 0.887953 0.887953
0.898405 0.898802 0.898802
0.909316 0.909667 0.909667
0.581094 0.582513 0.582513
0.556756 0.558236 0.558236
0.566964 0.568429 0.568429
0.580789 0.582208 0.582208
0.595422 0.596811 0.596811
0.608545 0.609888 0.609888
0.62359 0.624903 0.624903
0.637461 0.638743 0.638743
0.648753 0.649989 0.649989
0.392767 0.394583 0.394583
0.437858 0.439612 0.439612
0.476448 0.478126 0.478126
0.514427 0.51603 0.51603
0.552666 0.554162 0.554162
0.588571 0.589975 0.589975
0.617914 0.619242 0.619242
0.645975 0.647227 0.647227
0.674022 0.675181 0.675181
0.703532 0.704601 0.704601
0.731273 0.73225 0.73225
0.754818 0.755718 0.755718
0.775525 0.776364 0.776364
0.793011 0.79379 0.79379
0.810178 0.810895 0.810895
0.826566 0.827222 0.827222
0.841779 0.84239 0.84239
0.856306 0.856855 0.856855
0.869383 0.869886 0.869886
0.881895 0.882353 0.882353
0.894179 0.894591 0.894591
0.905821 0.906188 0.906188
0.915846 0.916182 0.916182
0.925017 0.925307 0.925307
0.596445 0.597833 0.597833
0.574166 0.575616 0.575616
0.583261 0.58468 0.58468
0.595941 0.59733 0.59733
0.609888 0.611246 0.611246
0.622995 0.624308 0.624308
0.63711 0.638376 0.638376
0.651057 0.652293 0.652293
0.661311 0.662516 0.662516
0.432166 0.433921 0.433921
0.474296 0.475975 0.475975
0.514839 0.516426 0.516426
0.553536 0.555032 0.555032
0.590906 0.592309 0.592309
0.620111 0.621424 0.621424
0.648234 0.64947 0.64947
0.677195 0.67834 0.67834
0.705653 0.706706 0.706706
0.733715 0.734691 0.734691
0.757641 0.758541 0.758541
0.778683 0.779507 0.779507
0.799084 0.799832 0.799832
0.815946 0.816632 0.816632
0.832502 0.833143 0.833143
0.848676 0.849256 0.849256
0.86247 0.862989 0.862989
0.874998 0.875471 0.875471
0.887373 0.8878 0.8878
0.89955 0.899947 0.899947
0.911391 0.911742 0.911742
0.922042 0.922347 0.922347
0.931182 0.931441 0.931441
0.93991 0.940154 0.940154
0.611017 0.61236 0.61236
0.589532 0.590936 0.590936
0.597711 0.599084 0.599084
0.609979 0.611322 0.611322
0.623575 0.624887 0.624887
0.636835 0.638102 0.638102
0.649912 0.651148 0.651148
0.662852 0.664057 0.664057
0.67306 0.67422 0.67422
0.461204 0.462913 0.462913
0.505989 0.507591 0.507591
0.546944 0.548455 0.548455
0.585977 0.587396 0.587396
0.619486 0.620813 0.620813
0.648814 0.65005 0.65005
0.678981 0.680125 0.680125
0.706477 0.707546 0.707546
0.730999 0.731975 0.731975
0.756115 0.757015 0.757015
0.780194 0.781003 0.781003
0.800244 0.800992 0.800992
0.819715 0.820386 0.820386
0.837003 0.837613 0.837613
0.853132 0.853681 0.853681
0.867857 0.86836 0.86836
0.88043 0.880888 0.880888
0.892622 0.893034 0.893034
0.904463 0.90483 0.90483
0.916106 0.916426 0.916426
0.927077 0.927367 0.927367
0.937453 0.937697 0.937697
0.94609 0.946303 0.946303
0.954742 0.95491 0.95491
0.626093 0.627405 0.627405
0.603433 0.604807 0.604807
0.611475 0.612818 0.612818
0.623423 0.624735 0.624735
0.636225 0.637507 0.637507
0.649378 0.650614 0.650614
0.662104 0.663294 0.663294
0.674235 0.675395 0.675395
0.684276 0.685405 0.685405
0.48394 0.485603 0.485603
0.530251 0.531807 0.531807
0.573068 0.574517 0.574517
0.611643 0.612985 0.612985
0.642786 0.644053 0.644053
0.674174 0.675334 0.675334
0.703731 0.704799 0.704799
0.728847 0.729839 0.729839
0.75256 0.753475 0.753475
0.777081 0.777905 0.777905
0.800122 0.80087 0.80087
0.820005 0.820691 0.820691
0.839048 0.839658 0.839658
0.856062 0.856611 0.856611
0.871153 0.871641 0.871641
0.885573 0.886015 0.886015
0.897719 0.898116 0.898116
0.909377 0.909728 0.909728
0.920974 0.921294 0.921294
0.93196 0.932235 0.932235
0.942397 0.942626 0.942626
0.952102 0.952285 0.952285
0.960769 0.960922 0.960922
0.969467 0.969589 0.969589
0.640391 0.641657 0.641657
0.616648 0.617975 0.617975
0.624308 0.62562 0.62562
0.635676 0.636957 0.636957
0.647822 0.649073 0.649073
0.661372 0.662577 0.662577
0.673716 0.674876 0.674876
0.685161 0.686275 0.686275
0.69456 0.695659 0.695659
0.50782 0.509438 0.509438
0.548775 0.550286 0.550286
0.596429 0.597818 0.597818
0.629862 0.631144 0.631144
0.664164 0.665354 0.665354
0.696818 0.697902 0.697902
0.72459 0.725597 0.725597
