filmlog/Shaders/LutBWContrast.cube
TITLE "Generated by Resolve"
LUT_3D_SIZE 5
0.39115 0.392981 0.392981
0.585595 0.587015 0.587015
0.694697 0.695796 0.695796
0.408194 0.409995 0.409995
0.388464 0.390295 0.390295
0.350164 0.352041 0.352041
0.556497 0.557992 0.557992
0.554421 0.555932 0.555932
0.355306 0.357183 0.357183
0.519326 0.520897 0.520897
0.189563 0.19144 0.19144
0.445991 0.44773 0.44773
0.653895 0.655116 0.655116
0.431495 0.433265 0.433265
0.546197 0.547707 0.547707
0.432166 0.433921 0.433921
0.705653 0.706706 0.706706
0.86247 0.862989 0.862989
0.611017 0.61236 0.61236
0.67306 0.67422 0.67422
0.625208 0.62652 0.62652
0.843931 0.844526 0.844526
0.979797 0.979889 0.979889
0.70425 0.705318 0.705318
0.745571 0.746502 0.746502
0.287266 0.289189 0.289189
0.505409 0.507027 0.507027
0.289708 0.291646 0.291646
0.653941 0.655161 0.655161
0.73257 0.733547 0.733547
0.247868 0.249805 0.249805
0.466621 0.468315 0.468315
0.16492 0.166766 0.166766
0.521508 0.523079 0.523079
0.78378 0.784588 0.784588
0.119402 0.121126 0.121126
0.332723 0.334615 0.334615
0.237247 0.239185 0.239185
0.533333 0.534874 0.534874
0.795026 0.795804 0.795804
0.389059 0.39089 0.39089
0.658015 0.659236 0.659236
0.477928 0.479591 0.479591
0.664683 0.665873 0.665873
0.879515 0.879973 0.879973
0.660502 0.661707 0.661707
0.770062 0.770916 0.770916
0.593713 0.595102 0.595102
0.748669 0.749584 0.749584
0.952575 0.952773 0.952773
0.0253452 0.0263066 0.0263066
0.142885 0.144686 0.144686
0.516899 0.518486 0.518486
0.808621 0.809354 0.809354
0.819638 0.82031 0.820325
0.0195315 0.0204013 0.0204013
0.110887 0.112566 0.112566
0.35816 0.360021 0.360021
0.653147 0.654368 0.654368
0.814069 0.814771 0.814771
0 0 0
0.0505989 0.0518807 0.0518807
0.358206 0.360082 0.360082
0.666835 0.668025 0.668025
0.821164 0.821836 0.821836
0.24007 0.241993 0.241993
0.272343 0.274281 0.274281
0.621363 0.622675 0.622675
0.824674 0.825345 0.825345
0.930663 0.930938 0.930938
0.999207 0.999207 0.999207
0.41445 0.416236 0.416236
0.725185 0.726177 0.726177
0.9093 0.909651 0.909651
0.999207 0.999207 0.999207
0.206394 0.208286 0.208286
0.476265 0.477943 0.477943
0.77937 0.780194 0.780194
0.963958 0.964096 0.964096
0.906126 0.906493 0.906493
0.918578 0.918898 0.918898
0.444785 0.446525 0.446525
0.621012 0.622339 0.622339
0.804135 0.804868 0.804868
0.920195 0.920501 0.920501
0.775677 0.776516 0.776516
0.282216 0.284138 0.284138
0.618235 0.619562 0.619562
0.820294 0.820966 0.820966
0.92285 0.923156 0.923156
0.828916 0.829572 0.829572
0.252094 0.254032 0.254032
0.599878 0.601251 0.601251
0.809522 0.810239 0.810239
0.919493 0.919799 0.919799
0.999207 0.999207 0.999207
0.432364 0.434119 0.434119
0.699184 0.700267 0.700267
0.88806 0.888487 0.888487
0.989868 0.989914 0.989914
0.999207 0.999207 0.999207
0.604532 0.60589 0.60589
0.827131 0.827787 0.827787
0.999207 0.999207 0.999207
0.942535 0.942763 0.942763
0.999207 0.999207 0.999207
0.562325 0.56379 0.56379
0.663188 0.664393 0.664393
0.850858 0.851423 0.851423
0.973632 0.973739 0.973739
0.999207 0.999207 0.999207
0.418814 0.4206 0.4206
0.655894 0.657115 0.657115
0.861891 0.862425 0.862425
0.974701 0.974792 0.974792
0.999207 0.999207 0.999207
0.500954 0.502571 0.502571
0.625376 0.626688 0.626688
0.841505 0.8421 0.8421
0.961929 0.962081 0.962081
0.999207 0.999207 0.999207
0.999207 0.999207 0.999207
0.566903 0.568368 0.568368
0.821469 0.822141 0.822141
0.956161 0.956344 0.956344
