filmlog/Shaders/LutBWContrast.cube
TITLE "Generated by Resolve"
LUT_3D_SIZE 9
0.39115 0.392981 0.392981
0.499046 0.500664 0.500664
0.585595 0.587015 0.587015
0.644877 0.646113 0.646113
0.694697 0.695796 0.695796
0.733104 0.734081 0.734081
0.408194 0.409995 0.409995
0.442542 0.444282 0.444282
0.388464 0.390295 0.390295
0.370703 0.372549 0.372549
0.479576 0.481254 0.481254
0.571756 0.573205 0.573205
0.635065 0.636347 0.636347
0.685756 0.68687 0.68687
0.726482 0.727489 0.727489
0.285679 0.287602 0.287602
0.350149 0.352041 0.352041
0.473091 0.474769 0.474769
0.350164 0.352041 0.352041
0.459754 0.461463 0.461463
0.556497 0.557992 0.557992
0.62501 0.626322 0.626322
0.554421 0.555932 0.555932
0.639078 0.640345 0.640345
0.355306 0.357183 0.357183
0.41561 0.417411 0.417411
0.519326 0.520897 0.520897
0.329397 0.331289 0.331289
0.439033 0.440787 0.440787
0.402838 0.404639 0.404639
0.517296 0.518883 0.518883
0.619669 0.620996 0.620996
0.697856 0.69894 0.69894
0.397467 0.399283 0.399283
0.443793 0.445533 0.445533
0.537301 0.538827 0.538827
0.189563 0.19144 0.19144
0.300145 0.302068 0.302068
0.445991 0.44773 0.44773
0.568811 0.570275 0.570275
0.653895 0.655116 0.655116
0.718685 0.719707 0.719707
0.431495 0.433265 0.433265
0.472877 0.474556 0.474556
0.546197 0.547707 0.547707
0.236469 0.238392 0.238392
0.402502 0.404318 0.404318
0.560021 0.561517 0.561517
0.680262 0.681407 0.681407
0.765042 0.765911 0.765911
0.83241 0.833051 0.833051
0.541787 0.543328 0.543328
0.561425 0.562905 0.562905
0.620325 0.621653 0.621653
0.432166 0.433921 0.433921
0.590906 0.592309 0.592309
0.705653 0.706706 0.706706
0.799084 0.799832 0.799832
0.86247 0.862989 0.862989
0.911391 0.911742 0.911742
0.611017 0.61236 0.61236
0.623575 0.624887 0.624887
0.67306 0.67422 0.67422
0.525078 0.52665 0.52665
0.68484 0.685969 0.685969
0.793957 0.79472 0.79472
0.874144 0.874632 0.874632
0.929519 0.929793 0.929793
0.970459 0.970581 0.970581
0.664286 0.665476 0.665476
0.669322 0.670497 0.670497
0.713634 0.714672 0.714672
0.625208 0.62652 0.62652
0.733913 0.734874 0.734874
0.843931 0.844526 0.844526
0.924498 0.924788 0.924788
0.979797 0.979889 0.979889
0.999207 0.999207 0.999207
0.70425 0.705318 0.705318
0.705165 0.706218 0.706218
0.745571 0.746502 0.746502
0.339788 0.34168 0.34168
0.4495 0.451225 0.451225
0.54873 0.55024 0.55024
0.619776 0.621088 0.621088
0.671916 0.673091 0.673091
0.340078 0.341955 0.341955
0.44123 0.442969 0.442969
0.631464 0.632746 0.632746
0.626719 0.628031 0.628031
0.31899 0.320897 0.320897
0.42855 0.43032 0.43032
0.532586 0.534127 0.534127
0.608087 0.60943 0.60943
0.662242 0.663432 0.663432
0.331991 0.333898 0.333898
0.295949 0.297871 0.297871
0.465095 0.466804 0.466804
0.657679 0.6589 0.6589
0.29778 0.299702 0.299702
0.408331 0.410132 0.410132
0.514778 0.516381 0.516381
0.595987 0.597375 0.597375
0.52961 0.531167 0.531167
0.247242 0.249165 0.249165
0.371511 0.373373 0.373373
0.498024 0.499657 0.499657
0.682292 0.683436 0.683436
0.276661 0.278599 0.278599
0.387762 0.389593 0.389593
0.357122 0.358999 0.358999
0.482811 0.484474 0.484474
0.591913 0.593317 0.593317
0.300008 0.30193 0.30193
0.415915 0.4177 0.4177
0.520729 0.522316 0.522316
0.683467 0.684596 0.684596
0.149279 0.15108 0.15108
0.251682 0.25362 0.25362
0.389258 0.391089 0.391089
0.527977 0.529534 0.529534
0.624262 0.625559 0.625559
0.32166 0.323568 0.323568
0.429358 0.431128 0.431128
0.529229 0.5308 0.5308
0.673808 0.674968 0.674968
0.226871 0.228794 0.228794
0.382254 0.3841 0.3841
0.542809 0.544335 0.544335
0.6692 0.670375 0.670375
0.761334 0.762219 0.762219
0.449775 0.451499 0.451499
0.535897 0.537438 0.537438
0.598581 0.599954 0.599954
0.70901 0.710063 0.710063
0.39237 0.394186 0.394186
0.556176 0.557671 0.557671
0.6851 0.686229 0.686229
0.784497 0.785306 0.785306
0.856245 0.856794 0.856794
0.536492 0.538033 0.538033
0.608896 0.610254 0.610254
0.660899 0.662089 0.662089
0.758572 0.759457 0.759457
0.528618 0.530175 0.530175
0.636942 0.638209 0.638209
0.77026 0.771115 0.771115
0.856855 0.857389 0.857389
0.922454 0.922759 0.922759
0.599161 0.600534 0.600534
0.661143 0.662348 0.662348
0.706844 0.707897 0.707897
0.797299 0.798062 0.798062
0.638544 0.639811 0.639811
0.671122 0.672282 0.672282
0.81268 0.813382 0.813382
0.90454 0.904921 0.904921
0.967773 0.967895 0.967895
0.64097 0.642237 0.642237
0.700572 0.70164 0.70164
0.742489 0.743435 0.743435
0.828672 0.829328 0.829328
0.287266 0.289189 0.289189
0.398184 0.4 0.4
0.505409 0.507027 0.507027
0.219394 0.221302 0.221302
0.289708 0.291646 0.291646
0.443778 0.445518 0.445518
0.653941 0.655161 0.655161
0.780438 0.781262 0.781262
0.73257 0.733547 0.733547
0.266102 0.268025 0.268025
0.377417 0.379263 0.379263
0.486336 0.487999 0.487999
0.209491 0.211398 0.211398
0.277974 0.279896 0.279896
0.434455 0.43621 0.43621
0.503487 0.505104 0.505104
0.628061 0.629358 0.629358
0.750439 0.751354 0.751354
0.247868 0.249805 0.249805
0.357198 0.35906 0.35906
0.466621 0.468315 0.468315
0.198474 0.200366 0.200366
0.16492 0.166766 0.166766
0.291859 0.293782 0.293782
0.521508 0.523079 0.523079
0.683162 0.684306 0.684306
0.78378 0.784588 0.784588
0.231128 0.233051 0.233051
0.336446 0.338338 0.338338
0.309438 0.31136 0.31136
0.122911 0.124636 0.124636
0.211383 0.213291 0.213291
0.340902 0.342794 0.342794
0.536522 0.538064 0.538064
0.699718 0.700801 0.700801
0.79443 0.795209 0.795209
0.119402 0.121126 0.121126
0.204044 0.205936 0.205936
0.332723 0.334615 0.334615
0.146181 0.147982 0.147982
0.237247 0.239185 0.239185
0.361959 0.363836 0.363836
0.533333 0.534874 0.534874
0.700832 0.701915 0.701915
0.795026 0.795804 0.795804
0.223072 0.224994 0.224994
0.363149 0.365026 0.365026
0.522576 0.524147 0.524147
0.273213 0.275135 0.275135
0.37435 0.376196 0.376196
0.477211 0.478889 0.478889
0.597864 0.599237 0.599237
0.745647 0.746593 0.746593
0.828199 0.828855 0.828855
0.389059 0.39089 0.39089
0.508339 0.509957 0.509957
0.658015 0.659236 0.659236
0.382315 0.384161 0.384161
0.477928 0.479591 0.479591
0.56582 0.567285 0.567285
0.664683 0.665873 0.665873
0.803128 0.803861 0.803861
0.879515 0.879973 0.879973
0.548806 0.550317 0.550317
0.579156 0.580591 0.580591
0.733486 0.734462 0.734462
0.455604 0.457328 0.457328
0.546044 0.547555 0.547555
0.625895 0.627192 0.627192
0.710369 0.711421 0.711421
0.846281 0.846876 0.846876
0.919692 0.920012 0.920012
0.660502 0.661707 0.661707
0.66482 0.66601 0.66601
0.770062 0.770916 0.770916
0.506188 0.507805 0.507805
0.593713 0.595102 0.595102
0.669703 0.670878 0.670878
0.748669 0.749584 0.749584
0.880064 0.880522 0.880522
0.952575 0.952773 0.952773
0.238972 0.240909 0.240909
0.346899 0.348791 0.348791
0.121386 0.12311 0.12311
0.217319 0.219226 0.219226
0.435798 0.437552 0.437552
0.617166 0.618494 0.618494
0.751659 0.752575 0.752575
0.839734 0.840345 0.840345
0.767086 0.767941 0.767941
0.22414 0.226047 0.226047
0.326101 0.328008 0.328008
0.109621 0.111284 0.111284
0.203754 0.205646 0.205646
0.418265 0.42005 0.42005
0.602396 0.603769 0.603769
0.612879 0.614221 0.614221
0.674968 0.676127 0.676127
0.776135 0.776974 0.776974
0.209995 0.211902 0.211902
0.304967 0.306889 0.306889
0.098558 0.100175 0.100175
0.190799 0.192676 0.192676
0.271412 0.273335 0.273335
0.442802 0.444541 0.444541
0.622217 0.623529 0.623529
0.737194 0.738155 0.738155
0.811627 0.812329 0.812329
0.195651 0.197528 0.197528
0.283864 0.285786 0.285786
0.0400244 0.0411994 0.0411994
0.104845 0.106508 0.106508
0.284428 0.286366 0.286366
0.491981 0.493629 0.493629
0.65333 0.654566 0.654566
0.756405 0.75729 0.75729
0.823529 0.824186 0.824186
0.0919661 0.0935531 0.0935531
0.158083 0.159915 0.159915
0.0447395 0.0459602 0.0459602
0.12282 0.124544 0.124544
0.289494 0.291417 0.291417
0.501091 0.502724 0.502724
0.656535 0.65774 0.65774
0.757626 0.758526 0.758526
0.823667 0.824338 0.824338
0.223606 0.225528 0.225528
0.336843 0.338735 0.338735
0.146166 0.147951 0.147951
0.256062 0.257984 0.257984
0.413764 0.415549 0.415549
0.603372 0.604746 0.604746
0.727504 0.728496 0.728496
0.808499 0.809216 0.809216
0.86479 0.865309 0.865309
0.419974 0.421759 0.421759
0.459602 0.461311 0.461311
0.235843 0.237781 0.237781
0.366522 0.368383 0.368383
0.515084 0.51667 0.51667
0.685908 0.687037 0.687037
0.794446 0.795224 0.795224
0.866621 0.867124 0.867124
0.917098 0.917418 0.917418
0.590723 0.592126 0.592126
0.587945 0.589349 0.589349
0.300832 0.302754 0.302754
0.4421 0.443854 0.443854
0.583337 0.584756 0.584756
0.740612 0.741558 0.741558
0.842741 0.843336 0.843336
0.911299 0.91165 0.91165
0.95903 0.959182 0.959182
0.741863 0.742809 0.742809
0.677195 0.67834 0.67834
0.332937 0.334829 0.334829
0.493324 0.494957 0.494957
0.630472 0.631754 0.631754
0.781338 0.782162 0.782162
0.879347 0.879805 0.879805
0.9467 0.946914 0.946914
0.9935 0.99353 0.99353
0.0253452 0.0263066 0.0263066
0.0531014 0.0544137 0.0544137
0.142885 0.144686 0.144686
0.318395 0.320302 0.320302
0.516899 0.518486 0.518486
0.68835 0.689464 0.689464
0.808621 0.809354 0.809354
0.897612 0.898009 0.898009
0.819638 0.82031 0.820325
0.0222019 0.0231174 0.0231174
0.045716 0.046952 0.046952
0.126177 0.127916 0.127916
0.292058 0.29398 0.29398
0.507408 0.50901 0.50901
0.683253 0.684382 0.684382
0.674739 0.675898 0.675898
0.711772 0.71281 0.71281
0.799252 0.8 0.8
0.0195315 0.0204013 0.0204013
0.0393988 0.0405737 0.0405737
0.110887 0.112566 0.112566
0.265934 0.267872 0.267872
0.35816 0.360021 0.360021
0.504845 0.506462 0.506462
0.653147 0.654368 0.654368
0.749218 0.750149 0.750149
0.814069 0.814771 0.814771
0.0161898 0.0170138 0.0170138
0.0340124 0.035111 0.035111
0.0446174 0.0458381 0.0458381
0.152041 0.153841 0.153841
0.349142 0.351034 0.351034
0.537697 0.539239 0.539239
0.666163 0.667338 0.667338
0.757748 0.758648 0.758648
0.821775 0.822446 0.822446
0 0 0
0.00976577 0.010605 0.010605
0.0505989 0.0518807 0.0518807
0.173037 0.174899 0.174899
0.358206 0.360082 0.360082
0.54023 0.541756 0.541756
0.666835 0.668025 0.668025
0.758007 0.758907 0.758907
0.821164 0.821836 0.821836
0.0426795 0.0438849 0.0438849
0.0651408 0.0665446 0.0665446
0.16611 0.167941 0.167941
0.333486 0.335378 0.335378
0.520256 0.521828 0.521828
0.662913 0.664103 0.664103
0.758206 0.759091 0.759091
0.827008 0.827665 0.827665
0.877256 0.877729 0.877729
0.24007 0.241993 0.241993
0.142458 0.144259 0.144259
0.272343 0.274281 0.274281
0.45388 0.455589 0.455589
0.621363 0.622675 0.622675
0.743664 0.74461 0.74461
0.824674 0.825345 0.825345
0.885618 0.886061 0.886061
0.930663 0.930938 0.930938
0.939208 0.939437 0.939437
0.201068 0.202976 0.202976
0.355795 0.357671 0.357671
0.532448 0.533989 0.533989
0.683146 0.684276 0.684276
0.796475 0.797238 0.797238
0.872435 0.872923 0.872923
0.92987 0.930144 0.930144
0.972229 0.972335 0.972335
0.999207 0.999207 0.999207
0.273579 0.275517 0.275517
0.41445 0.416236 0.416236
0.583658 0.585077 0.585077
0.725185 0.726177 0.726177
0.834318 0.834943 0.834943
0.9093 0.909651 0.909651
0.964401 0.964538 0.964538
0.999207 0.999207 0.999207
0.0597543 0.0611276 0.0611276
0.135851 0.137621 0.137621
0.306538 0.308461 0.308461
0.523293 0.524865 0.524865
0.693507 0.694606 0.694606
0.814847 0.815534 0.815534
0.907912 0.908263 0.908263
0.979492 0.979568 0.979568
0.879561 0.880018 0.880018
0.0643168 0.0657206 0.0657206
0.13341 0.135164 0.135164
0.295872 0.297795 0.297795
0.509865 0.511467 0.511467
0.683436 0.684565 0.684565
0.80827 0.808988 0.808988
0.773602 0.774456 0.774456
0.78854 0.789334 0.789334
0.860243 0.860777 0.860777
0.0725414 0.0740063 0.0740063
0.132433 0.134188 0.134188
0.285267 0.28719 0.28719
0.496193 0.497826 0.497826
0.53666 0.538201 0.538201
0.637003 0.63827 0.63827
0.752056 0.752972 0.752972
0.826337 0.826993 0.826993
0.876951 0.877424 0.877424
0.0987716 0.100404 0.100404
0.131243 0.132998 0.132998
0.162814 0.164645 0.164645
0.332952 0.334844 0.334844
0.524361 0.525933 0.525933
0.670039 0.671214 0.671214
0.766537 0.767391 0.767391
0.834531 0.835157 0.835157
0.88159 0.882048 0.882048
0.573968 0.575418 0.575418
0.0631723 0.0645609 0.0645609
0.167376 0.169223 0.169223
0.352361 0.354238 0.354238
0.534615 0.536156 0.536156
0.674952 0.676112 0.676112
0.767315 0.768185 0.768185
0.833829 0.83447 0.83447
0.881056 0.881514 0.881514
0.608347 0.609705 0.609705
0.079118 0.0806287 0.0806287
0.185168 0.187045 0.187045
0.356115 0.357992 0.357992
0.52929 0.530846 0.530846
0.668925 0.6701 0.6701
0.763119 0.763989 0.763989
0.829404 0.830045 0.830045
0.877333 0.877806 0.877806
0.800961 0.801709 0.801709
0.165621 0.167468 0.167468
0.295506 0.297429 0.297429
0.475944 0.477623 0.477623
0.627955 0.629252 0.629252
0.74403 0.744976 0.744976
0.825391 0.826047 0.826047
0.884077 0.88452 0.88452
0.928176 0.928466 0.928466
0.934203 0.934462 0.934462
0.270344 0.272267 0.272267
0.372168 0.374029 0.374029
0.550484 0.551995 0.551995
0.688411 0.689525 0.689525
0.795438 0.796201 0.796201
0.872206 0.872694 0.872694
0.928283 0.928557 0.928557
0.969284 0.969406 0.969406
0.999207 0.999207 0.999207
0.376089 0.377935 0.377935
0.413794 0.415595 0.415595
0.597803 0.599176 0.599176
0.729122 0.730114 0.730114
0.831403 0.832044 0.832044
0.907698 0.908064 0.908064
0.961822 0.961975 0.961975
0.999207 0.999207 0.999207
0.206394 0.208286 0.208286
0.30811 0.310033 0.310033
0.476265 0.477943 0.477943
0.641443 0.642695 0.642695
0.77937 0.780194 0.780194
0.883955 0.884398 0.884398
0.963958 0.964096 0.964096
0.999207 0.999207 0.999207
0.906126 0.906493 0.906493
0.345586 0.347463 0.347463
0.301793 0.303716 0.303716
0.46041 0.462119 0.462119
0.626963 0.62826 0.62826
0.766384 0.767254 0.767254
0.875563 0.876051 0.876051
0.82533 0.825986 0.825986
0.833646 0.834272 0.834272
0.90312 0.903487 0.903487
0.918578 0.918898 0.918898
0.294057 0.295995 0.295995
0.444785 0.446525 0.446525
0.612146 0.613489 0.613489
0.621012 0.622339 0.622339
0.704524 0.705592 0.705592
0.804135 0.804868 0.804868
0.871656 0.87216 0.87216
0.920195 0.920501 0.920501
0.918578 0.918898 0.918898
0.292332 0.294255 0.294255
0.286061 0.287984 0.287984
0.43856 0.440314 0.440314
0.607828 0.609186 0.609186
0.73518 0.736156 0.736156
0.819425 0.820096 0.820096
0.879225 0.879698 0.879698
0.923903 0.924208 0.924208
0.775677 0.776516 0.776516
0.1579 0.159716 0.159716
0.282216 0.284138 0.284138
0.458625 0.460334 0.460334
0.618235 0.619562 0.619562
0.738674 0.739635 0.739635
0.820294 0.820966 0.820966
0.878752 0.87921 0.87921
0.92285 0.923156 0.923156
0.760937 0.761822 0.761822
0.179843 0.181704 0.181704
0.277104 0.279026 0.279026
0.453895 0.455619 0.455619
0.612207 0.61355 0.61355
0.731991 0.732967 0.732967
0.815122 0.815824 0.815824
0.874327 0.8748 0.8748
0.919097 0.919417 0.919417
0.828916 0.829572 0.829572
0.266453 0.268376 0.268376
0.252094 0.254032 0.254032
0.440253 0.441993 0.441993
0.599878 0.601251 0.601251
0.720958 0.721965 0.721965
0.809522 0.810239 0.810239
0.871061 0.871565 0.871565
0.919493 0.919799 0.919799
0.973663 0.97377 0.97377
0.999207 0.999207 0.999207
0.349447 0.351339 0.351339
0.508675 0.510292 0.510292
0.659785 0.66099 0.66099
0.770275 0.77113 0.77113
0.855467 0.856016 0.856016
0.913527 0.913863 0.913863
0.958572 0.95874 0.95874
0.999207 0.999207 0.999207
0.999207 0.999207 0.999207
0.432364 0.434119 0.434119
0.548318 0.549844 0.549844
0.699184 0.700267 0.700267
0.805249 0.805982 0.805982
0.88806 0.888487 0.888487
0.946075 0.946273 0.946273
0.989868 0.989914 0.989914
0.999207 0.999207 0.999207
0.427939 0.429709 0.429709
0.559594 0.56109 0.56109
0.698589 0.699672 0.699672
0.81651 0.817197 0.817197
0.917815 0.918135 0.918135
0.995819 0.995834 0.995834
0.999207 0.999207 0.999207
0.925719 0.926009 0.926009
0.999207 0.999207 0.999207
0.419455 0.421241 0.421241
0.545434 0.54696 0.54696
0.683406 0.68455 0.68455
0.802121 0.802869 0.802869
0.906325 0.906691 0.906691
0.85388 0.854444 0.854444
0.860578 0.861112 0.861112
0.933333 0.933593 0.933593
0.999207 0.999207 0.999207
0.40885 0.410651 0.410651
0.534783 0.536339 0.536339
0.667948 0.669139 0.669139
0.655665 0.656886 0.656886
0.73228 0.733257 0.733257
0.833967 0.834592 0.834592
0.901854 0.902235 0.902235
0.951141 0.951339 0.951339
0.999207 0.999207 0.999207
0.429679 0.431449 0.431449
0.362997 0.364858 0.364858
0.48719 0.488853 0.488853
0.642603 0.64387 0.64387
0.762646 0.763531 0.763531
0.848844 0.849424 0.849424
0.909453 0.909804 0.909804
0.955612 0.955795 0.955795
0.925628 0.925917 0.925917
0.999207 0.999207 0.999207
0.325841 0.327749 0.327749
0.501381 0.502998 0.502998
0.651804 0.653025 0.653025
0.764614 0.765484 0.765484
0.849439 0.850004 0.850004
0.908186 0.908537 0.908537
0.953948 0.954131 0.954131
0.936828 0.937072 0.937072
0.999207 0.999207 0.999207
0.34757 0.349447 0.349447
0.488502 0.49015 0.49015
0.64448 0.645731 0.645731
0.756634 0.757534 0.757534
0.842832 0.843427 0.843427
0.902724 0.903105 0.903105
0.948714 0.948913 0.948913
0.959045 0.959197 0.959197
0.999207 0.999207 0.999207
0.367697 0.369558 0.369558
0.45832 0.460029 0.460029
0.629709 0.630991 0.630991
0.744213 0.745144 0.745144
0.832517 0.833143 0.833143
0.895354 0.895766 0.895766
0.942397 0.942626 0.942626
0.999207 0.999207 0.999207
0.999207 0.999207 0.999207
0.385061 0.386892 0.386892
0.423865 0.425635 0.425635
0.612299 0.613642 0.613642
0.733135 0.734112 0.734112
0.826886 0.827543 0.827543
0.894469 0.894881 0.894881
0.944228 0.944442 0.944442
0.999207 0.999207 0.999207
0.999207 0.999207 0.999207
0.476555 0.478233 0.478233
0.469322 0.471015 0.471015
0.649165 0.650401 0.650401
0.767086 0.767941 0.767941
0.857771 0.85832 0.85832
0.925093 0.925383 0.925383
0.974517 0.974624 0.974624
0.999207 0.999207 0.999207
0.520562 0.522148 0.522148
0.604532 0.60589 0.60589
0.718532 0.719554 0.719554
0.827131 0.827787 0.827787
0.929397 0.929671 0.929671
0.999207 0.999207 0.999207
0.999207 0.999207 0.999207
0.942535 0.942763 0.942763
0.999207 0.999207 0.999207
0.588373 0.589792 0.589792
0.590204 0.591608 0.591608
0.701885 0.702953 0.702953
0.812665 0.813367 0.813367
0.915389 0.915724 0.915724
0.86891 0.869413 0.869413
0.880598 0.881071 0.881071
0.95642 0.956603 0.956603
0.999207 0.999207 0.999207
0.999207 0.999207 0.999207
0.562325 0.56379 0.56379
0.684489 0.685618 0.685618
0.663188 0.664393 0.664393
0.741024 0.74197 0.74197
0.850858 0.851423 0.851423
0.921263 0.921569 0.921569
0.973632 0.973739 0.973739
0.999207 0.999207 0.999207
0.999207 0.999207 0.999207
0.392569 0.394385 0.394385
0.491295 0.492943 0.492943
0.64918 0.650416 0.650416
0.768734 0.769604 0.769604
0.863676 0.864195 0.864195
0.929076 0.929351 0.929351
0.977127 0.977203 0.977203
0.999207 0.999207 0.999207
0.999207 0.999207 0.999207
0.418814 0.4206 0.4206
0.495506 0.497139 0.497139
0.655894 0.657115 0.657115
0.770077 0.770932 0.770932
0.861891 0.862425 0.862425
0.927428 0.927703 0.927703
0.974701 0.974792 0.974792
0.999207 0.999207 0.999207
0.999207 0.999207 0.999207
0.454582 0.456291 0.456291
0.46125 0.462959 0.462959
0.644999 0.64625 0.64625
0.761166 0.762051 0.762051
0.854231 0.85478 0.85478
0.920668 0.920974 0.920974
0.96936 0.969482 0.969482
0.999207 0.999207 0.999207
0.999207 0.999207 0.999207
0.500954 0.502571 0.502571
0.468742 0.470436 0.470436
0.625376 0.626688 0.626688
0.747799 0.74873 0.74873
0.841505 0.8421 0.8421
0.911879 0.912215 0.912215
0.961929 0.962081 0.962081
0.999207 0.999207 0.999207
0.999207 0.999207 0.999207
0.999207 0.999207 0.999207
0.482933 0.484596 0.484596
0.60032 0.601694 0.601694
0.73225 0.733227 0.733227
0.828 0.828641 0.828641
0.902663 0.903029 0.903029
0.953918 0.954101 0.954101
0.999207 0.999207 0.999207
0.999207 0.999207 0.999207
0.999207 0.999207 0.999207
0.494606 0.496254 0.496254
0.566903 0.568368 0.568368
0.722179 0.723186 0.723186
0.821469 0.822141 0.822141
0.90074 0.901122 0.901122
0.956161 0.956344 0.956344
