filmlog/Shaders/LutFujiWarm.cube
TITLE "Generated by Resolve"
LUT_3D_SIZE 5
0 0.343587 0
0 0.488228 0
0 0.589044 0
0 0.333532 0
0.0337224 0.334142 0
0 0.31667 0
0 0.463722 0
0 0.479042 0.0551766
0 0.349126 0.116396
0.0239261 0.439338 0.219455
0 0.204562 0.0512551
0 0.441535 0.261418
0 0.643992 0.488197
0 0.392599 0.329534
0.0230564 0.45359 0.374838
0 0.225223 0.391379
0 0.462348 0.586404
0 0.650828 0.726406
0 0.389151 0.447547
0.0212711 0.445182 0.463203
0.00292973 0.16437 0.513802
0 0.446036 0.76846
0 0.62977 0.856962
0 0.381781 0.528344
0.0202487 0.436377 0.529717
0 0.274006 0
0 0.423239 0
0.0276951 0.222995 0
0.287358 0.442267 0
0.473106 0.539025 0.0244755
0 0.245319 0
0 0.394354 0
0.00427253 0.157244 0
0.192248 0.43859 0.145937
0.441459 0.651194 0.371786
0 0.144533 0.0582437
0 0.350393 0.250156
0.0104982 0.241947 0.198367
0.151202 0.4663 0.388647
0.42266 0.670985 0.587091
0.000534066 0.121706 0.33228
0 0.35903 0.565148
0.0122683 0.249775 0.367514
0.129747 0.44947 0.516533
0.410483 0.663142 0.707393
0 0.101106 0.489311
0 0.339055 0.726009
0.0227665 0.254108 0.475685
0.144976 0.465309 0.636637
0.453346 0.697688 0.836133
0.0121462 0.0412604 0
0.128862 0.137499 0
0.404913 0.325475 0
0.665888 0.490852 0
0.755306 0.562615 0.0357214
0.0181735 0.0316625 0
0.125185 0.11696 0
0.320974 0.253071 0.0129854
0.548898 0.478035 0.184955
0.722683 0.669444 0.412039
0 0 0
0.0677348 0.0750591 0.0749828
0.298039 0.299458 0.288548
0.537041 0.53106 0.5037
0.711406 0.696818 0.656947
0.0105745 0 0.239826
0.0530556 0.0632944 0.256382
0.269703 0.278111 0.480095
0.515404 0.517067 0.672343
0.695766 0.686732 0.791562
0.185107 0 1
0.0433967 0.039353 0.354314
0.246418 0.238849 0.577676
0.493767 0.485878 0.769741
0.678798 0.663874 0.880873
0.191775 0.0053254 0
0.401404 0.117144 0
0.646189 0.280568 0
0.858442 0.442527 0
0.90309 0.528237 0.0383459
0.884886 0 0.00354009
0.381979 0.0912184 0
0.524056 0.19733 0.0166171
0.715511 0.411582 0.181979
0.862242 0.621073 0.413336
0.639002 0 0.305303
0.254963 0.0337072 0.0824598
0.485847 0.208759 0.281315
0.71223 0.458762 0.507668
0.854368 0.645319 0.665125
0.630396 0 0.88101
0.197284 0.00563058 0.243214
0.453513 0.185 0.475288
0.685573 0.438193 0.677791
0.833722 0.627832 0.799512
0.619898 0 1
0.193744 0 0.369299
0.416861 0.146456 0.570123
0.651347 0.396841 0.768277
0.809903 0.596567 0.885084
1 0 0.00474556
0.515373 0.0546273 0
0.744823 0.200992 0
0.948669 0.370596 0
0.97293 0.468742 0.0368505
1 0 0.00474556
0.467338 0.026688 0
0.592187 0.118395 0.0135805
0.782162 0.32488 0.171191
0.933165 0.550042 0.405417
0.963531 0 0.322515
0.339956 0 0.0793469
0.538552 0.110048 0.24741
0.765942 0.347402 0.474403
0.92224 0.564736 0.651835
0.898329 0 0.934936
0.368185 0 0.315358
0.493584 0.0816968 0.417655
0.728695 0.315557 0.629862
0.895735 0.539376 0.780423
0.882155 0 1
0.882155 0 1
0.429938 0.0417487 0.484306
0.683162 0.267994 0.708324
0.867399 0.504295 0.861845
