filmlog/Shaders/LutFujiNeutral.cube
TITLE "Generated by Resolve"
LUT_3D_SIZE 33
0 0.354223 0
0 0.372961 0
0 0.391516 0
0 0.409628 0
0 0.429343 0
0 0.449073 0
0 0.467689 0
0 0.485527 0
0 0.502388 0
0 0.517571 0
0 0.532494 0
0 0.546304 0
0 0.559792 0
0 0.572869 0
0 0.584878 0
0 0.59675 0
0 0.608225 0
0 0.618616 0
0 0.628489 0
0 0.638071 0
0 0.647349 0
0 0.655238 0
0 0.663035 0
0 0.670573 0
0 0.349035 0
0.00482185 0.31809 0
0.0124514 0.317937 0
0.0187228 0.326421 0
0.0244144 0.33994 0
0.00444038 0.260456 0
0.0107118 0.295369 0
0.0150912 0.315877 0
0.0274662 0.351781 0
0 0.350652 0
0 0.369528 0
0 0.388052 0
0 0.406226 0
0 0.425513 0
0 0.445319 0
0 0.464302 0
0 0.482216 0
0 0.499413 0
0 0.514809 0
0 0.529717 0
0 0.543755 0
0 0.557244 0
0 0.570428 0
0 0.582681 0
0 0.594553 0
0 0.606119 0
0 0.616739 0
0 0.626612 0
0 0.636286 0
0 0.645762 0
0 0.653788 0
0 0.661585 0
0 0.6692 0
0 0.348135 0
0.00488289 0.317235 0
0.0124971 0.317067 0
0 0.23032 0
0.00112917 0.261769 0
0.00631724 0.282856 0
0.0116579 0.314199 0
0.0169528 0.348074 0.0134127
0.0237888 0.37818 0.0267643
0 0.347005 0
0 0.366018 0
0 0.384604 0
0 0.402838 0
0 0.421805 0
0 0.441688 0
0 0.460792 0
0 0.47892 0
0 0.496559 0
0 0.511925 0
0 0.52694 0
0 0.541222 0
0 0.554803 0
0 0.567987 0
0 0.580468 0
0 0.59234 0
0 0.603906 0
0 0.614862 0
0 0.624826 0
0 0.634501 0
0 0.643977 0
0 0.652277 0
0 0.660136 0
0 0.667765 0
0 0.347189 0
0 0.223667 0
0 0.238727 0
0 0.25539 0
0.00314336 0.286946 1.5259e-05
0.00863661 0.31751 0.0134432
0.0138552 0.347631 0.0261692
0.0193942 0.376715 0.0404822
0.0241398 0.402564 0.0562142
0 0.343542 0
0 0.362509 0
0 0.381048 0
0 0.399451 0
0 0.418006 0
0 0.437949 0
0 0.457404 0
0 0.475517 0
0 0.493294 0
0 0.509056 0
0 0.524163 0
0 0.538689 0
0 0.55227 0
0 0.565545 0
0 0.578164 0
0 0.590143 0
0 0.601801 0
0 0.612985 0
0 0.62295 0
0 0.632715 0
0 0.642206 0
0 0.650813 0
0 0.658625 0
0 0.530526 0.00709544
0 0.259312 0
0 0.246799 0
0 0.265141 9.15541e-05
0 0.289937 0.0129244
0.00509651 0.316197 0.0251469
0.0103456 0.344366 0.0392157
0.0153811 0.373205 0.0555428
0.020798 0.40029 0.073167
0.0255131 0.424369 0.0916304
0 0.340002 0
0 0.358938 0
0 0.377554 0
0 0.396078 0
0 0.414206 0
0 0.434348 0
0 0.453895 0
0 0.472221 0
0 0.489982 0
0 0.506188 0
0 0.521385 0
0 0.536049 0
0 0.549722 0
0 0.563012 0
0 0.575967 0
0 0.58793 0
0 0.599603 0
0 0.611063 0
0 0.621073 0
0 0.63093 0
0 0.640421 0
0 0.519585 0.00184634
0 0.53695 0.0281071
0 0.563043 0.0520333
0 0.290455 0.00895705
0 0.278233 0.0142824
0 0.292226 0.0238041
0.000808728 0.314717 0.0372168
0.00660716 0.340368 0.0531167
0.0116426 0.366659 0.0707256
0.0165255 0.394064 0.0901045
0.0219272 0.419959 0.110307
0.0266423 0.442725 0.129961
0 0.3364 0
0 0.355444 0
0 0.374105 0
0 0.392599 0
0 0.410727 0
0 0.430625 0
0 0.450248 0
0 0.468818 0
0 0.486671 0
0 0.503319 0
0 0.518502 0
0 0.533425 0
0 0.547189 0
0 0.560571 0
0 0.573663 0
0 0.585718 0
0 0.597498 0
0 0.608957 0
0 0.619272 0
0 0.508278 0
0 0.516884 0.0264897
0 0.541878 0.0460059
0 0.58117 0.0843977
0 0.614328 0.118822
0 0.319173 0.0351568
0 0.301885 0.0382391
0 0.314961 0.0503395
0.00215152 0.336355 0.0676432
0.00776684 0.36025 0.0865492
0.0126802 0.385443 0.106722
0.0181277 0.411719 0.127855
0.0227817 0.435691 0.148104
0.027451 0.457145 0.167544
0 0.332799 0
0 0.351873 0
0 0.370687 0
0 0.389242 0
0 0.40734 0
0 0.426795 0
0 0.446616 0
0 0.465431 0
0 0.48336 0
0 0.50045 0
0 0.51574 0
0 0.530648 0
0 0.54464 0
0 0.558129 0
0 0.571206 0
0 0.583413 0
0 0.595285 0
0 0.51577 0
0 0.492988 0.024445
0 0.518303 0.041062
0 0.559182 0.079942
0 0.592035 0.111696
0 0.623545 0.146868
0 0.651392 0.180316
0 0.342779 0.066331
0 0.322911 0.0681163
0 0.334081 0.0825055
0.00315862 0.353948 0.102235
0.00865187 0.376638 0.122881
0.0134279 0.400458 0.14374
0.0187991 0.425696 0.164904
0.0233768 0.448005 0.184588
0.027985 0.468254 0.203128
0 0.329213 0
0 0.348226 0
0 0.367163 0
0 0.385687 0
0 0.404044 0
0 0.423087 0
0 0.442985 0
0 0.461921 0
0 0.480064 0
0 0.497475 0
0 0.512856 0
0 0.527871 0
0 0.542107 0
0 0.555581 0
0 0.56878 0
0 0.581216 0
0 0.466087 0.0220035
0 0.497353 0.0403601
0 0.534844 0.0754559
0 0.568643 0.107607
0 0.601312 0.142397
0 0.630991 0.175891
0 0.658198 0.210224
0 0.683482 0.244907
0 0.362829 0.102373
0 0.340398 0.102388
0 0.350744 0.118364
0.0039826 0.368795 0.138827
0.00929274 0.389731 0.15903
0.0139162 0.411841 0.179217
0.0192264 0.436164 0.200153
0.0238041 0.457816 0.219455
0.0283818 0.477241 0.237537
0 0.325551 0
0 0.344717 0
0 0.363653 0
0 0.382239 0
0 0.400656 0
0 0.419272 0
0 0.439246 0
0 0.458534 0
0 0.476646 0
0 0.494438 0
0 0.510094 0
0 0.525093 0
0 0.539574 0
0 0.553155 0
0 0.438499 0.0192721
0 0.473106 0.0393835
0 0.50779 0.0712444
0 0.543252 0.10338
0 0.577127 0.138048
0 0.606928 0.171176
0 0.635431 0.205295
0 0.662654 0.240208
0 0.686778 0.274769
0 0.709438 0.310155
0 0.378866 0.140856
0 0.355032 0.138643
0 0.363775 0.154253
0.00451667 0.380194 0.173739
0.00968948 0.39942 0.193408
0.0142519 0.420798 0.213275
0.0195163 0.444389 0.234028
0.0241398 0.466178 0.253239
0.0286259 0.484306 0.269825
0 0.321904 0
0 0.341192 0
0 0.360159 0
0 0.378698 0
0 0.397269 0
0 0.415473 0
0 0.435508 0
0 0.455039 0
0 0.473365 0
0 0.491127 0
0 0.507225 0
0 0.522316 0
0 0.415045 0.0158236
0 0.44593 0.0381476
0 0.478798 0.0673533
0 0.515053 0.0991531
0 0.549096 0.133272
0 0.58056 0.166384
0 0.610498 0.200198
0 0.638132 0.235004
0 0.663996 0.269932
0 0.688334 0.305425
0 0.710735 0.340169
0 0.730556 0.373297
0 0.391623 0.178836
0 0.365728 0.173327
0 0.373541 0.188174
0.00482185 0.388281 0.207141
0.00996414 0.407187 0.226688
0.0144656 0.427756 0.246143
0.0196536 0.450385 0.265599
0.0243381 0.472435 0.284504
0.028748 0.489708 0.299458
0 0.318257 0
0 0.337575 0
0 0.356573 0
0 0.375265 0
0 0.393805 0
0 0.411841 0
0 0.431785 0
0 0.451545 0
0 0.469963 0
0 0.487816 0
0 0.389334 0.0120394
0 0.415244 0.0365759
0 0.447578 0.0629435
0 0.484306 0.0951705
0 0.518975 0.128649
0 0.551308 0.161303
0 0.582132 0.195071
0 0.611566 0.229908
0 0.639246 0.26508
0 0.664179 0.300435
0 0.687816 0.335546
0 0.709926 0.369329
0 0.728725 0.400763
0 0.745754 0.431113
0 0.400763 0.214588
0 0.374426 0.20679
0 0.380941 0.220691
0.00508125 0.395483 0.239857
0.0101167 0.413031 0.257862
0.0146487 0.433967 0.277134
0.0197452 0.455467 0.295003
0.0243076 0.47602 0.311803
0.0287785 0.49369 0.326574
0 0.314565 0
0 0.334066 0
0 0.353094 0
0 0.371832 0
0 0.390341 0
0 0.40853 0
0 0.428077 0
0 0.447791 0
0 0.359991 0.00627146
0 0.380972 0.0346532
0 0.413443 0.0601358
0 0.450187 0.0909133
0 0.48632 0.124254
0 0.519234 0.156481
0 0.551202 0.189929
0 0.582422 0.224765
0 0.610315 0.259632
0 0.63711 0.295079
0 0.662547 0.330541
0 0.685878 0.364691
0 0.705928 0.396674
0 0.724346 0.427176
0 0.741726 0.456321
0 0.757198 0.484184
0 0.408209 0.24889
0 0.379995 0.238788
0 0.386633 0.251728
0.00518807 0.400473 0.26981
0.0101778 0.417472 0.286717
0.0146487 0.437491 0.304311
0.0198825 0.460441 0.322713
0.0242618 0.479118 0.337438
0.0286717 0.496132 0.350927
0 0.310887 0
0 0.330465 0
0 0.349447 0
0 0.368399 0
0 0.386877 0
0 0.405142 0
0 0.328923 0
0 0.341543 0.0321813
0 0.37525 0.0587472
0 0.411963 0.0871138
0 0.449287 0.119524
0 0.482582 0.150729
0 0.516732 0.184344
0 0.548516 0.218387
0 0.577981 0.253346
0 0.606897 0.289296
0 0.634073 0.325414
0 0.658152 0.359457
0 0.68098 0.392416
0 0.700694 0.423224
0 0.718639 0.452613
0 0.73611 0.481285
0 0.753292 0.508995
0 0.768032 0.535027
0 0.414878 0.281849
0 0.386313 0.269505
0 0.390997 0.280522
0.00517281 0.403815 0.296407
0.0102083 0.421103 0.313375
0.0146029 0.440314 0.329595
0.0197299 0.462013 0.346502
0.0242313 0.481941 0.36173
0.0285649 0.498131 0.373907
0 0.307225 0
0 0.326802 0
0 0.345907 0
0 0.364889 0
0 0.325765 0
0 0.300572 0.0306401
0 0.333425 0.0578317
0 0.368673 0.0837568
0 0.404242 0.111818
0 0.440528 0.144503
0 0.476005 0.176776
0 0.509651 0.211032
0 0.541543 0.246159
0 0.571603 0.281941
0 0.600397 0.318196
0 0.627283 0.353704
0 0.652125 0.387625
0 0.674235 0.419226
0 0.693812 0.448905
0 0.712215 0.477653
0 0.729915 0.505684
0 0.747234 0.532998
0 0.7626 0.557931
0 0.775845 0.581003
0 0.420157 0.31252
0 0.389975 0.296849
0 0.394217 0.306447
0.00512703 0.40618 0.321096
0.0101015 0.422858 0.336782
0.0145724 0.442863 0.353368
0.0196078 0.463432 0.369009
0.0241245 0.483558 0.383795
0.0284428 0.499748 0.395651
0 0.303487 0
0 0.32314 0
0 0.342367 0
0 0.264195 0.0324407
0 0.290929 0.0560159
0 0.322896 0.0807965
0 0.355947 0.106523
0 0.392523 0.13785
0 0.429191 0.16936
0 0.464546 0.20264
0 0.499855 0.23798
0 0.531701 0.273747
0 0.562493 0.310231
0 0.590967 0.345708
0 0.617426 0.380438
0 0.643671 0.414069
0 0.66656 0.445304
0 0.685481 0.473899
0 0.704326 0.502052
0 0.723445 0.530129
0 0.739895 0.555779
0 0.754849 0.579492
0 0.768795 0.601923
0 0.781598 0.622675
0 0.42327 0.33991
0 0.39234 0.321706
0 0.395285 0.329488
0.00505074 0.407996 0.344518
0.0099794 0.424079 0.358755
0.0144045 0.443442 0.374228
0.019501 0.464897 0.390433
0.0239872 0.484657 0.404501
0.0282444 0.500237 0.414969
0 0.299702 0
0 0.228763 0.0317388
0 0.250996 0.0555581
0 0.278645 0.0784772
0 0.308156 0.102068
0 0.341588 0.130999
0 0.376364 0.1608
0 0.413184 0.193408
0 0.450034 0.228092
0 0.484749 0.264073
0 0.519173 0.301305
0 0.550515 0.337652
0 0.578805 0.372488
0 0.607263 0.406546
0 0.632502 0.438987
0 0.654902 0.469184
0 0.676066 0.498054
0 0.694911 0.525643
0 0.713649 0.552544
0 0.73164 0.577752
0 0.746792 0.600961
0 0.759625 0.621088
0 0.77319 0.641566
0 0.785199 0.659876
0 0.424369 0.363439
0 0.393866 0.344167
0 0.396231 0.351263
0.00491341 0.408957 0.365316
0.00982681 0.424796 0.379324
0.0142367 0.443763 0.394049
0.0193332 0.465141 0.409476
0.0237736 0.484657 0.422797
0.0280308 0.500374 0.43328
0 0.211185 0.0548104
0 0.236149 0.0770886
0 0.262974 0.0987259
0 0.293141 0.125811
0 0.324254 0.153063
0 0.358557 0.183551
0 0.394446 0.217121
0 0.430365 0.252445
0 0.466468 0.289448
0 0.500938 0.326436
0 0.534279 0.36321
0 0.564935 0.397803
0 0.592645 0.430869
0 0.618616 0.462379
0 0.642084 0.492653
0 0.663859 0.521324
0 0.683604 0.547906
0 0.701656 0.573434
0 0.719753 0.59823
0 0.735607 0.619471
0 0.748959 0.639094
0 0.762295 0.658366
0 0.774258 0.67512
0 0.785 0.690471
0 0.425101 0.385458
0 0.394476 0.364706
0 0.39762 0.371878
0.00479133 0.409705 0.385153
0.00967422 0.425162 0.398123
0.0140688 0.443946 0.412406
0.0191348 0.464942 0.427344
0.0235447 0.484443 0.44007
0.0278019 0.500313 0.44979
0 0.218265 0.0961776
0 0.246143 0.121782
0 0.275303 0.147555
0 0.305608 0.175006
0 0.337957 0.205509
0 0.372671 0.239979
0 0.407721 0.275822
0 0.442817 0.312337
0 0.478828 0.349477
0 0.51281 0.385214
0 0.54519 0.420081
0 0.574823 0.452735
0 0.600885 0.483726
0 0.627741 0.515435
0 0.65156 0.544869
0 0.670161 0.569421
0 0.688457 0.593988
0 0.706828 0.616938
0 0.723247 0.637797
0 0.737331 0.65655
0 0.750774 0.674159
0 0.76318 0.690745
0 0.774777 0.706081
0 0.787549 0.72192
0 0.426978 0.407477
0 0.395026 0.384451
0 0.397543 0.390326
0.00462348 0.409766 0.403037
0.00953689 0.425391 0.415869
0.013901 0.443885 0.429648
0.0189517 0.46482 0.4439
0.0233158 0.483833 0.455909
0.0276188 0.500221 0.46569
0 0.22681 0.14316
0 0.255238 0.168887
0 0.286473 0.198444
0 0.31574 0.22829
0 0.349111 0.26247
0 0.383642 0.298436
0 0.417105 0.333639
0 0.451774 0.369116
0 0.487388 0.405035
0 0.520104 0.438682
0 0.55079 0.471351
0 0.581048 0.503212
0 0.60798 0.534371
0 0.633982 0.563836
0 0.655955 0.589914
0 0.674556 0.612787
0 0.694118 0.635676
0 0.712215 0.657206
0 0.725582 0.673869
0 0.739345 0.690715
0 0.752529 0.707057
0 0.764569 0.722057
0 0.77731 0.737362
0 0.790845 0.753109
0 0.427466 0.427405
0 0.39498 0.402701
0 0.396689 0.407324
0.00445563 0.409583 0.420111
0.00935378 0.425116 0.431937
0.0136873 0.443153 0.444724
0.0187839 0.464561 0.459663
0.0230869 0.483162 0.470954
0.0273594 0.499367 0.479637
0 0.232136 0.189654
0 0.262715 0.220233
0 0.292454 0.251301
0 0.323339 0.283726
0 0.35671 0.318837
0 0.389532 0.353216
0 0.423423 0.38735
0 0.457023 0.421256
0 0.490578 0.454719
0 0.523827 0.487846
0 0.554543 0.519432
0 0.585855 0.551125
0 0.613123 0.580667
0 0.636988 0.606546
0 0.658335 0.62948
0 0.677913 0.651713
0 0.696544 0.672328
0 0.712703 0.690364
0 0.726528 0.7066
0 0.739849 0.722042
0 0.752697 0.736919
0 0.76556 0.751797
0 0.77789 0.765316
0 0.788632 0.777234
0 0.426261 0.444816
0 0.394659 0.419944
0 0.396048 0.423163
0.00428778 0.409186 0.435843
0.00918593 0.424582 0.447028
0.013489 0.442344 0.459174
0.0185702 0.463584 0.473503
0.0228428 0.482078 0.484245
0.0270848 0.498268 0.492683
0 0.23624 0.240284
0 0.26569 0.272038
0 0.294118 0.302541
0 0.327596 0.336858
0 0.360586 0.370672
0 0.390478 0.401053
0 0.423362 0.434028
0 0.458015 0.46804
0 0.492027 0.501091
0 0.526223 0.533745
0 0.558206 0.565332
0 0.589471 0.595544
0 0.614359 0.620188
0 0.637064 0.643305
0 0.659327 0.665721
0 0.678203 0.685954
0 0.696193 0.704677
0 0.712535 0.721477
0 0.726192 0.736614
0 0.739498 0.751202
0 0.752895 0.765026
0 0.765667 0.77818
0 0.776837 0.78999
0 0.786648 0.800519
0 0.425681 0.461433
0 0.393927 0.434836
0 0.395544 0.438209
0.00411994 0.408621 0.450919
0.00900282 0.423835 0.461112
0.0133059 0.441535 0.472709
0.0183413 0.462257 0.486183
0.0226139 0.480949 0.497108
0.0268254 0.497063 0.505104
0 0.236027 0.289448
0 0.264424 0.319738
0 0.297047 0.353216
0 0.329473 0.385931
0 0.359442 0.415564
0 0.389761 0.446204
0 0.424079 0.479667
0 0.458305 0.512306
0 0.492973 0.544762
0 0.527306 0.576501
0 0.557824 0.604212
0 0.587533 0.631281
0 0.614389 0.656199
0 0.637629 0.678706
0 0.659632 0.700191
0 0.677729 0.717693
0 0.695018 0.734401
0 0.712047 0.751049
0 0.725811 0.764889
0 0.739712 0.77821
0 0.753826 0.791669
0 0.765881 0.803555
0 0.775723 0.812802
0 0.786068 0.822507
0 0.425635 0.477501
0 0.393286 0.449454
0 0.394888 0.452186
0.00384527 0.406699 0.462882
0.00881971 0.423041 0.474464
0.013138 0.440742 0.485863
0.0181277 0.460945 0.498375
0.0223697 0.479606 0.508919
0.026566 0.495583 0.516686
0 0.234058 0.33669
0 0.265141 0.368109
0 0.297078 0.399741
0 0.327749 0.42977
0 0.358755 0.460365
0 0.390845 0.491325
0 0.42472 0.522774
0 0.458549 0.554192
0 0.490669 0.582391
0 0.523781 0.611124
0 0.556023 0.63917
0 0.587152 0.666255
0 0.615534 0.691539
0 0.637125 0.711299
0 0.657755 0.729564
0 0.67628 0.746426
0 0.693751 0.762463
0 0.710674 0.777325
0 0.725399 0.790646
0 0.739757 0.803815
0 0.75285 0.815
0 0.76379 0.824338
0 0.774243 0.833616
0 0.785183 0.843473
0 0.425193 0.492363
0 0.391882 0.461936
0 0.394202 0.465248
0.00361639 0.40502 0.474769
0.00868238 0.422309 0.487373
0.0129397 0.439445 0.497719
0.0172427 0.459464 0.509621
0.0221408 0.478172 0.520226
0.0263066 0.494133 0.527962
0 0.23241 0.381384
0 0.264759 0.413184
0 0.29601 0.444129
0 0.327169 0.47422
0 0.358862 0.503609
0 0.392081 0.534096
0 0.423758 0.561517
0 0.454551 0.588266
0 0.487526 0.616571
0 0.523171 0.646159
0 0.556329 0.673945
0 0.585962 0.698863
0 0.613352 0.721248
0 0.634455 0.7393
0 0.655329 0.756893
0 0.674754 0.773205
0 0.692149 0.78793
0 0.709163 0.802121
0 0.72401 0.814328
0 0.737224 0.824994
0 0.749752 0.83473
0 0.761334 0.843885
0 0.772457 0.853178
0 0.783291 0.86186
0 0.423972 0.505516
0 0.390631 0.474159
0 0.393606 0.478019
0.00347906 0.403983 0.486686
0.00851453 0.421103 0.498909
0.0127565 0.438117 0.509026
0.0170596 0.458137 0.520653
0.0219272 0.476814 0.531228
0.0260624 0.492638 0.538567
0 0.232227 0.424445
0 0.264607 0.456809
0 0.295232 0.486213
0 0.327367 0.515969
0 0.358251 0.543328
0 0.3897 0.569863
0 0.421347 0.595926
0 0.454704 0.624277
0 0.489906 0.653346
0 0.523308 0.680247
0 0.55378 0.704051
0 0.582116 0.726619
0 0.609842 0.748486
0 0.631769 0.765637
0 0.653056 0.782574
0 0.67335 0.798871
0 0.690349 0.812055
0 0.706569 0.824186
0 0.721553 0.835523
0 0.734493 0.845136
0 0.747158 0.854154
0 0.759274 0.862852
0 0.770443 0.870802
0 0.781109 0.870176
0 0.422827 0.518471
0 0.389654 0.486259
0 0.392645 0.489677
0.00340276 0.403311 0.498512
0.00840772 0.420035 0.510323
0.0126345 0.437003 0.520272
0.016907 0.456947 0.531472
0.0217441 0.475639 0.541924
0.0258335 0.491218 0.548867
0 0.228717 0.459373
0 0.26096 0.493187
0 0.294087 0.5243
0 0.327413 0.553567
0 0.35729 0.579705
0 0.388617 0.60502
0 0.421729 0.631983
0 0.455924 0.659937
0 0.487404 0.68426
0 0.518563 0.707912
0 0.550698 0.732219
0 0.578515 0.752895
0 0.606027 0.773205
0 0.629358 0.790829
0 0.650736 0.806973
0 0.67097 0.821653
0 0.687633 0.833509
0 0.703975 0.845319
0 0.719463 0.856245
0 0.732677 0.865003
0 0.745251 0.872343
0 0.757153 0.87158
0 0.768078 0.870939
0 0.778332 0.870344
0 0.421103 0.530007
0 0.388922 0.498283
0 0.391913 0.50132
0.00337224 0.402838 0.510246
0.00831617 0.419089 0.521355
0.0125429 0.436118 0.53106
0.0168002 0.455894 0.542062
0.021622 0.474662 0.55259
0.0256504 0.489982 0.55906
0 0.220447 0.482185
0 0.257435 0.523003
0 0.292699 0.557702
0 0.325536 0.586542
0 0.355276 0.611643
0 0.387976 0.63856
0 0.420325 0.663935
0 0.451789 0.687999
0 0.482094 0.711116
0 0.515312 0.735195
0 0.547341 0.757992
0 0.575387 0.778012
0 0.602609 0.797223
0 0.626566 0.813504
0 0.647654 0.82829
0 0.668391 0.843
0 0.685161 0.854307
0 0.701732 0.865095
0 0.718395 0.87454
0 0.730938 0.873411
0 0.743099 0.87248
0 0.754726 0.871717
0 0.765469 0.871092
0 0.775387 0.870512
0 0.419638 0.541512
0 0.388296 0.510109
0 0.391272 0.512734
0.00335698 0.40235 0.521584
0.00827039 0.418158 0.531991
0.0124971 0.435355 0.541711
0.0167239 0.454978 0.552544
0.0215457 0.47393 0.563195
0.0255131 0.488899 0.568994
0.0011902 0.209674 0.496605
0 0.251606 0.545251
0 0.289479 0.584588
0 0.320348 0.613062
0 0.354223 0.64242
0 0.386923 0.669184
0 0.418036 0.692668
0 0.449638 0.716213
0 0.482246 0.73994
