filmlog/Shaders/LutFujiWarm.cube
TITLE "Generated by Resolve"
LUT_3D_SIZE 33
0 0.343587 0
0 0.360678 0
0 0.379629 0
0 0.399023 0
0 0.418387 0
0 0.4374 0
0 0.455192 0
0 0.47216 0
0 0.488228 0
0 0.502693 0
0 0.516899 0
0 0.530053 0
0 0.542901 0
0 0.555367 0
0 0.566812 0
0 0.578119 0
0 0.589044 0
0 0.598962 0
0 0.608377 0
0 0.617517 0
0 0.626352 0
0 0.633906 0
0 0.641352 0
0 0.648539 0
0 0.333532 0
0.00314336 0.30341 0
0.0106813 0.302647 0
0.0162051 0.31014 0
0.0221408 0.322316 0
0.00233463 0.244129 0
0.00863661 0.276814 0
0.0151675 0.298512 0
0.0337224 0.334142 0
0 0.340337 0
0 0.357549 0
0 0.375921 0
0 0.395392 0
0 0.414694 0
0 0.433783 0
0 0.451957 0
0 0.469017 0
0 0.48539 0
0 0.500053 0
0 0.514244 0
0 0.527626 0
0 0.540475 0
0 0.553048 0
0 0.564706 0
0 0.576013 0
0 0.587045 0
0 0.597162 0
0 0.606577 0
0 0.615808 0
0 0.624842 0
0 0.632517 0
0 0.639963 0
0 0.647242 0
0 0.332662 0
0.00318914 0.302586 0
0.0107424 0.301839 0
0 0.216815 0
0 0.245914 0
0.00386053 0.264164 0
0.00907912 0.288884 0
0.0139162 0.317128 0.00523384
0.0267796 0.353689 0.0202945
0 0.337011 0
0 0.35436 0
0 0.372229 0
0 0.391745 0
0 0.411139 0
0 0.430289 0
0 0.448615 0
0 0.465888 0
0 0.482658 0
0 0.497307 0
0 0.511604 0
0 0.525216 0
0 0.538155 0
0 0.550713 0
0 0.562615 0
0 0.573922 0
0 0.584939 0
0 0.595376 0
0 0.604883 0
0 0.614115 0
0 0.623148 0
0 0.631067 0
0 0.63859 0
0 0.645869 0
0 0.331762 0
0 0.211521 0
0 0.224918 0
0 0.237339 0
0.000396735 0.262272 0
0.00581369 0.290867 0.00683604
0.0108644 0.317891 0.0181888
0.0155032 0.34374 0.0293278
0.023743 0.371405 0.0434882
0 0.33373 0
0 0.351156 0
0 0.368444 0
0 0.388128 0
0 0.407462 0
0 0.426688 0
0 0.445396 0
0 0.462638 0
0 0.479561 0
0 0.494575 0
0 0.508965 0
0 0.522789 0
0 0.535729 0
0 0.548394 0
0 0.560418 0
0 0.571817 0
0 0.582925 0
0 0.593576 0
0 0.603082 0
0 0.612406 0
0 0.621454 0
0 0.629679 0
0 0.63714 0
0 0.51104 0.00585946
0 0.24564 0
0 0.227314 0
0 0.244022 0
0 0.266636 0.00691234
0.00231937 0.29015 0.0171817
0.00737011 0.315084 0.0288548
0.0122377 0.340825 0.0417945
0.0166781 0.364721 0.0558022
0.0214694 0.385962 0.070573
0 0.330388 0
0 0.34789 0
0 0.364858 0
0 0.384512 0
0 0.4038 0
0 0.423209 0
0 0.442054 0
0 0.45951 0
0 0.476402 0
0 0.491844 0
0 0.506325 0
0 0.520287 0
0 0.533318 0
0 0.545968 0
0 0.558312 0
0 0.569711 0
0 0.580835 0
0 0.591745 0
0 0.601297 0
0 0.610697 0
0 0.61976 0
0 0.500725 0.000640879
0 0.516609 0.0264897
0 0.536294 0.0438544
0 0.26952 0.00387579
0 0.256947 0.00889601
0 0.269062 0.0166476
0 0.28925 0.0278935
0.00367742 0.311559 0.0403449
0.00857557 0.335378 0.0546273
0.0132601 0.359396 0.0700694
0.0182498 0.382101 0.0861982
0.0223697 0.402304 0.102159
0 0.326955 0
0 0.344701 0
0 0.36173 0
0 0.380789 0
0 0.400214 0
0 0.419623 0
0 0.438544 0
0 0.456275 0
0 0.473259 0
0 0.489097 0
0 0.503578 0
0 0.517784 0
0 0.530892 0
0 0.543648 0
0 0.556115 0
0 0.56762 0
0 0.57882 0
0 0.589746 0
0 0.599588 0
0 0.490166 0
0 0.497505 0.0249638
0 0.518959 0.0407416
0 0.550286 0.0718547
0 0.581888 0.104448
0 0.295171 0.0271611
0 0.278584 0.0295262
0 0.289403 0.0387427
0 0.308431 0.0526894
0.00471504 0.329412 0.0678416
0.00947585 0.351965 0.0842451
0.0140688 0.375036 0.101167
0.0189517 0.396399 0.117769
0.0230106 0.41503 0.133303
0 0.323552 0
0 0.341451 0
0 0.358602 0
0 0.377188 0
0 0.396567 0
0 0.41593 0
0 0.435035 0
0 0.45304 0
0 0.470115 0
0 0.486366 0
0 0.500938 0
0 0.515129 0
0 0.528481 0
0 0.541329 0
0 0.553796 0
0 0.565423 0
0 0.57673 0
0 0.498283 0
0 0.474922 0.0230564
0 0.499687 0.0391852
0 0.528634 0.0660258
0 0.561028 0.0982223
0 0.589853 0.129656
0 0.615702 0.159396
0 0.316747 0.0533303
0 0.297749 0.0545052
0 0.306645 0.0653391
0.000213626 0.324453 0.0814832
0.00549325 0.344015 0.0979324
0.010132 0.365316 0.114946
0.0146181 0.387152 0.132036
0.0194247 0.407416 0.148196
0.0234379 0.425055 0.163165
0 0.32015 0
0 0.338125 0
0 0.355398 0
0 0.373388 0
0 0.393042 0
0 0.41236 0
0 0.43154 0
0 0.449699 0
0 0.466972 0
0 0.483543 0
0 0.498192 0
0 0.512489 0
0 0.526055 0
0 0.538903 0
0 0.551461 0
0 0.563317 0
0 0.449485 0.0207523
0 0.479438 0.0385443
0 0.504967 0.0601205
0 0.538994 0.0947585
0 0.569055 0.125963
0 0.596536 0.155779
0 0.621851 0.18616
0 0.644907 0.216495
0 0.334432 0.0836194
0 0.313802 0.0834211
0 0.321294 0.09514
0.000915541 0.337591 0.111864
0.00607309 0.35584 0.128267
0.0105745 0.37557 0.144762
0.0150149 0.396994 0.161807
0.0197604 0.416327 0.177646
0.023743 0.433005 0.192111
0 0.31667 0
0 0.334859 0
0 0.352209 0
0 0.369711 0
0 0.38941 0
0 0.408682 0
0 0.427939 0
0 0.446479 0
0 0.463722 0
0 0.480644 0
0 0.495552 0
0 0.50985 0
0 0.523644 0
0 0.536583 0
0 0.423392 0.0181888
0 0.456123 0.0376287
0 0.479042 0.0551766
0 0.515206 0.091249
0 0.546166 0.12221
0 0.574105 0.151995
0 0.600778 0.182391
0 0.626184 0.213306
0 0.648249 0.243717
0 0.668299 0.273838
0 0.349126 0.116396
0 0.326284 0.11342
0 0.332967 0.125139
0.00138857 0.347738 0.141466
0.00645457 0.364981 0.157488
0.0108644 0.383734 0.173617
0.0152132 0.404074 0.190143
0.0199741 0.423285 0.205859
0.0239261 0.439338 0.219455
0 0.313207 0
0 0.331502 0
0 0.349004 0
0 0.365927 0
0 0.385794 0
0 0.40502 0
0 0.424338 0
0 0.443153 0
0 0.460594 0
0 0.477501 0
0 0.492821 0
0 0.50721 0
0 0.401175 0.0148165
0 0.430076 0.0364843
0 0.451423 0.0509041
0 0.48893 0.0877852
0 0.520348 0.118578
0 0.54934 0.148058
0 0.577783 0.178607
0 0.60325 0.209155
0 0.627024 0.24004
0 0.649317 0.270787
0 0.669215 0.300679
0 0.687327 0.329961
0 0.361257 0.149264
0 0.336812 0.143221
0 0.34226 0.154192
0.00166323 0.35523 0.16965
0.00666819 0.371862 0.185626
0.0110475 0.390082 0.201511
0.0153811 0.410239 0.217533
0.0201114 0.42887 0.232425
0.0239872 0.444114 0.244587
0 0.309743 0
0 0.328084 0
0 0.345739 0
0 0.362783 0
0 0.382071 0
0 0.401404 0
0 0.420752 0
0 0.439796 0
0 0.457359 0
0 0.474342 0
0 0.376822 0.0110933
0 0.400931 0.03505
0 0.424338 0.0502937
0 0.460029 0.0844129
0 0.492409 0.115007
0 0.522179 0.144152
0 0.5505 0.174105
0 0.577951 0.204898
0 0.60354 0.236042
0 0.626612 0.266972
0 0.64802 0.297353
0 0.667323 0.326513
0 0.685802 0.354559
0 0.702815 0.381613
0 0.369772 0.179904
0 0.343664 0.171023
0 0.349111 0.18204
0.00192264 0.362081 0.197833
0.00679026 0.377188 0.212253
0.0111543 0.395132 0.227665
0.0154574 0.414908 0.242832
0.0201419 0.432914 0.256413
0.0239872 0.447654 0.267674
0 0.306233 0
0 0.324742 0
0 0.342565 0
0 0.359655 0
0 0.378363 0
0 0.397864 0
0 0.417166 0
0 0.436164 0
0 0.349081 0.00541695
0 0.368368 0.0332799
0 0.393912 0.0502022
0 0.428092 0.080827
0 0.461936 0.111589
0 0.492363 0.140551
0 0.521279 0.169757
0 0.549828 0.200443
0 0.575982 0.231342
0 0.600961 0.262638
0 0.624552 0.293675
0 0.645182 0.323262
0 0.664332 0.351553
0 0.682902 0.378973
0 0.699123 0.404486
0 0.713344 0.428656
0 0.376776 0.209659
0 0.349981 0.198978
0 0.354574 0.208835
0.0019379 0.365988 0.223102
0.00683604 0.381216 0.236973
0.0111391 0.398535 0.250858
0.0154269 0.418006 0.265721
0.0200809 0.435615 0.278386
0.0238956 0.450034 0.288838
0 0.302724 0
0 0.321324 0
0 0.339239 0
0 0.356527 0
0 0.37467 0
0 0.394217 0
0 0.319402 0
0 0.331014 0.0310063
0 0.357992 0.049424
0 0.392111 0.0770581
0 0.427359 0.107942
0 0.458228 0.136049
0 0.489342 0.165408
0 0.518975 0.195987
0 0.546212 0.226734
0 0.572564 0.258
0 0.597604 0.289586
0 0.619379 0.319203
0 0.640772 0.348302
0 0.660746 0.376211
0 0.677562 0.401907
0 0.693721 0.426917
0 0.709789 0.451179
0 0.723598 0.47396
0 0.382864 0.238209
0 0.355306 0.225254
0 0.358923 0.233921
0.00196841 0.369574 0.246494
0.00680552 0.384054 0.259495
0.0110933 0.401083 0.272602
0.0153506 0.420081 0.286442
0.0199435 0.437217 0.298512
0.0237583 0.451682 0.308598
0 0.299229 0
0 0.317861 0
0 0.335973 0
0 0.353323 0
0 0.314382 0
0 0.291264 0.0284428
0 0.318471 0.0493324
0 0.351934 0.0752728
0 0.385153 0.101396
0 0.418936 0.131044
0 0.452079 0.160067
0 0.482643 0.190066
0 0.512673 0.221485
0 0.540948 0.253178
0 0.566903 0.284688
0 0.591119 0.315068
0 0.613214 0.344106
0 0.634501 0.372229
0 0.654017 0.399161
0 0.671229 0.424292
0 0.687678 0.448768
0 0.703868 0.472648
0 0.718166 0.494438
0 0.730312 0.514473
0 0.387274 0.264485
0 0.358251 0.248157
0 0.361349 0.25594
0.00196841 0.372412 0.268284
0.00674449 0.386343 0.280324
0.0110018 0.402945 0.29308
0.0152285 0.421561 0.306035
0.0198215 0.43856 0.31751
0.0236057 0.452735 0.327092
0 0.295674 0
0 0.314382 0
0 0.332616 0
0 0.254322 0.0278477
0 0.279194 0.0496376
0 0.309331 0.0737011
0 0.340185 0.0975662
0 0.374273 0.125856
0 0.408072 0.153857
0 0.440742 0.183459
0 0.472847 0.214328
0 0.502785 0.246174
0 0.53164 0.278599
0 0.559716 0.310719
0 0.583459 0.340322
0 0.605509 0.368093
0 0.627115 0.395651
0 0.646342 0.422095
0 0.663798 0.44651
0 0.681331 0.470634
0 0.696849 0.493263
0 0.710826 0.514076
0 0.723583 0.533364
0 0.735378 0.551049
0 0.389944 0.287709
0 0.36025 0.269368
0 0.362676 0.276219
0.00187686 0.374136 0.288319
0.00665293 0.387884 0.299825
0.0108949 0.404227 0.311833
0.0151064 0.422553 0.324544
0.0196841 0.43946 0.33547
0.0234379 0.453407 0.344137
0 0.292058 0
0 0.221424 0.0287633
0 0.24184 0.0504463
0 0.267872 0.0724804
0 0.295689 0.0944839
0 0.326879 0.120668
0 0.358709 0.147082
0 0.392676 0.175906
0 0.426993 0.206851
0 0.458625 0.238163
0 0.489891 0.270436
0 0.519921 0.302861
0 0.548531 0.334874
0 0.573999 0.364431
0 0.595544 0.391333
0 0.617136 0.41828
0 0.637888 0.444663
0 0.654795 0.46804
0 0.672206 0.491188
0 0.689326 0.513619
0 0.703517 0.534035
0 0.71519 0.551095
0 0.727626 0.568414
0 0.73901 0.584466
0 0.39144 0.309209
0 0.361791 0.289708
0 0.363684 0.295354
0.00172427 0.374731 0.3066
0.00650034 0.388464 0.317754
0.0107729 0.405097 0.329564
0.0149233 0.422812 0.341176
0.0194705 0.439384 0.351598
0.02327 0.453895 0.360464
0 0.204562 0.0512551
0 0.227893 0.0720531
0 0.253269 0.0924392
0 0.281102 0.11667
0 0.310475 0.141314
0 0.341894 0.16817
0 0.375158 0.197757
0 0.408209 0.228962
0 0.441535 0.261418
0 0.472908 0.2934
0 0.504555 0.325826
0 0.534142 0.357061
0 0.559411 0.385916
0 0.582483 0.41236
0 0.604425 0.438865
0 0.625147 0.464591
0 0.643992 0.488197
0 0.661479 0.510231
0 0.678706 0.532174
0 0.693156 0.551141
0 0.705303 0.567926
0 0.717968 0.584649
0 0.729931 0.600092
0 0.740215 0.61416
0 0.392599 0.329534
0 0.362753 0.308141
0 0.364599 0.313146
0.00155642 0.375082 0.324041
0.00633249 0.388663 0.334295
0.0105592 0.404822 0.345281
0.0147555 0.422797 0.356893
0.0192874 0.439292 0.366903
0.0230564 0.45359 0.374838
0 0.211261 0.0910658
0 0.237232 0.114183
0 0.264469 0.137255
0 0.293034 0.162005
0 0.32285 0.188952
0 0.355077 0.219287
0 0.38761 0.250874
0 0.420172 0.282902
0 0.451911 0.314183
0 0.483391 0.345388
0 0.5149 0.377035
0 0.543404 0.406226
0 0.56669 0.432364
0 0.590478 0.459098
0 0.612604 0.484962
0 0.631418 0.507256
0 0.649683 0.528542
0 0.666606 0.549035
0 0.681483 0.567712
0 0.694682 0.58439
0 0.708751 0.6009
0 0.721172 0.616159
0 0.731762 0.629602
0 0.741939 0.641993
0 0.394034 0.348577
0 0.363409 0.325551
0 0.364813 0.329473
0.00135805 0.374777 0.339345
0.00616464 0.388708 0.349966
0.0103761 0.404532 0.360311
0.0145571 0.422324 0.371237
0.0191043 0.439094 0.381048
0.0228428 0.453208 0.388617
0 0.218769 0.134066
0 0.245548 0.157336
0 0.27393 0.183093
0 0.302815 0.210559
0 0.333303 0.24036
0 0.364675 0.271443
0 0.396475 0.302739
0 0.427161 0.332662
0 0.459098 0.363226
0 0.492241 0.394812
0 0.522179 0.424384
0 0.549233 0.451423
0 0.573083 0.477607
0 0.597055 0.503151
0 0.618372 0.526482
0 0.63621 0.54638
0 0.654337 0.566445
0 0.670909 0.585641
0 0.684062 0.600626
0 0.698848 0.616876
0 0.712963 0.632654
0 0.722637 0.644358
0 0.732845 0.65626
0 0.743603 0.668452
0 0.394339 0.366003
0 0.363012 0.341161
0 0.364614 0.344747
0.00117494 0.374502 0.354116
0.0059968 0.388449 0.364126
0.0102083 0.404242 0.374304
0.0143435 0.421653 0.384863
0.0189364 0.438804 0.394537
0.0226139 0.452399 0.400992
0 0.224247 0.177234
0 0.252079 0.203906
0 0.281254 0.232273
0 0.309651 0.26067
0 0.340398 0.290944
0 0.371267 0.321218
0 0.400992 0.349813
0 0.432654 0.379782
0 0.466712 0.41149
0 0.497658 0.440497
0 0.525124 0.467216
0 0.553567 0.494255
0 0.578668 0.519783
0 0.600931 0.542473
0 0.620447 0.562127
0 0.638636 0.581506
0 0.656016 0.599359
0 0.671061 0.615
0 0.685679 0.630549
0 0.699809 0.64535
0 0.712245 0.658335
0 0.722576 0.669841
0 0.732891 0.680995
0 0.742641 0.691386
0 0.393606 0.381842
0 0.362554 0.356191
0 0.363958 0.358892
0.00102235 0.374441 0.368048
0.00582895 0.388128 0.377539
0.0100404 0.403845 0.387701
0.0141451 0.420752 0.397269
0.0187533 0.438148 0.406622
0.0223697 0.451438 0.41265
0 0.226947 0.222827
0 0.256382 0.252003
0 0.284215 0.279454
0 0.314046 0.308507
0 0.344671 0.338094
0 0.373144 0.365408
0 0.404288 0.394446
0 0.436408 0.424353
0 0.468055 0.453208
0 0.498848 0.480873
0 0.527825 0.507576
0 0.557061 0.534127
0 0.580468 0.555886
0 0.601129 0.575631
0 0.621576 0.59472
0 0.639368 0.612284
0 0.655543 0.628016
0 0.671183 0.64332
0 0.685771 0.658061
0 0.699123 0.671168
0 0.711421 0.682857
0 0.722057 0.693721
0 0.732082 0.703929
0 0.741558 0.713405
0 0.392737 0.396475
0 0.361913 0.369802
0 0.36321 0.372351
0.000885023 0.374166 0.381445
0.00564584 0.387427 0.389868
0.00982681 0.40293 0.399481
0.0139315 0.419684 0.408804
0.0185702 0.437415 0.418326
0.0221408 0.450385 0.423758
0 0.228672 0.268513
0 0.256153 0.29572
0 0.285679 0.324102
0 0.315785 0.352697
0 0.344839 0.379934
0 0.374319 0.407324
0 0.405966 0.436515
0 0.436896 0.464027
0 0.46804 0.491218
0 0.499016 0.51809
0 0.528405 0.543313
0 0.556588 0.567483
0 0.580804 0.588602
0 0.601984 0.607553
0 0.623117 0.626261
0 0.639567 0.641413
0 0.655619 0.656367
0 0.67219 0.671794
0 0.685527 0.683986
0 0.6981 0.695125
0 0.710674 0.706523
0 0.721447 0.716716
0 0.730846 0.72491
0 0.739879 0.732692
0 0.391653 0.41004
0 0.36112 0.382879
0 0.36228 0.384756
0.00062562 0.372702 0.392798
0.00543221 0.386358 0.401251
0.0096437 0.402029 0.410925
0.0137331 0.418524 0.419852
0.0183413 0.436103 0.428916
0.021912 0.449088 0.434089
0 0.226627 0.310506
0 0.256504 0.338628
0 0.284031 0.364294
0 0.313985 0.392126
0 0.345159 0.420722
0 0.374578 0.447456
0 0.404196 0.473228
0 0.435645 0.499931
0 0.467201 0.52607
0 0.498466 0.551843
0 0.52752 0.575631
0 0.554986 0.598077
0 0.580865 0.619699
0 0.601495 0.636896
0 0.621225 0.653284
0 0.63856 0.668406
0 0.65507 0.68275
0 0.670558 0.695491
0 0.68394 0.706661
0 0.696803 0.717754
0 0.709453 0.728054
0 0.720119 0.736645
0 0.729381 0.744152
0 0.738262 0.751369
0 0.390768 0.423087
0 0.360265 0.394766
0 0.361151 0.396094
0.000396735 0.371221 0.4038
0.00523384 0.385229 0.412177
0.00944533 0.400854 0.421469
0.0135195 0.417182 0.430045
0.0181277 0.434623 0.439002
0.0216831 0.447807 0.44416
0 0.225635 0.351705
0 0.256733 0.380362
0 0.284428 0.405692
0 0.314443 0.432746
0 0.343526 0.457435
0 0.371847 0.482124
0 0.40238 0.507393
0 0.43415 0.533043
0 0.465385 0.558068
0 0.49546 0.581277
0 0.524437 0.603967
0 0.552499 0.6262
0 0.578653 0.646113
0 0.598932 0.662287
0 0.618723 0.678264
0 0.636835 0.692393
0 0.652827 0.704982
0 0.668238 0.717144
0 0.682155 0.727886
0 0.695125 0.737804
0 0.707668 0.747311
0 0.718807 0.755779
0 0.727779 0.762203
0 0.736736 0.768551
0 0.390051 0.435584
0 0.359503 0.406378
0 0.360021 0.40708
0.000198367 0.370016 0.414511
0.00503548 0.383917 0.422538
0.00924697 0.399603 0.431479
0.0133211 0.415869 0.439963
0.0172427 0.433204 0.448829
0.0214694 0.446464 0.453788
0 0.225223 0.391379
0 0.255818 0.419333
0 0.283513 0.443931
0 0.311666 0.46775
0 0.342245 0.492546
0 0.371984 0.516808
0 0.401694 0.540383
0 0.432013 0.563638
0 0.462348 0.586404
0 0.492561 0.609094
0 0.522988 0.631708
0 0.550332 0.65211
0 0.575372 0.670222
0 0.596368 0.686152
0 0.616342 0.700984
0 0.634913 0.714611
0 0.650828 0.726406
0 0.666178 0.737346
0 0.680522 0.747555
0 0.693401 0.756893
0 0.705653 0.765377
0 0.716411 0.772335
0 0.725582 0.778378
0 0.735058 0.784848
0 0.389151 0.447547
0 0.358602 0.417319
0 0.358709 0.417105
3.0518e-05 0.368978 0.424949
0.00483711 0.382589 0.432609
0.00906386 0.398398 0.441291
0.013138 0.414679 0.449638
0.0170291 0.431571 0.458091
0.0212711 0.445182 0.463203
0 0.225269 0.428061
0 0.254185 0.454994
0 0.282185 0.47866
0 0.313603 0.504204
0 0.343465 0.528161
0 0.37145 0.549111
0 0.399832 0.571008
0 0.430106 0.593027
0 0.461036 0.615015
0 0.492073 0.63743
0 0.523339 0.659937
0 0.547936 0.676753
0 0.572534 0.693874
0 0.594186 0.7093
0 0.61387 0.722789
0 0.632853 0.735561
0 0.648753 0.746456
0 0.664179 0.756832
0 0.678676 0.766186
0 0.691066 0.773999
0 0.702693 0.781125
0 0.713619 0.787671
0 0.723232 0.79382
0 0.73315 0.800183
0 0.388052 0.458564
0 0.357824 0.427939
0 0.357534 0.427008
0 0.368154 0.435309
0.00466926 0.381323 0.442283
0.00888075 0.396994 0.450431
0.0129854 0.413611 0.459129
0.016846 0.430045 0.467201
0.021088 0.443931 0.472374
0 0.223133 0.457404
0 0.251148 0.484337
0 0.282109 0.511116
0 0.314443 0.536934
0 0.341985 0.557443
0 0.370031 0.5785
0 0.400061 0.600977
0 0.430793 0.622477
0 0.460761 0.643549
0 0.490333 0.663417
0 0.519677 0.682795
0 0.545037 0.699748
0 0.569696 0.716442
0 0.591302 0.729992
0 0.610971 0.742611
0 0.630854 0.755856
0 0.646632 0.765774
0 0.661555 0.774304
0 0.676585 0.783093
0 0.688609 0.790097
0 0.699992 0.796536
0 0.710903 0.802487
0 0.721202 0.808621
0 0.731258 0.814771
0 0.387045 0.469413
0 0.357244 0.438529
0 0.356497 0.43679
0 0.366964 0.444709
0.00451667 0.380041 0.451545
0.0087129 0.395682 0.459419
0.0128328 0.412589 0.468406
0.0166629 0.428687 0.476158
0.0209049 0.442664 0.481117
0 0.215839 0.475471
0 0.247227 0.508232
0 0.281682 0.53991
0 0.312749 0.564553
0 0.340719 0.585565
0 0.370306 0.607675
0 0.401221 0.629938
0 0.430533 0.649699
0 0.457969 0.667613
