filmlog/Shaders/LutFujiWarm.cube
TITLE "Generated by Resolve"
LUT_3D_SIZE 9
0 0.343587 0
0 0.418387 0
0 0.488228 0
0 0.542901 0
0 0.589044 0
0 0.626352 0
0 0.333532 0
0.0221408 0.322316 0
0.0337224 0.334142 0
0 0.330388 0
0 0.4038 0
0 0.476402 0
0 0.533318 0
0 0.580835 0
0 0.61976 0
0 0.26952 0.00387579
0.00367742 0.311559 0.0403449
0.0223697 0.402304 0.102159
0 0.31667 0
0 0.38941 0
0 0.463722 0
0 0.523644 0
0 0.479042 0.0551766
0 0.600778 0.182391
0 0.349126 0.116396
0.00645457 0.364981 0.157488
0.0239261 0.439338 0.219455
0 0.302724 0
0 0.37467 0
0 0.357992 0.049424
0 0.489342 0.165408
0 0.597604 0.289586
0 0.677562 0.401907
0 0.382864 0.238209
0.00680552 0.384054 0.259495
0.0237583 0.451682 0.308598
0 0.204562 0.0512551
0 0.310475 0.141314
0 0.441535 0.261418
0 0.559411 0.385916
0 0.643992 0.488197
0 0.705303 0.567926
0 0.392599 0.329534
0.00633249 0.388663 0.334295
0.0230564 0.45359 0.374838
0 0.226947 0.222827
0 0.344671 0.338094
0 0.468055 0.453208
0 0.580468 0.555886
0 0.655543 0.628016
0 0.711421 0.682857
0 0.392737 0.396475
0.00564584 0.387427 0.389868
0.0221408 0.450385 0.423758
0 0.225223 0.391379
0 0.342245 0.492546
0 0.462348 0.586404
0 0.575372 0.670222
0 0.650828 0.726406
0 0.705653 0.765377
0 0.389151 0.447547
0.00483711 0.382589 0.432609
0.0212711 0.445182 0.463203
0.000915541 0.207996 0.489021
0 0.33962 0.612634
0 0.455497 0.690867
0 0.56228 0.754284
0 0.639796 0.797848
0 0.695109 0.82623
0 0.384894 0.48983
0.00433356 0.377951 0.46978
0.0205844 0.440208 0.497871
0.00292973 0.16437 0.513802
0 0.330159 0.690944
0 0.446036 0.76846
0 0.552804 0.823545
0 0.62977 0.856962
0 0.688197 0.877989
0 0.381781 0.528344
0.00436408 0.375265 0.504799
0.0202487 0.436377 0.529717
0 0.309758 0
0 0.382071 0
0 0.457359 0
0 0.518669 0
0 0.568322 0
0.0142672 0.260304 0
0.0396887 0.31635 0
0.201846 0.45124 0
0.266087 0.475456 0.0127565
0 0.295674 0
0 0.3673 0
0 0.444343 0
0 0.508095 0
0 0.559731 0
0.014374 0.25539 0
0.0126802 0.248753 0
0.108812 0.4094 0.0594644
0.244511 0.549416 0.169787
0 0.28127 0
0 0.354376 0
0 0.430426 0
0 0.497322 0
0 0.459373 0.0564279
0 0.237949 0.0335546
0.0169375 0.32871 0.0952621
0.0656443 0.436164 0.180453
0.226139 0.582681 0.31548
0 0.266636 0
0 0.341466 0
0 0.326299 0.0527352
0 0.45948 0.164492
0 0.573053 0.289357
0 0.287327 0.149157
0.0193027 0.364355 0.216648
0.0513466 0.446998 0.283833
0.209888 0.589197 0.418631
0 0.172976 0.0546426
0 0.271977 0.140688
0 0.396414 0.255985
0 0.523445 0.382208
0 0.617716 0.488151
0 0.30428 0.254887
0.0192416 0.374899 0.310704
0.0448615 0.446403 0.360174
0.19791 0.585824 0.492866
0 0.183001 0.217731
0 0.294942 0.329397
0 0.415396 0.441749
0 0.53695 0.54789
0 0.628519 0.628748
0 0.305287 0.331548
0.0184939 0.373724 0.379202
0.0364385 0.436118 0.411292
0.189761 0.57937 0.548196
0 0.179446 0.375174
0 0.291218 0.483177
0 0.409064 0.575219
0 0.531014 0.663035
0 0.620005 0.725032
0 0.303181 0.391089
0.0170596 0.369039 0.430869
0.0333715 0.427985 0.453834
0.183337 0.571496 0.592294
0.00175479 0.139101 0.428046
0 0.285924 0.591348
0 0.406668 0.681941
0 0.517983 0.748104
0 0.60737 0.796246
0 0.301518 0.441535
0.0169375 0.36492 0.474845
0.0324254 0.422049 0.492409
0.179034 0.56553 0.63209
0 0.116197 0.479408
0.00337224 0.260426 0.635538
0 0.39588 0.755062
0 0.505531 0.815335
0 0.601785 0.86125
0.00125124 0.299611 0.484428
0.0186007 0.364218 0.517449
0.032517 0.419425 0.529854
0.179782 0.566659 0.674571
0 0.274006 0
0 0.347997 0
0 0.423239 0
0.00221256 0.201801 0
0.0276951 0.222995 0
0.132982 0.332921 0
0.287358 0.442267 0
0.438865 0.530404 0
0.473106 0.539025 0.0244755
0 0.259266 0
0 0.334874 0
0 0.40882 0
0.00224308 0.194827 0
0.0276341 0.216144 0
0.132326 0.324819 0
0.217441 0.38323 0.0102083
0.3337 0.49366 0.0830854
0.449516 0.605325 0.200046
0 0.245319 0
0 0.321355 0
0 0.394354 0
0.0021973 0.187152 0
0.00427253 0.157244 0
0.0456703 0.273823 0.0367285
0.192248 0.43859 0.145937
0.325292 0.559075 0.262989
0.441459 0.651194 0.371786
0 0.231586 0
0 0.3075 0
0 0.293996 0.0566873
0 0.156558 0.0325628
0.00898756 0.216526 0.0814221
0.0324559 0.310796 0.153521
0.169223 0.464637 0.287083
0.311666 0.58146 0.403143
0.431739 0.667948 0.496605
0 0.144533 0.0582437
0 0.233585 0.140734
0 0.350393 0.250156
0 0.188891 0.143343
0.0104982 0.241947 0.198367
0.029633 0.325917 0.262623
0.151202 0.4663 0.388647
0.299641 0.584527 0.501945
0.42266 0.670985 0.587091
0 0.146334 0.215778
0 0.24445 0.320241
0 0.363027 0.430472
0 0.193713 0.244511
0.0103456 0.246509 0.290715
0.0285801 0.326314 0.344472
0.137469 0.458091 0.460792
0.29041 0.580102 0.573709
0.415335 0.667643 0.653376
0.000534066 0.121706 0.33228
0 0.240848 0.469993
0 0.35903 0.565148
0 0.194812 0.32723
0.0122683 0.249775 0.367514
0.0283055 0.323201 0.408103
0.129747 0.44947 0.516533
0.285069 0.574563 0.630579
0.410483 0.663142 0.707393
0 0.108034 0.415976
0.00267033 0.215076 0.534203
0 0.356039 0.66952
0 0.193332 0.387549
0.0169528 0.253773 0.430365
0.0309758 0.324819 0.465339
0.132235 0.45214 0.57435
0.296086 0.584482 0.695445
0.423392 0.674052 0.769818
0 0.101106 0.489311
0.0031281 0.169787 0.546746
0 0.339055 0.726009
0 0.186892 0.424414
0.0227665 0.254108 0.475685
0.0364691 0.330205 0.519371
0.144976 0.465309 0.636637
0.322438 0.607248 0.765164
0.453346 0.697688 0.836133
0 0.238315 0
0 0.314488 0
0.0170291 0.121279 0
0.0666209 0.190127 0
0.208652 0.29984 0
0.35761 0.399268 0
0.503899 0.486778 0
0.631098 0.558556 0
0.634211 0.561425 0.0314946
0 0.225025 0
0 0.300496 0
0.0168917 0.113283 0
0.0673991 0.181704 0
0.206882 0.28954 0
0.355184 0.388815 0
0.425025 0.43534 0.0222782
0.506966 0.513039 0.0878462
0.604273 0.618967 0.212451
0 0.211933 0
0 0.286168 0
0.0169223 0.105943 0
0.0681926 0.173083 0
0.147082 0.231327 0.00288396
0.268208 0.350561 0.0617227
0.40119 0.483787 0.175845
0.509728 0.58819 0.291264
0.603754 0.672648 0.399039
0 0.199115 0
0 0.271641 0
0 0.0565805 0
0.0155337 0.125231 0.0218814
0.129519 0.27068 0.11426
0.261524 0.403784 0.229831
0.391348 0.521645 0.346731
0.503288 0.619272 0.449866
0.598138 0.694591 0.535561
0 0.117769 0.0639353
0 0.193851 0.139803
0 0.0755779 0.0590677
0.0149844 0.148547 0.121767
0.108202 0.284016 0.240696
0.248844 0.418143 0.365988
0.379812 0.53077 0.472313
0.49369 0.626154 0.562371
0.589883 0.699031 0.634058
0 0.112795 0.217792
0 0.195865 0.311894
0.00062562 0.0834974 0.154192
0.0168917 0.155108 0.22359
0.0964675 0.281422 0.33817
0.239902 0.417288 0.465385
0.371466 0.528893 0.56408
0.484977 0.622446 0.642969
0.5823 0.695247 0.705257
0 0.0964523 0.331075
0.000350958 0.182513 0.430426
0.00584421 0.0806592 0.216541
0.0292668 0.167636 0.309621
0.112566 0.298863 0.432837
0.271366 0.443244 0.563882
0.402899 0.550866 0.652308
0.509911 0.637613 0.719524
0.600946 0.704906 0.771054
0 0.0870527 0.436439
0.00102235 0.130358 0.454353
0.00167849 0.0644846 0.250187
0.0323033 0.160922 0.355444
0.123583 0.301625 0.490745
0.286427 0.450904 0.627131
0.417411 0.558938 0.713542
0.524086 0.645609 0.776989
0.612497 0.711833 0.823468
0 0.066453 0.557046
0 0.117189 0.507378
0 0.0471962 0.270817
0.0296941 0.1458 0.382315
0.126406 0.291112 0.528771
0.286885 0.44506 0.673121
0.416785 0.55407 0.759945
0.524636 0.643732 0.823087
0.612406 0.710704 0.867247
0.0121462 0.0412604 0
0.044358 0.0703136 0
0.128862 0.137499 0
0.259464 0.230228 0
0.404913 0.325475 0
0.541146 0.412085 0
0.665888 0.490852 0
0.776104 0.558053 0
0.755306 0.562615 0.0357214
0.014786 0.0361791 0
0.0459907 0.0637064 0
0.127001 0.127031 0
0.254719 0.216724 0
0.400305 0.312764 0
0.536217 0.39942 0
0.579767 0.441276 0.0283513
0.635508 0.504875 0.0856031
0.71873 0.613184 0.217548
0.0181735 0.0316625 0
0.047303 0.0572976 0
0.125185 0.11696 0
0.249851 0.20322 0
0.320974 0.253071 0.0129854
0.430976 0.34992 0.0622568
0.548898 0.478035 0.184955
0.645304 0.583856 0.303304
0.722683 0.669444 0.412039
0.0202335 0.0268864 0
0.048249 0.0510414 0
0.0716564 0.0636606 0
0.173724 0.152911 0.0415656
0.309056 0.282902 0.137911
0.434394 0.406851 0.253056
0.54522 0.518593 0.367681
0.643885 0.617517 0.471244
0.719051 0.691951 0.554162
0 0 0
0.0130312 0.0193484 0.0188602
0.0677348 0.0750591 0.0749828
0.169146 0.17232 0.170962
0.298039 0.299458 0.288548
0.423651 0.421576 0.402457
0.537041 0.53106 0.5037
0.635248 0.624949 0.590112
0.711406 0.696818 0.656947
0 0 0.0638132
0.00527962 0.0155795 0.0856336
0.0597391 0.0729229 0.175036
0.15819 0.169406 0.284489
0.284047 0.294011 0.400809
0.411826 0.418967 0.510246
0.526619 0.528252 0.602136
0.625711 0.621469 0.676097
0.70338 0.693538 0.732113
0.0105745 0 0.239826
0.000762951 0.00660716 0.155047
0.0530556 0.0632944 0.256382
0.148302 0.157992 0.368032
0.269703 0.278111 0.480095
0.400137 0.407813 0.58761
0.515404 0.517067 0.672343
0.616053 0.611811 0.740307
0.695766 0.686732 0.791562
0.189975 0 0.982116
0 0 0.200244
0.0481422 0.0512093 0.314504
0.139483 0.14287 0.426963
0.257298 0.258824 0.535637
0.387991 0.390738 0.642939
0.504311 0.502098 0.725841
0.60589 0.598459 0.791485
0.687327 0.676265 0.840269
0.185107 0 1
0 0 0.245594
0.0433967 0.039353 0.354314
0.130861 0.125902 0.467948
0.246418 0.238849 0.577676
0.375189 0.370092 0.685069
0.493767 0.485878 0.769741
0.596048 0.583703 0.833616
0.678798 0.663874 0.880873
0.0815137 0.0251774 0
0.161746 0.0678416 0
0.280339 0.137438 0
0.414588 0.222202 0
0.548058 0.312139 0
0.669917 0.394339 0
0.781735 0.472038 0
0.877943 0.540963 0
0.840909 0.549325 0.0376745
0.0842145 0.0198215 0
0.158572 0.0592355 0
0.274815 0.125231 0
0.406561 0.207187 0
0.540124 0.297169 0
0.662837 0.380423 0
0.687816 0.420951 0.0308385
0.7234 0.4813 0.0821546
0.797574 0.593439 0.218143
0.0896925 0.0124819 0
0.155825 0.0513924 0
0.269108 0.113222 0
0.398627 0.192447 0
0.445121 0.234363 0.0164034
0.540154 0.321126 0.0566567
0.651423 0.449851 0.185336
0.737133 0.559991 0.305577
0.804089 0.6495 0.414984
0.111879 0.00393683 0
0.152926 0.0438239 0
0.18497 0.0591135 0
0.294133 0.131029 0.0427253
0.426596 0.250156 0.139849
0.547494 0.374517 0.255329
0.653071 0.491188 0.373083
0.739925 0.594949 0.477699
0.803174 0.673121 0.560464
0.434226 0 0.316075
0.0869001 0.0119173 0.0263676
0.178897 0.0603342 0.0855879
0.294301 0.146975 0.180331
0.415824 0.261418 0.292592
0.541878 0.390753 0.410468
0.647318 0.503487 0.51339
0.731685 0.600885 0.599252
0.796582 0.678126 0.666072
0.399908 0 0.583658
0.0760052 0.00384527 0.105272
0.167117 0.0548867 0.193378
0.281361 0.141695 0.298344
0.399969 0.253285 0.406088
0.528695 0.385046 0.520516
0.636515 0.499336 0.614359
0.720821 0.594858 0.686168
0.786801 0.672068 0.741466
0.39118 0 0.827176
0.0665599 0 0.181628
0.152667 0.0430762 0.275578
0.266407 0.127764 0.383032
0.382864 0.23653 0.48658
0.513054 0.369604 0.597208
0.624033 0.487037 0.685939
0.709331 0.582986 0.7505
0.776684 0.661692 0.799924
0.378103 0 0.997971
0.0697032 0 0.259861
0.136416 0.0289616 0.329976
0.251804 0.111116 0.442542
0.366567 0.216709 0.542824
0.4963 0.349065 0.650828
0.609888 0.469642 0.738643
0.698009 0.568872 0.802228
0.767025 0.64979 0.848463
0.36672 0 1
0.0763867 0 0.336568
0.116915 0.0131228 0.357443
0.237781 0.0939498 0.484215
0.35198 0.197009 0.585473
0.478492 0.325154 0.690486
0.595987 0.45066 0.780911
0.686198 0.552224 0.843702
0.757748 0.636713 0.889158
0.191775 0.0053254 0
0.280278 0.0538491 0
0.401404 0.117144 0
0.522789 0.19408 0
0.646189 0.280568 0
0.757824 0.364202 0
0.858442 0.442527 0
0.948211 0.514336 0
0.90309 0.528237 0.0383459
0.290654 0 0
0.273335 0.0449531 0
0.391775 0.103944 0
0.51342 0.179385 0
0.63595 0.264546 0
0.749142 0.349508 0
0.757061 0.389288 0.0310674
0.783795 0.451682 0.0796368
0.856291 0.569009 0.217273
0.884886 0 0.00354009
0.265431 0.035111 0
0.381979 0.0912184 0
0.504051 0.164981 0
0.524056 0.19733 0.0166171
0.610437 0.283696 0.0552529
0.715511 0.411582 0.181979
0.796857 0.52488 0.302327
0.862242 0.621073 0.413336
0.884886 0 0.00354009
0.260975 0.0275425 0
0.27451 0.0411841 0.00222782
0.373281 0.0979019 0.0399634
0.49633 0.201663 0.133211
0.615793 0.327535 0.248646
0.717647 0.448646 0.367864
0.798428 0.554559 0.472511
0.860945 0.641718 0.558862
0.639002 0 0.305303
0.154513 0 0.0268254
0.254963 0.0337072 0.0824598
0.371817 0.107195 0.173907
0.485847 0.208759 0.281315
0.608652 0.338231 0.400214
0.71223 0.458762 0.507668
0.791836 0.560449 0.59527
0.854368 0.645319 0.665125
0.630564 0 0.61854
0.164523 0 0.127275
0.232853 0.0243839 0.181003
0.354955 0.0986801 0.287694
0.469734 0.199756 0.393317
0.594751 0.330465 0.509209
0.700359 0.452567 0.607752
0.781048 0.553948 0.682673
0.844327 0.638666 0.740871
0.630396 0 0.88101
0.198993 0 0.271138
0.197284 0.00563058 0.243214
0.33489 0.0833448 0.368902
0.453513 0.185 0.475288
0.576089 0.312261 0.583459
0.685573 0.438193 0.677791
0.767437 0.539925 0.745892
0.833722 0.627832 0.799512
0.623209 0 1
0.760678 0 1
0.192447 4.57771e-05 0.310964
0.313481 0.0659037 0.423239
0.435004 0.166018 0.530221
0.55494 0.288975 0.633478
0.669627 0.419699 0.729641
0.753918 0.523507 0.796033
0.821515 0.612634 0.846235
0.619898 0 1
0.759976 0 1
0.193744 0 0.369299
0.290761 0.0483558 0.457343
0.416861 0.146456 0.570123
0.534401 0.26482 0.671153
0.651347 0.396841 0.768277
0.740764 0.505837 0.836683
0.809903 0.596567 0.885084
1 0 0.00474556
0.355093 0.0285954 0
0.477806 0.0860914 0
0.596841 0.159777 0
0.708293 0.241978 0
0.81648 0.327993 0
0.912077 0.407691 0
0.998199 0.482353 0
0.944701 0.500389 0.0379034
1 0 0.00474556
0.33991 0.0170291 0
0.464393 0.0737621 0
0.586007 0.145571 0
0.696391 0.225834 0
0.805753 0.312276 0
0.803037 0.352224 0.0301976
0.825284 0.417411 0.0788281
0.897566 0.538003 0.215045
1 0 0.00474556
0.333898 0.0078584 0
0.451301 0.0624552 0
0.574639 0.131548 0
0.568933 0.156847 0.0153811
0.648432 0.239414 0.0522774
0.757473 0.369314 0.177066
0.838407 0.4851 0.297292
0.903548 0.586801 0.409705
1 0 0.00474556
0.353979 0.00148013 0
0.32755 0.020798 0.00236515
0.420539 0.0639963 0.0365911
0.534615 0.153994 0.124453
0.651164 0.273991 0.237064
0.757153 0.399878 0.357916
0.838773 0.510445 0.464866
0.903151 0.606455 0.555062
0.827924 0 0.314504
0.938949 0 0.510216
0.278538 0.00117494 0.0679332
0.410346 0.0647746 0.15938
0.522957 0.156954 0.265126
0.639384 0.277104 0.380316
0.750103 0.406043 0.49398
0.831617 0.514046 0.586023
0.895857 0.608087 0.660502
0.834913 0 0.645701
0.908385 0 0.815763
0.273594 0 0.168292
0.386282 0.0532235 0.263081
0.506416 0.147402 0.373114
0.623606 0.266636 0.484581
0.736431 0.397086 0.591119
0.819532 0.505623 0.671839
0.883787 0.598505 0.73463
0.836149 0 0.920378
0.889464 0 1
0.275486 0 0.261067
0.355184 0.036286 0.332189
0.488334 0.132662 0.451484
0.604334 0.248722 0.556619
0.717754 0.379019 0.657404
0.805203 0.490929 0.734401
0.870939 0.584741 0.79144
0.831067 0 1
0.882155 0 1
0.279011 0 0.341787
0.315602 0.0163119 0.36759
0.466514 0.11397 0.502647
0.581949 0.226291 0.605127
0.697993 0.357412 0.705623
0.789746 0.47303 0.782864
0.858396 0.56936 0.837964
0.831907 0 1
0.882155 0 1
0.285023 0 0.414664
0.289448 0.00393683 0.396307
0.443992 0.0946059 0.538216
0.560464 0.203738 0.641718
0.677638 0.333791 0.74226
0.774105 0.453468 0.821149
0.845792 0.552407 0.876051
1 0 0.00474556
0.421515 0.00517281 0
0.515373 0.0546273 0
0.638498 0.123308 0
0.744823 0.200992 0
0.852155 0.287602 0
0.948669 0.370596 0
1 0.447822 0
0.97293 0.468742 0.0368505
1 0 0.00474556
0.481132 0 0
0.498009 0.0431067 0
0.624094 0.109041 0
0.732235 0.185626 0
0.839261 0.271061 0
0.829679 0.311925 0.0285496
0.853178 0.381567 0.0787213
0.928328 0.50573 0.212696
1 0 0.00474556
1 0 0.00474556
0.467338 0.026688 0
0.60853 0.0948959 0
0.592187 0.118395 0.0135805
0.661768 0.191821 0.0482338
0.782162 0.32488 0.171191
0.865003 0.442405 0.291142
0.933165 0.550042 0.405417
1 0 0.00474556
1 0 0.00474556
0.334844 0 0
0.430121 0.031342 0.0308843
0.55259 0.110903 0.115023
0.663371 0.218616 0.222599
0.777508 0.347494 0.345006
0.864759 0.464317 0.455848
0.930968 0.565744 0.548501
0.963531 0 0.322515
0.938674 0 0.512535
0.339956 0 0.0793469
0.408927 0.0266117 0.138293
0.538552 0.110048 0.24741
0.649485 0.217304 0.357809
0.765942 0.347402 0.474403
0.856626 0.465522 0.574441
0.92224 0.564736 0.651835
0.92311 0 0.658076
0.907881 0 0.821378
0.345998 0 0.194217
0.356756 0.00753796 0.214862
0.518044 0.0982986 0.347875
0.632532 0.205554 0.456779
0.750439 0.33611 0.567529
0.842496 0.454887 0.657481
0.910002 0.554711 0.725216
0.898329 0 0.934936
0.888899 0 1
0.368185 0 0.315358
0.34876 0.002533 0.29305
0.493584 0.0816968 0.417655
0.612818 0.18851 0.525795
0.728695 0.315557 0.629862
0.825833 0.438285 0.717372
0.895735 0.539376 0.780423
0.882933 0 1
0.882155 0 1
0.882155 0 1
0.352956 0.00108339 0.363638
0.464027 0.0621805 0.460456
0.590097 0.167971 0.572671
0.705745 0.292119 0.674464
0.809018 0.419547 0.764172
0.881437 0.522362 0.825177
0.882155 0 1
0.882155 0 1
0.882155 0 1
0.354421 0 0.419516
0.429938 0.0417487 0.484306
0.567742 0.147387 0.607538
0.683162 0.267994 0.708324
0.790188 0.39736 0.799252
0.867399 0.504295 0.861845
