filmlog/Shaders/LutFujiNeutral.cube
TITLE "Generated by Resolve"
LUT_3D_SIZE 5
0 0.354223 0
0 0.502388 0
0 0.608225 0
0 0.349035 0
0.0274662 0.351781 0
0 0.325551 0
0 0.476646 0
0 0.50779 0.0712444
0 0.378866 0.140856
0.0286259 0.484306 0.269825
0 0.211185 0.0548104
0 0.466468 0.289448
0 0.683604 0.547906
0 0.425101 0.385458
0.0278019 0.500313 0.44979
0 0.232227 0.424445
0 0.489906 0.653346
0 0.690349 0.812055
0 0.422827 0.518471
0.0258335 0.491218 0.548867
0.000427253 0.130922 0.510491
0 0.467094 0.844785
0 0.664988 0.88159
0 0.415976 0.609705
0.0254826 0.48542 0.626154
0 0.280674 0
0 0.434363 0
0.0297398 0.234577 0
0.29276 0.466407 0
0.486946 0.572442 0.0271153
0 0.250462 0
0 0.405264 0
0.00596628 0.167803 0
0.188479 0.470542 0.170001
0.455451 0.707713 0.43508
0 0.147799 0.0606241
0 0.368185 0.274342
0.0132906 0.265568 0.236606
0.127108 0.490333 0.43299
0.432822 0.728756 0.67718
0.000534066 0.115419 0.344366
0 0.374945 0.622354
0.0182193 0.281056 0.437247
0.109224 0.477546 0.578058
0.429511 0.731945 0.820829
0 0.104219 0.526192
0.00154116 0.347723 0.78172
0.0301213 0.28278 0.548226
0.127443 0.498436 0.711421
0.495811 0.790631 0.980117
0.0120241 0.042237 0
0.130831 0.143099 0
0.419409 0.344564 0
0.693751 0.522896 0
0.784421 0.601404 0.039826
0.0170443 0.0320439 0
0.127291 0.121553 0
0.333288 0.270558 0.0148623
0.57554 0.52253 0.219669
0.756558 0.732891 0.483848
0 0 0
0.0703136 0.0813153 0.085481
0.311223 0.327123 0.333013
0.560403 0.581216 0.583322
0.742794 0.763226 0.761578
0.0108492 0 0.258106
0.0513313 0.0678874 0.286976
0.280247 0.304753 0.54902
0.53814 0.567605 0.771756
0.727413 0.753994 0.910338
0.188251 0 1
0.042359 0.0419623 0.39498
0.256153 0.262028 0.656596
0.515282 0.5337 0.879728
0.709712 0.728954 1
0.19408 0.00541695 0
0.414328 0.122942 0
0.671931 0.297963 0
0.895048 0.472206 0
0.936156 0.564981 0.0425879
0.89015 0 0.00357061
0.393561 0.095491 0
0.546319 0.211902 0.0193942
0.752819 0.452338 0.216556
0.904311 0.682292 0.485634
0.642618 0 0.305516
0.268116 0.038056 0.0943923
0.511803 0.230686 0.325505
0.74789 0.505257 0.588876
0.894743 0.709697 0.771969
0.637873 0 0.920729
0.205676 0.00738537 0.274662
0.477348 0.20499 0.544579
0.719554 0.483223 0.779675
0.873014 0.691035 0.921157
0.627359 0 1
0.200946 0 0.411429
0.438605 0.162676 0.648081
0.684138 0.438361 0.878386
0.848493 0.657298 1
1 0 0.00474556
0.528283 0.0565042 0
0.772244 0.213031 0
0.987762 0.395529 0
0.996185 0.497139 0.0400549
1 0 0.00474556
0.47451 0.0261387 0
0.615335 0.127153 0.0153811
0.822904 0.358709 0.203494
0.978943 0.606027 0.476295
0.963195 0 0.324666
0.352117 0 0.0880903
0.566888 0.123308 0.285756
0.805188 0.384604 0.550179
0.966613 0.623072 0.75668
0.89482 0 0.978821
0.380362 0 0.346883
0.518898 0.0920882 0.477501
0.765911 0.350027 0.724285
0.938888 0.595712 0.89926
0.882155 0 1
0.882155 0 1
0.45066 0.0474098 0.54876
0.718471 0.297978 0.809277
0.909682 0.557641 0.987686
