filmlog/Shaders/LutFujiNeutral.cube
TITLE "Generated by Resolve"
LUT_3D_SIZE 9
0 0.354223 0
0 0.429343 0
0 0.502388 0
0 0.559792 0
0 0.608225 0
0 0.647349 0
0 0.349035 0
0.0244144 0.33994 0
0.0274662 0.351781 0
0 0.340002 0
0 0.414206 0
0 0.489982 0
0 0.549722 0
0 0.599603 0
0 0.640421 0
0 0.290455 0.00895705
0.00660716 0.340368 0.0531167
0.0266423 0.442725 0.129961
0 0.325551 0
0 0.400656 0
0 0.476646 0
0 0.539574 0
0 0.50779 0.0712444
0 0.635431 0.205295
0 0.378866 0.140856
0.00968948 0.39942 0.193408
0.0286259 0.484306 0.269825
0 0.310887 0
0 0.386877 0
0 0.37525 0.0587472
0 0.516732 0.184344
0 0.634073 0.325414
0 0.718639 0.452613
0 0.414878 0.281849
0.0102083 0.421103 0.313375
0.0285649 0.498131 0.373907
0 0.211185 0.0548104
0 0.324254 0.153063
0 0.466468 0.289448
0 0.592645 0.430869
0 0.683604 0.547906
0 0.748959 0.639094
0 0.425101 0.385458
0.00967422 0.425162 0.398123
0.0278019 0.500313 0.44979
0 0.23624 0.240284
0 0.360586 0.370672
0 0.492027 0.501091
0 0.614359 0.620188
0 0.696193 0.704677
0 0.752895 0.765026
0 0.425681 0.461433
0.00900282 0.423835 0.461112
0.0268254 0.497063 0.505104
0 0.232227 0.424445
0 0.358251 0.543328
0 0.489906 0.653346
0 0.609842 0.748486
0 0.690349 0.812055
0 0.747158 0.854154
0 0.422827 0.518471
0.00840772 0.420035 0.510323
0.0258335 0.491218 0.548867
0.00285344 0.193561 0.501427
0 0.355352 0.673335
0 0.483085 0.76846
0 0.595895 0.83978
0 0.678798 0.879316
0 0.737438 0.872908
0 0.418296 0.565454
0.00831617 0.417044 0.553246
0.0253605 0.487205 0.58851
0.000427253 0.130922 0.510491
0.000396735 0.335424 0.740917
0 0.467094 0.844785
0 0.584237 0.901518
0 0.664988 0.88159
0 0.723323 0.874067
0 0.415976 0.609705
0.00892653 0.416358 0.593835
0.0254826 0.48542 0.626154
0 0.318257 0
0 0.393805 0
0 0.469963 0
0 0.534356 0
0 0.586465 0
0.0158846 0.273274 0
0.0422522 0.334279 0
0.200153 0.472923 0
0.267903 0.501183 0.0145724
0 0.303502 0
0 0.37998 0
0 0.456291 0
0 0.523247 0
0 0.577447 0
0.0159762 0.268055 0
0.0139162 0.266178 0
0.0915236 0.42916 0.0680858
0.244678 0.59144 0.200412
0 0.28838 0
0 0.366049 0
0 0.44184 0
0 0.511955 0
0 0.486519 0.0719921
0 0.259251 0.0432136
0.0209659 0.361151 0.119188
0.0564584 0.46479 0.209339
0.219074 0.624918 0.364538
0 0.272877 0
0 0.351888 0
0 0.341802 0.0614939
0 0.484031 0.181872
0 0.607233 0.323781
0.002121 0.313466 0.179934
0.0231022 0.40119 0.263005
0.0423438 0.477012 0.327276
0.19646 0.629007 0.477455
0 0.177737 0.0575265
0 0.283314 0.151461
0 0.416999 0.281605
0 0.553841 0.425711
0 0.656703 0.548272
0.00277714 0.332158 0.302754
0.0230716 0.412284 0.371374
0.0417334 0.483284 0.420676
0.179324 0.62266 0.55642
0 0.18822 0.232258
0 0.307164 0.359533
0 0.43444 0.485954
0 0.566903 0.60943
0 0.665446 0.703227
0.00227359 0.333639 0.39089
0.0223392 0.411872 0.450584
0.0406043 0.481224 0.48867
0.167666 0.613764 0.614145
0 0.174365 0.390997
0 0.304295 0.530327
0 0.431937 0.637552
0 0.559289 0.736278
0 0.657359 0.809796
0.00262455 0.33402 0.461463
0.0219272 0.408621 0.510307
0.0393072 0.474876 0.539162
0.158633 0.604028 0.659663
0.000595102 0.123705 0.439231
0 0.292256 0.636255
0 0.426444 0.752956
0 0.546166 0.829847
0 0.645838 0.885283
0.00410468 0.332799 0.516472
0.0227207 0.407324 0.562966
0.0391546 0.471672 0.585657
0.152316 0.599222 0.703227
0 0.11989 0.518593
0.00500496 0.24477 0.655207
0 0.41442 0.827466
0 0.534325 0.902708
0 0.631067 0.888548
0.00683604 0.33463 0.567163
0.0249332 0.409384 0.612482
0.0403296 0.471794 0.630304
0.149462 0.59939 0.746502
0 0.280674 0
0 0.359045 0
0 0.434363 0
0.0034638 0.210483 0
0.0297398 0.234577 0
0.123323 0.343999 0
0.29276 0.466407 0
0.453452 0.562478 0
0.486946 0.572442 0.0271153
0 0.265064 0
0 0.344747 0
0 0.419425 0
0.0034638 0.203128 0
0.029633 0.227268 0
0.123415 0.335836 0
0.219013 0.405142 0.0115511
0.345281 0.535363 0.102968
0.467048 0.657893 0.238376
0 0.250462 0
0 0.330495 0
0 0.405264 0
0.00337224 0.194995 0
0.00596628 0.167803 0
0.0406653 0.291524 0.0440681
0.188479 0.470542 0.170001
0.331868 0.605371 0.307729
0.455451 0.707713 0.43508
0 0.236149 0
0 0.315908 0
0 0.306889 0.0637064
0 0.169436 0.0395972
0.0116274 0.237736 0.0998093
0.0335851 0.339315 0.184115
0.156344 0.494881 0.326589
0.314183 0.62884 0.46627
0.443275 0.725597 0.576211
0 0.147799 0.0606241
0 0.242359 0.150515
0 0.368185 0.274342
0 0.203876 0.16672
0.0132906 0.265568 0.236606
0.0340734 0.360021 0.314931
0.127108 0.490333 0.43299
0.299672 0.631586 0.576349
0.432822 0.728756 0.67718
0 0.149645 0.229252
0 0.252369 0.347402
0 0.377615 0.471412
0 0.209583 0.283528
0.0135042 0.271458 0.343969
0.033341 0.361013 0.40943
0.114199 0.482017 0.512581
0.289082 0.626535 0.655253
0.424659 0.725124 0.750057
0.000534066 0.115419 0.344366
0 0.243854 0.503471
0 0.374945 0.622354
0 0.211887 0.377676
0.0182193 0.281056 0.437247
0.0349126 0.36321 0.487739
0.109224 0.477546 0.578058
0.290227 0.630106 0.727214
0.429511 0.731945 0.820829
0 0.111254 0.44741
0.0037232 0.191211 0.53904
0 0.366827 0.727657
0 0.21091 0.442786
0.0246586 0.28661 0.505989
0.0402991 0.369635 0.556161
0.114687 0.484245 0.64445
0.312215 0.652964 0.809918
0.459174 0.760037 0.904173
0 0.104219 0.526192
0.000366217 0.134874 0.544442
0.00154116 0.347723 0.78172
0.00102235 0.199115 0.47332
0.0301213 0.28278 0.548226
0.0480354 0.376257 0.614679
0.127443 0.498436 0.711421
0.344244 0.682139 0.889555
0.495811 0.790631 0.980117
0 0.243153 0
0 0.323262 0
0.0189212 0.127001 0
0.0526131 0.190646 0
0.211627 0.314748 0
0.368673 0.42237 0
0.52282 0.517082 0
0.656962 0.594812 0
0.657038 0.598672 0.0350347
0 0.229297 0
0 0.308553 0
0.0190127 0.119417 0
0.0556344 0.183154 0
0.209995 0.303899 0
0.366354 0.411307 0
0.43975 0.464622 0.0248417
0.531304 0.560403 0.112413
0.632532 0.675334 0.253895
0 0.215442 0
0 0.293538 0
0.0191043 0.111925 0
0.0585336 0.175311 0
0.148669 0.244724 0.00399786
0.27808 0.380865 0.0770428
0.417212 0.526375 0.208164
0.530907 0.64126 0.342443
0.629679 0.734386 0.468132
0 0.201404 0
0 0.278172 0
0 0.0609903 0
0.0163424 0.136049 0.0272221
0.124437 0.289189 0.1308
0.267277 0.437705 0.266957
0.404257 0.567666 0.403296
0.522087 0.675242 0.523507
0.622263 0.758389 0.623407
0 0.118456 0.0649271
0 0.199954 0.148409
0 0.0819104 0.0691997
0.017319 0.163684 0.145327
0.0973983 0.301381 0.270848
0.25127 0.452735 0.4206
0.390463 0.577325 0.54493
0.510964 0.682582 0.649989
0.613123 0.76318 0.733761
0 0.110979 0.225299
0 0.201785 0.337392
0.00422675 0.0918441 0.177752
0.0225071 0.175494 0.267353
0.0857862 0.301686 0.382254
0.249104 0.460716 0.540322
0.392294 0.585931 0.657237
0.511498 0.687633 0.747768
0.614145 0.766842 0.819165
0 0.0988327 0.352209
0.00207523 0.164401 0.434562
0.00704967 0.0839094 0.242008
0.0363928 0.188922 0.361883
0.105638 0.325063 0.491554
0.289403 0.497307 0.656413
0.436377 0.620935 0.763363
0.553216 0.718074 0.842206
0.650568 0.791806 0.901167
0 0.0894484 0.465751
0.00030518 0.12607 0.482307
0.0011902 0.0638285 0.276478
0.0375067 0.178241 0.410178
0.120134 0.32958 0.556985
0.304936 0.506218 0.72752
0.451789 0.63122 0.833692
0.568612 0.729229 0.909468
0.663767 0.802487 0.963439
0 0.0685588 0.59382
0 0.121096 0.549523
0 0.0403449 0.291676
0.0331884 0.158953 0.436164
0.12163 0.316335 0.594873
0.305592 0.499565 0.777523
0.451926 0.62652 0.885405
0.570809 0.728771 0.961837
0.666026 0.803632 1
0.0120241 0.042237 0
0.0429084 0.0725261 0
0.130831 0.143099 0
0.267002 0.242252 0
0.419409 0.344564 0
0.562371 0.437827 0
0.693751 0.522896 0
0.80975 0.595468 0
0.784421 0.601404 0.039826
0.0141451 0.0366674 0
0.0451667 0.0657816 0
0.129076 0.132113 0
0.262226 0.22797 0
0.41474 0.33106 0
0.557214 0.424277 0
0.603342 0.472801 0.0317235
0.668177 0.553567 0.112245
0.754131 0.670634 0.260365
0.0170443 0.0320439 0
0.0471046 0.0592203 0
0.127291 0.121553 0
0.257328 0.213672 0
0.333288 0.270558 0.0148623
0.453559 0.384619 0.0835431
0.57554 0.52253 0.219669
0.676005 0.638758 0.357137
0.756558 0.732891 0.483848
0.0201724 0.0272526 0
0.0486305 0.052842 0
0.0731975 0.0670176 0
0.181674 0.166369 0.0500496
0.323217 0.308629 0.161532
0.454276 0.444663 0.295384
0.56994 0.567391 0.428809
0.672923 0.67602 0.549325
0.751476 0.757839 0.645853
0 0 0
0.0126802 0.0204623 0.0208743
0.0703136 0.0813153 0.085481
0.177325 0.187823 0.195605
0.311223 0.327123 0.333013
0.441871 0.461006 0.465522
0.560403 0.581216 0.583322
0.66305 0.684276 0.683803
0.742794 0.763226 0.761578
0 0 0.0674601
0.00395209 0.0161898 0.0937057
0.0600443 0.0790112 0.196826
0.164004 0.185245 0.324804
0.296284 0.322469 0.459159
0.4309 0.460273 0.585611
0.551614 0.580514 0.692226
0.655695 0.682887 0.777905
0.736996 0.761791 0.842878
0.0108492 0 0.258106
0 0.00376898 0.16582
0.0513313 0.0678874 0.286976
0.15288 0.172641 0.419089
0.280247 0.304753 0.54902
0.417182 0.447578 0.673228
0.53814 0.567605 0.771756
0.643763 0.671702 0.850736
0.727413 0.753994 0.910338
0.191257 0 1
0 0 0.217655
0.0465705 0.0548104 0.351858
0.143587 0.156115 0.484565
0.267414 0.283772 0.611017
0.404074 0.428794 0.735042
0.526146 0.551202 0.831434
0.6327 0.657023 0.907805
0.71812 0.742489 0.964599
0.188251 0 1
0 0 0.270802
0.042359 0.0419623 0.39498
0.134798 0.137636 0.528893
0.256153 0.262028 0.656596
0.390829 0.406348 0.781155
0.515282 0.5337 0.879728
0.622599 0.641138 0.954177
0.709712 0.728954 1
0.0832227 0.0261082 0
0.165484 0.0703746 0
0.289265 0.144259 0
0.429953 0.234897 0
0.569604 0.331258 0
0.697871 0.419791 0
0.815198 0.503441 0
0.916472 0.577859 0
0.874144 0.588129 0.0420539
0.0857557 0.0204929 0
0.162127 0.0613565 0
0.283421 0.131319 0
0.421576 0.218936 0
0.561227 0.315236 0
0.69041 0.404868 0
0.716991 0.451896 0.0345464
0.761395 0.529229 0.109422
0.837644 0.650278 0.261341
0.0911421 0.0130007 0
0.159136 0.0531472 0
0.277424 0.118654 0
0.41323 0.203235 0
0.464088 0.251438 0.0191806
0.568627 0.354147 0.0805066
0.684932 0.493233 0.220478
0.773739 0.614084 0.360037
0.842985 0.712428 0.487526
0.113283 0.00434882 0
0.156176 0.0453193 0
0.191577 0.0628824 0.000183108
0.309819 0.143984 0.052369
0.449042 0.274525 0.164111
0.575448 0.411063 0.29836
0.685435 0.539162 0.435492
0.775326 0.652934 0.557183
0.840894 0.73875 0.653559
0.437003 0 0.319509
0.0906844 0.01355 0.0296483
0.188159 0.0665599 0.0980392
0.309789 0.161715 0.208011
0.43711 0.287388 0.338582
0.568673 0.429328 0.475578
0.678538 0.553017 0.5953
0.766079 0.6598 0.695125
0.833234 0.744381 0.772717
0.401892 0 0.600702
0.0785687 0.00485237 0.117159
0.175265 0.0605936 0.219974
0.295705 0.156176 0.342107
0.42002 0.278782 0.467338
0.554376 0.423423 0.600137
0.666804 0.548775 0.709178
0.754345 0.653422 0.792538
0.822873 0.738033 0.856809
0.388617 0 0.85948
0.068513 0 0.202182
0.159426 0.0473945 0.311757
0.279698 0.140963 0.43714
0.401953 0.260609 0.557595
0.537911 0.40676 0.685817
0.653742 0.535653 0.788876
0.742397 0.640803 0.863874
0.812314 0.726986 0.921355
0.370275 0 1
0.0706645 0 0.286687
0.141176 0.0311742 0.370398
0.26424 0.122744 0.502907
0.384985 0.239063 0.619699
0.520546 0.384543 0.744823
0.639017 0.516854 0.846723
0.730877 0.625711 0.920775
0.802426 0.71429 0.974609
0.35375 0 1
0.0764172 0 0.367178
0.119326 0.0134432 0.397543
0.24947 0.103929 0.547982
0.36965 0.217487 0.665919
0.50219 0.358511 0.787793
0.624735 0.496315 0.892683
0.718746 0.607736 0.96585
0.793622 0.700099 1
0.19408 0.00541695 0
0.287343 0.0558938 0
0.414328 0.122942 0
0.542092 0.205203 0
0.671931 0.297963 0
0.789288 0.387869 0
0.895048 0.472206 0
0.989563 0.549722 0
0.936156 0.564981 0.0425879
0.293523 0 0
0.279728 0.046479 0
0.404028 0.108949 0
0.532174 0.189563 0
0.661051 0.280812 0
0.780072 0.372122 0
0.789502 0.418479 0.0348211
0.825315 0.498116 0.107469
0.899504 0.624491 0.26041
0.89015 0 0.00357061
0.271168 0.0361486 0
0.393561 0.095491 0
0.522148 0.174197 0
0.546319 0.211902 0.0193942
0.64062 0.311742 0.0755169
0.752819 0.452338 0.216556
0.837064 0.576715 0.356313
0.904311 0.682292 0.485634
0.89015 0 0.00357061
0.266209 0.028275 0
0.283772 0.0437934 0.00325017
0.393332 0.108721 0.0500038
0.523095 0.2224 0.156374
0.648249 0.360693 0.290608
0.754284 0.493736 0.429541
0.837827 0.609949 0.5514
0.902205 0.705486 0.651896
0.642618 0 0.305516
0.160342 0 0.0300298
0.268116 0.038056 0.0943923
0.391806 0.11899 0.200443
0.511803 0.230686 0.325505
0.640223 0.372961 0.463828
0.74789 0.505257 0.588876
0.830259 0.616709 0.690776
0.894743 0.709697 0.771969
0.638498 0 0.63856
0.169863 0 0.139925
0.244404 0.0277256 0.2056
0.373617 0.109712 0.329503
0.494636 0.221118 0.452644
0.625345 0.364767 0.587289
0.735119 0.498772 0.701793
0.818738 0.609888 0.788876
0.884016 0.702617 0.856413
0.637873 0 0.920729
0.203952 0 0.295415
0.205676 0.00738537 0.274662
0.352056 0.0927901 0.420523
0.477348 0.20499 0.544579
0.605676 0.344991 0.670207
0.719554 0.483223 0.779675
0.804547 0.594797 0.858869
0.873014 0.691035 0.921157
0.628779 0 1
0.774273 0 1
0.200122 0.00169375 0.348913
0.329091 0.0734417 0.480217
0.457816 0.184192 0.60502
0.583627 0.3196 0.725048
0.703044 0.463218 0.836606
0.790494 0.57702 0.913832
0.86041 0.674632 0.972259
0.627359 0 1
0.773281 0 1
0.200946 0 0.411429
0.304524 0.0538033 0.516289
0.438605 0.162676 0.648081
0.562203 0.293217 0.765728
0.684138 0.438361 0.878386
0.776989 0.5579 0.957961
0.848493 0.657298 1
1 0 0.00474556
0.361578 0.0288396 0
0.49221 0.0901503 0
0.618067 0.168795 0
0.735851 0.256931 0
0.849592 0.349248 0
0.9505 0.435157 0
1 0.515694 0
0.971481 0.532341 0.0415045
1 0 0.00474556
0.342962 0.0160678 0
0.477882 0.0771191 0
0.606317 0.153582 0
0.722957 0.239536 0
0.838163 0.332372 0
0.837217 0.378973 0.0338445
0.868849 0.461051 0.105806
0.942809 0.591287 0.257694
1 0 0.00474556
0.340749 0.00823987 0
0.463645 0.0650797 0
0.593927 0.138552 0
0.592477 0.168551 0.0180209
0.680537 0.264027 0.0717937
0.797086 0.406821 0.210651
0.880949 0.533974 0.350378
0.947967 0.645655 0.481422
1 0 0.00474556
0.360754 0.00184634 0
0.336919 0.0218662 0.00314336
0.442725 0.0720989 0.0461433
0.563317 0.170779 0.145983
0.685679 0.302724 0.276997
0.796216 0.441108 0.417868
0.880674 0.562509 0.542535
0.946792 0.66775 0.647501
0.837278 0 0.316564
0.937362 0 0.523995
0.291981 0.00367742 0.0777142
0.432227 0.0730449 0.183612
0.550927 0.174441 0.306554
0.672969 0.306645 0.440711
0.788312 0.448325 0.572992
0.872618 0.566796 0.68014
0.938674 0.669825 0.766705
0.848096 0 0.667781
0.905501 0 0.848814
0.284016 0 0.188556
0.406332 0.0602426 0.301076
0.533364 0.164218 0.429084
0.656245 0.29543 0.558785
0.773709 0.438758 0.682567
0.859815 0.557855 0.776455
0.925994 0.659586 0.849378
0.849256 0 0.962371
0.885527 0 1
0.286168 0 0.291325
0.372732 0.0412146 0.37821
0.513924 0.147951 0.516793
0.635889 0.275883 0.639185
0.754177 0.419165 0.756222
0.8448 0.541924 0.84567
0.912581 0.644739 0.912001
0.845457 0 1
0.882155 0 1
0.289052 0 0.378668
0.330007 0.019501 0.416419
0.490745 0.127337 0.572915
0.612345 0.251301 0.692256
0.733577 0.395636 0.808972
0.828748 0.52253 0.898726
0.899657 0.628092 0.962844
0.848371 0 1
0.882155 0 1
0.294148 0 0.456336
0.301961 0.0059205 0.446693
0.466865 0.105959 0.611048
0.589853 0.226551 0.731685
0.712383 0.369833 0.848463
0.812589 0.501289 0.940139
0.886656 0.60972 1
1 0 0.00474556
0.430426 0.00560006 0
0.528283 0.0565042 0
0.65922 0.129747 0
0.772244 0.213031 0
0.885954 0.306218 0
0.987762 0.395529 0
1 0.478843 0
0.996185 0.497139 0.0400549
1 0 0.00474556
0.490532 0 0
0.509041 0.0440833 0
0.643656 0.114519 0
0.75874 0.196612 0
0.872221 0.288472 0
0.864469 0.335836 0.0319982
0.897688 0.421866 0.104326
0.974868 0.556573 0.254719
1 0 0.00474556
1 0 0.00474556
0.47451 0.0261387 0
0.626978 0.0995041 0
0.615335 0.127153 0.0153811
0.696422 0.213886 0.0684825
0.822904 0.358709 0.203494
0.908919 0.487831 0.343023
0.978943 0.606027 0.476295
1 0 0.00474556
1 0 0.00474556
0.343633 0 0
0.452766 0.0366674 0.0393072
0.581796 0.12398 0.134829
0.698375 0.242496 0.259968
0.81767 0.384268 0.402686
0.90808 0.512596 0.531945
0.976089 0.62385 0.639841
0.963195 0 0.324666
0.936889 0 0.528161
0.352117 0 0.0880903
0.431083 0.0316167 0.159899
0.566888 0.123308 0.285756
0.683604 0.241459 0.41442
0.805188 0.384604 0.550179
0.899199 0.514336 0.666697
0.966613 0.623072 0.75668
0.92079 0 0.681636
0.904952 0 0.855222
0.358495 0 0.214496
0.374395 0.0105287 0.246281
0.545022 0.110491 0.399573
0.665629 0.228763 0.526406
0.788754 0.372442 0.655177
0.884199 0.502876 0.759762
0.953841 0.61236 0.838529
0.89482 0 0.978821
0.884901 0 1
0.380362 0 0.346883
0.363149 0.00440986 0.331609
0.518898 0.0920882 0.477501
0.644678 0.210071 0.603326
0.765911 0.350027 0.724285
0.866773 0.484886 0.825956
0.938888 0.595712 0.89926
0.882155 0 1
0.882155 0 1
0.882155 0 1
0.367254 0.00299077 0.408591
0.48716 0.0702678 0.523934
0.620722 0.187472 0.654521
0.742031 0.324407 0.772946
0.849439 0.46453 0.877134
0.924163 0.577279 0.948089
0.882155 0 1
0.882155 0 1
0.882155 0 1
0.368582 0.000961318 0.468666
0.45066 0.0474098 0.54876
0.597101 0.164782 0.69192
0.718471 0.297978 0.809277
0.829847 0.44033 0.914824
0.909682 0.557641 0.987686
