filmlog/CameraDisplay2383.cube
TITLE "Generated by Resolve"
LUT_3D_SIZE 5
0 0.000137331 0.00122072
0.0697948 0.00144961 0
0.192035 7.62951e-05 0
0.298131 0 0
0.384771 0 0
0 0.0530709 0
0.0784161 0.071107 0
0.252903 0.0959029 0
0.400549 0.10576 0
0.501717 0.107042 0
0 0.142763 0
0.0873274 0.200824 0
0.322744 0.271687 0.00144961
0.510384 0.301198 0.00486763
0.633768 0.309361 0.00567636
0 0.216617 0
0.0721447 0.309621 0
0.359014 0.43003 0.00509651
0.573449 0.481102 0.00944533
0.712169 0.497383 0.0106355
0 0.269306 0
0.0643473 0.387732 0
0.371374 0.541085 0.0059968
0.599252 0.60827 0.0109255
0.746853 0.631861 0.0124056
0 0 0.0668193
0.0692149 0 0.0735332
0.191959 0 0.0755627
0.310658 0 0.0812238
0.400168 0 0.0834363
0 0.0627909 0.0828412
0.0763714 0.082948 0.0916609
0.257527 0.10428 0.105348
0.402731 0.1084 0.107683
0.500771 0.105928 0.105898
0 0.171328 0.102617
0.0559396 0.219242 0.108125
0.31371 0.287633 0.132952
0.498451 0.309758 0.137087
0.617945 0.313176 0.135409
0 0.258778 0.112184
0.0378729 0.330236 0.113313
0.335134 0.444511 0.142992
0.544503 0.485344 0.147341
0.677928 0.495674 0.145632
0 0.320073 0.115068
0.0284428 0.406378 0.113893
0.337301 0.550591 0.145205
0.558282 0.605463 0.149874
0.699306 0.622187 0.147875
0 0 0.162219
0.0678874 0 0.1729
0.204044 0 0.190982
0.325902 0 0.201511
0.417502 0 0.206226
0 0.0628367 0.198917
0.0686046 0.0905013 0.222904
0.264454 0.114611 0.255482
0.414893 0.119173 0.264363
0.515587 0.116793 0.264286
0 0.190188 0.246708
0.0378424 0.237507 0.261509
0.314336 0.31487 0.316777
0.507042 0.33901 0.332372
0.630381 0.342962 0.334264
0 0.288808 0.268391
0.0301366 0.361624 0.282887
0.328206 0.482506 0.344671
0.547463 0.527123 0.364858
0.68545 0.538705 0.368536
0 0.355138 0.27509
0.0301671 0.448188 0.292103
0.32549 0.593652 0.353719
0.557458 0.65388 0.376883
0.703441 0.672587 0.38201
0 0 0.240879
0.0686046 0 0.25742
0.210513 0 0.284672
0.334981 0 0.299351
0.427802 0 0.305852
0 0.0554208 0.285557
0.0604868 0.0917983 0.325978
0.26566 0.117586 0.374914
0.418601 0.122148 0.389029
0.520653 0.119631 0.39028
0 0.194659 0.359609
0.0299229 0.243915 0.382986
0.31043 0.325277 0.459678
0.507286 0.3505 0.483696
0.632685 0.354665 0.488045
0 0.300252 0.392157
0.0317845 0.377188 0.419501
0.319341 0.497368 0.498344
0.543954 0.544137 0.529442
0.684642 0.556512 0.536706
0 0.369787 0.40145
0.0318151 0.466773 0.432044
0.313573 0.610941 0.510582
0.551827 0.674205 0.546197
0.700664 0.694118 0.555703
0 0 0.304112
0.0680095 0 0.324849
0.213413 0 0.359167
0.34052 0 0.37789
0.434211 0 0.385351
0 0.0460822 0.348043
0.0558328 0.0913863 0.404974
0.264897 0.118044 0.465629
0.419303 0.122591 0.483894
0.522362 0.120043 0.486381
0 0.19585 0.446403
0.0289311 0.246616 0.476371
0.30602 0.328511 0.565515
0.505058 0.354437 0.595895
0.631861 0.358816 0.602213
0 0.303563 0.48423
0.0322271 0.383169 0.521218
0.311894 0.502373 0.61091
0.539544 0.550561 0.65005
0.681788 0.563378 0.659831
0 0.374716 0.495109
0.0324102 0.474479 0.535882
0.304234 0.617227 0.624857
0.545983 0.682353 0.669413
0.696635 0.702953 0.681971
