filmlog/CameraDisplay2383.cube
TITLE "Generated by Resolve"
LUT_3D_SIZE 9
0 0.000137331 0.00122072
0.0271305 0 0
0.0697948 0.00144961 0
0.126207 0.00148013 0
0.192035 7.62951e-05 0
0.245975 0 0
0.298131 0 0
0.345495 0 0
0.384771 0 0
0 0.0219272 0
0.0230411 0.0237278 0
0.0717327 0.028275 0
0.138643 0.0317693 0
0.217472 0.0356451 0
0.286641 0.0373693 0
0.344549 0.0371252 0
0.393668 0.0360723 0
0.433738 0.0349737 0
0 0.0530709 0
0.0175021 0.0574655 0
0.0784161 0.071107 0
0.1617 0.0847334 0
0.252903 0.0959029 0
0.333913 0.102754 0
0.400549 0.10576 0
0.456443 0.106828 0
0.501717 0.107042 0
0 0.0950637 0
0.00706493 0.101717 0
0.0846265 0.131579 0
0.184588 0.159396 0
0.29015 0.177966 0
0.382589 0.18967 0
0.457877 0.195834 0.000701915
0.520378 0.198871 0.00115969
0.570642 0.200336 0.00129702
0 0.142763 0
0.00769055 0.156634 0
0.0873274 0.200824 0
0.202701 0.242008 0
0.322744 0.271687 0.00144961
0.426871 0.290837 0.00370794
0.510384 0.301198 0.00486763
0.579034 0.3066 0.00546273
0.633768 0.309361 0.00567636
0 0.183032 0
0.00825513 0.205066 0
0.0830549 0.260227 0
0.21387 0.316518 0
0.345052 0.356588 0.0037232
0.458091 0.382757 0.00628672
0.547997 0.397177 0.00764477
0.621592 0.40502 0.00834669
0.680064 0.409277 0.00863661
0 0.216617 0
0.00851453 0.247669 0
0.0721447 0.309621 0
0.219837 0.380728 0.000427253
0.359014 0.43003 0.00509651
0.478401 0.462608 0.00791943
0.573449 0.481102 0.00944533
0.650706 0.491432 0.0102541
0.712169 0.497383 0.0106355
0 0.245304 0
0.00848402 0.28452 0
0.066865 0.352972 0
0.22269 0.435401 0.000885023
0.367391 0.492561 0.00585946
0.491508 0.530755 0.00888075
0.590051 0.552789 0.010544
0.67039 0.56553 0.0114595
0.734096 0.573129 0.011902
0 0.269306 0
0.00810254 0.313909 0
0.0643473 0.387732 0
0.223331 0.478065 0.000839246
0.371374 0.541085 0.0059968
0.498299 0.583444 0.00917067
0.599252 0.60827 0.0109255
0.681468 0.622873 0.011902
0.746853 0.631861 0.0124056
0 0 0.0299687
0.0259709 0 0.0290074
0.0694285 0.000869764 0.0300298
0.127672 0.000946059 0.030457
0.187732 0 0.027863
0.247715 0 0.028336
0.302358 0 0.0289921
0.350515 0 0.0292668
0.39028 0 0.02916
0 0.0229496 0.0281071
0.0211948 0.0246128 0.027451
0.0720836 0.0297246 0.0298924
0.142016 0.0336919 0.0314183
0.217685 0.0345617 0.0314488
0.282811 0.0332036 0.0302434
0.335912 0.0298009 0.0280766
0.378592 0.024506 0.0251164
0.413214 0.0203555 0.0225223
0 0.0573281 0.0314183
0.0106355 0.0601816 0.0286107
0.0782788 0.0766461 0.0337072
0.162997 0.088838 0.0359197
0.251484 0.0961318 0.0363775
0.328466 0.0991836 0.0347753
0.391379 0.0992905 0.0320745
0.444083 0.098085 0.0296788
0.486854 0.0967575 0.0280156
0 0.103899 0.0352789
0.00772107 0.111788 0.0318608
0.0811475 0.140078 0.0369116
0.181384 0.163272 0.0393835
0.283284 0.176852 0.0378576
0.371344 0.184497 0.0345617
0.442725 0.18761 0.0311437
0.501717 0.188235 0.0268254
0.550134 0.188602 0.0252384
0 0.156725 0.0387579
0.0090486 0.171786 0.0349889
0.071458 0.206424 0.0370947
0.193133 0.243153 0.0375067
0.308583 0.266499 0.0325933
0.40882 0.281956 0.0289006
0.490608 0.290898 0.0287633
0.557656 0.295109 0.0275731
0.611292 0.297185 0.0267491
0 0.200107 0.0405432
0.00970474 0.222278 0.0364843
0.0604562 0.262913 0.0351415
0.198917 0.314244 0.0339971
0.326268 0.348623 0.0288853
0.437079 0.372625 0.0286107
0.525673 0.385992 0.0285191
0.598535 0.393408 0.0293278
0.656474 0.397436 0.0296941
0 0.236912 0.0411231
0.00984207 0.265217 0.0367132
0.0526131 0.31043 0.0319219
0.200061 0.373693 0.0283207
0.337041 0.419791 0.0283818
0.454871 0.450843 0.0287633
0.549187 0.469108 0.0307164
0.626108 0.479332 0.0318608
0.687114 0.485176 0.0323949
0 0.268376 0.0411383
0.00970474 0.301823 0.036408
0.0428016 0.349187 0.0287785
0.199527 0.425071 0.025452
0.342428 0.479561 0.0267033
0.465614 0.517296 0.0298314
0.563806 0.539391 0.0321508
0.643748 0.552209 0.033463
0.707118 0.559823 0.0341344
0 0.293904 0.0410773
0.00929274 0.331182 0.0362097
0.0381476 0.381018 0.0274357
0.198001 0.465461 0.0249943
0.344076 0.525628 0.0259709
0.470192 0.567895 0.0300755
0.570672 0.592844 0.0325322
0.652506 0.60763 0.0339818
0.717388 0.616617 0.0347295
0 0 0.0668193
0.0248722 0 0.0693217
0.0692149 0 0.0735332
0.127657 0 0.0756542
0.191959 0 0.0755627
0.254841 0 0.0789044
0.310658 0 0.0812238
0.359731 0 0.0827649
0.400168 0 0.0834363
0 0.0228122 0.0712596
0.0177157 0.0255741 0.0718547
0.0722972 0.0314031 0.0798352
0.145022 0.0357214 0.0854963
0.222797 0.0367437 0.0885634
0.289845 0.0354314 0.089128
0.34461 0.0321355 0.0878462
0.3888 0.0268864 0.0851148
0.42472 0.0228275 0.0827192
0 0.0627909 0.0828412
0.00805676 0.0656596 0.0802167
0.0763714 0.082948 0.0916609
0.165545 0.096376 0.100206
0.257527 0.10428 0.105348
0.337469 0.107881 0.107485
0.402731 0.1084 0.107683
0.457038 0.107332 0.106935
0.500771 0.105928 0.105898
0 0.114824 0.093843
0.00917067 0.124239 0.0924697
0.0718395 0.150362 0.10193
0.182239 0.17583 0.114229
0.289464 0.191119 0.120974
0.381247 0.199573 0.123919
0.4551 0.203082 0.124575
0.515969 0.203922 0.124041
0.564645 0.203677 0.123125
0 0.171328 0.102617
0.0107729 0.188403 0.102449
0.0559396 0.219242 0.108125
0.191546 0.261769 0.124804
0.31371 0.287633 0.132952
0.416876 0.3028 0.136431
0.498451 0.309758 0.137087
0.56495 0.312383 0.136446
0.617945 0.313176 0.135409
0 0.219074 0.109087
0.0116426 0.243458 0.109041
0.0419318 0.278431 0.111009
0.1944 0.337377 0.130861
0.328222 0.373053 0.13991
0.439841 0.394385 0.143603
0.527337 0.404776 0.144198
0.598276 0.409308 0.143374
0.654643 0.411292 0.142245
0 0.258778 0.112184
0.0119326 0.289769 0.112642
0.0378729 0.330236 0.113313
0.193362 0.400351 0.133425
0.335134 0.444511 0.142992
0.452567 0.471412 0.146731
0.544503 0.485344 0.147341
0.618891 0.49218 0.146639
0.677928 0.495674 0.145632
0 0.292714 0.11397
0.0118868 0.328923 0.114656
0.0325322 0.372869 0.113771
0.190234 0.452888 0.134401
0.337606 0.504265 0.144274
0.458946 0.535912 0.147982
0.554162 0.553094 0.148745
0.631251 0.562188 0.148333
0.692226 0.567071 0.147127
0 0.320073 0.115068
0.0115358 0.36025 0.11606
0.0284428 0.406378 0.113893
0.186587 0.493782 0.135012
0.337301 0.550591 0.145205
0.461006 0.585809 0.148943
0.558282 0.605463 0.149874
0.637095 0.616236 0.149523
0.699306 0.622187 0.147875
0 0 0.113695
0.0224918 0 0.114702
0.0660716 0 0.12137
0.126772 0 0.128008
0.198672 0 0.135302
0.262837 0 0.140673
0.319326 0 0.144167
0.368811 0 0.146578
0.409628 0 0.147616
0 0.0195926 0.121233
0.0126497 0.0252384 0.125704
0.0723125 0.0320745 0.140856
0.147341 0.0364996 0.15079
0.226566 0.0373693 0.156619
0.294804 0.0359503 0.158679
0.349905 0.0321202 0.157641
0.394614 0.0267948 0.154742
0.431189 0.0229343 0.152193
0 0.0645609 0.144305
0.00859083 0.0699016 0.145357
0.073579 0.0879835 0.161349
0.167117 0.102419 0.17528
0.261952 0.110811 0.183978
0.343847 0.114595 0.188266
0.410437 0.115267 0.189731
0.465705 0.114321 0.1897
0.510201 0.113008 0.189029
0 0.122652 0.163699
0.0103761 0.134112 0.166598
0.0579843 0.157641 0.17612
0.181689 0.186328 0.197589
0.292882 0.20267 0.209186
0.387228 0.211673 0.215183
0.462638 0.215427 0.217502
0.524544 0.216373 0.217914
0.573983 0.216144 0.217456
0 0.184787 0.179873
0.012253 0.202335 0.182559
0.0415503 0.229191 0.18732
0.187701 0.276707 0.214847
0.315038 0.304295 0.229328
0.421073 0.320226 0.236774
0.504479 0.327642 0.239719
0.572305 0.330526 0.24036
0.62623 0.331395 0.240055
0 0.234073 0.18793
0.0132753 0.261234 0.193179
0.0354925 0.294224 0.196399
0.187213 0.355505 0.225452
0.327382 0.393668 0.242237
0.442222 0.416068 0.250767
0.531853 0.427146 0.2542
0.604227 0.432074 0.2551
0.661692 0.434256 0.254978
0 0.277378 0.194461
0.0136416 0.310079 0.199298
0.0286412 0.346853 0.20029
0.183261 0.420325 0.23093
0.332433 0.467857 0.24947
0.453376 0.496193 0.258778
0.547509 0.510933 0.262684
0.623468 0.518242 0.263905
0.683619 0.521981 0.264012
0 0.312627 0.196689
0.0136416 0.351354 0.203082
0.0288548 0.393988 0.204501
0.177493 0.473869 0.233616
0.333303 0.529488 0.253513
0.458442 0.562966 0.263432
0.555932 0.581094 0.267781
0.634562 0.590677 0.269306
0.696818 0.595956 0.269596
0 0.341192 0.198535
0.0133211 0.384161 0.205524
0.0285954 0.431083 0.207126
0.171908 0.515343 0.234989
0.331853 0.577035 0.255909
0.459571 0.614374 0.26627
0.559152 0.635065 0.270924
0.639506 0.646403 0.272663
0.703105 0.652888 0.273106
0 0 0.162219
0.0210269 0 0.162768
0.0678874 0 0.1729
0.130983 0 0.181872
0.204044 0 0.190982
0.269062 0 0.197375
0.325902 0 0.201511
0.376181 0 0.204593
0.417502 0 0.206226
0 0.010132 0.162539
0.00961318 0.0235599 0.176028
0.0718853 0.0315404 0.196323
0.148363 0.0358434 0.209415
0.228397 0.0365911 0.217151
0.296742 0.0345006 0.219913
0.351385 0.0296025 0.218677
0.396658 0.024567 0.216037
0.43212 0.0197604 0.212589
0 0.0628367 0.198917
0.00895705 0.0716716 0.204913
0.0686046 0.0905013 0.222904
0.167712 0.105959 0.243244
0.264454 0.114611 0.255482
0.347616 0.118547 0.261875
0.414893 0.119173 0.264363
0.470695 0.118166 0.264759
0.515587 0.116793 0.264286
0 0.125795 0.225834
0.0110933 0.139666 0.233387
0.0522774 0.16289 0.244205
0.180179 0.192905 0.273228
0.294102 0.210056 0.28957
0.39028 0.219471 0.298375
0.466682 0.223316 0.302129
0.529259 0.224231 0.303197
0.579293 0.224002 0.303105
0 0.190188 0.246708
0.0131838 0.211109 0.255573
0.0378424 0.237507 0.261509
0.183215 0.286 0.296407
0.314336 0.31487 0.316777
0.422354 0.331319 0.327581
0.507042 0.33901 0.332372
0.575738 0.342 0.33402
0.630381 0.342962 0.334264
0 0.244419 0.261006
0.014313 0.272587 0.27013
0.0298619 0.3037 0.273411
0.179797 0.366644 0.31075
0.324666 0.406638 0.334493
0.441825 0.429755 0.346883
0.532799 0.441199 0.352529
0.606241 0.446372 0.354696
0.66453 0.448692 0.355276
0 0.288808 0.268391
0.0147097 0.322988 0.27837
0.0301366 0.361624 0.282887
0.173098 0.432425 0.318151
0.328206 0.482506 0.344671
0.451667 0.511772 0.358343
0.547463 0.527123 0.364858
0.624475 0.534783 0.36759
0.68545 0.538705 0.368536
0 0.325643 0.272526
0.0147555 0.365606 0.283528
0.0304265 0.410025 0.288594
0.165225 0.486488 0.321736
0.32781 0.545327 0.350484
0.455772 0.579995 0.365209
0.554955 0.59884 0.372412
0.634745 0.608911 0.375692
0.69778 0.61445 0.376974
0 0.355138 0.27509
0.0144198 0.399054 0.286427
0.0301671 0.448188 0.292103
0.157702 0.528084 0.323232
0.32549 0.593652 0.353719
0.456168 0.632364 0.369177
0.557458 0.65388 0.376883
0.639048 0.665782 0.380499
0.703441 0.672587 0.38201
0 0 0.203403
0.0180667 0 0.202655
0.0684977 0 0.217197
0.133745 0 0.229038
0.207782 0 0.240085
0.273762 0 0.248051
0.331075 0 0.252949
0.381476 0 0.256275
0.423133 0 0.258335
0 0.00633249 0.202152
0.00794995 0.0213779 0.218875
0.0711223 0.0305486 0.244907
0.148577 0.0346838 0.261341
0.22884 0.0349889 0.270848
0.296361 0.0313268 0.273533
0.351415 0.0266728 0.272801
0.396124 0.0211337 0.269535
0.431571 0.0163424 0.265705
0 0.0594339 0.245594
0.00889601 0.070634 0.255756
0.0641337 0.0916609 0.277775
0.167452 0.107897 0.303716
0.265553 0.116747 0.319081
0.349584 0.120745 0.327291
0.417441 0.12134 0.330678
0.473564 0.120241 0.331487
0.518807 0.118837 0.331228
0 0.126818 0.281788
0.0114443 0.142458 0.292576
0.0454414 0.165194 0.303807
0.178012 0.196933 0.340002
0.294102 0.214679 0.360449
0.391379 0.224338 0.371649
0.468681 0.22829 0.376638
0.531762 0.229221 0.378332
0.582193 0.228962 0.378576
0 0.194156 0.308141
0.0136416 0.215412 0.319356
0.0323339 0.241367 0.325811
0.178744 0.291661 0.367819
0.312642 0.321492 0.39324
0.42208 0.338384 0.406943
0.507683 0.346258 0.413291
0.577035 0.34931 0.415778
0.632181 0.350301 0.416495
0 0.249042 0.323857
0.0148775 0.278935 0.337407
0.0301366 0.311604 0.343893
0.172686 0.373281 0.384924
0.321462 0.414801 0.414694
0.440177 0.438453 0.430365
0.532265 0.450217 0.437888
0.606485 0.455558 0.441108
0.665278 0.457969 0.442283
0 0.294835 0.333959
0.0153811 0.331548 0.348592
0.0311131 0.371221 0.355871
0.163714 0.439597 0.393652
0.323705 0.491798 0.427131
0.449042 0.521798 0.444495
0.545953 0.537545 0.453101
0.623835 0.545495 0.457099
0.685466 0.549615 0.458778
0 0.333501 0.33933
0.0154269 0.374853 0.354513
0.0314794 0.420829 0.363058
0.152453 0.493553 0.397421
0.322316 0.555444 0.434241
0.452354 0.591012 0.452979
0.552819 0.610437 0.462547
0.633463 0.620859 0.467216
0.697139 0.626612 0.469322
0 0.363561 0.342199
0.0151217 0.409049 0.358053
0.0311894 0.459571 0.367071
0.140993 0.534508 0.398322
0.319234 0.604303 0.43801
0.452171 0.644053 0.45771
0.554849 0.666224 0.467918
0.637263 0.678569 0.47303
0.702312 0.685634 0.475441
0 0 0.240879
0.0148013 0 0.238468
0.0686046 0 0.25742
0.135409 0 0.271763
0.210513 0 0.284672
0.277195 0 0.294087
0.334981 0 0.299351
0.385794 0 0.303395
0.427802 0 0.305852
0 0.00596628 0.240986
0.00691234 0.0186923 0.256519
0.0702373 0.0292515 0.287999
0.148074 0.0331121 0.307195
0.228092 0.0325322 0.317861
0.295491 0.0284276 0.321111
0.350576 0.0237125 0.320592
0.394339 0.0174716 0.31632
0.433539 0.0152438 0.315297
0 0.0554208 0.285557
0.00875868 0.0694285 0.300832
0.0604868 0.0917983 0.325978
0.166735 0.108644 0.356863
0.26566 0.117586 0.374914
0.350317 0.121584 0.384741
0.418601 0.122148 0.389029
0.475135 0.121065 0.390326
0.520653 0.119631 0.39028
0 0.126955 0.331441
0.0115206 0.14287 0.343435
0.0387274 0.165454 0.355261
0.175784 0.199069 0.398337
0.293278 0.217182 0.422339
0.39144 0.227039 0.43563
0.4692 0.231022 0.441733
0.532723 0.231922 0.444007
0.583535 0.231693 0.444587
0 0.194659 0.359609
0.0139773 0.21886 0.376577
0.0299229 0.243915 0.382986
0.174365 0.294621 0.429709
0.31043 0.325277 0.459678
0.420981 0.342519 0.475975
0.507286 0.3505 0.483696
0.577096 0.353613 0.4869
0.632685 0.354665 0.488045
0 0.252872 0.380209
0.0152438 0.28336 0.397421
0.0306859 0.316655 0.405737
0.166293 0.376745 0.448875
0.31809 0.419562 0.484123
0.437995 0.443732 0.5028
0.530999 0.455772 0.51194
0.605768 0.461204 0.515999
0.665019 0.463676 0.517678
0 0.300252 0.392157
0.0157321 0.336019 0.408682
0.0317845 0.377188 0.419501
0.155077 0.44332 0.458549
0.319341 0.497368 0.498344
0.446082 0.528038 0.51902
0.543954 0.544137 0.529442
0.622538 0.552285 0.534432
0.684642 0.556512 0.536706
0 0.338613 0.397726
0.0158389 0.380682 0.41651
0.0320745 0.427588 0.427802
0.139055 0.496544 0.461753
0.317143 0.561639 0.506447
0.448737 0.597986 0.52871
0.550195 0.617823 0.54023
0.631617 0.628534 0.546029
0.695827 0.63444 0.548806
0 0.369787 0.40145
0.0155795 0.415991 0.420691
0.0318151 0.466773 0.432044
0.124422 0.536767 0.461845
0.313573 0.610941 0.510582
0.448142 0.651545 0.533944
0.551827 0.674205 0.546197
0.635065 0.68687 0.55256
0.700664 0.694118 0.555703
0 0 0.274617
0.0117494 0 0.270848
0.0683146 0 0.293431
0.13637 0 0.309972
0.212024 0 0.324346
0.279469 0 0.334859
0.338476 0 0.341741
0.389105 0 0.345663
0.431495 0 0.348516
0 0.00593576 0.276188
0.0059968 0.0154879 0.288975
0.0691539 0.0276493 0.325856
0.147066 0.031281 0.347417
0.226596 0.0295567 0.358709
0.294545 0.0260319 0.363272
0.348821 0.0205539 0.362112
0.394339 0.0156252 0.359258
0.435767 0.014847 0.360189
0 0.0509957 0.319966
0.00846876 0.0672618 0.339635
0.0572671 0.0914473 0.368292
0.165743 0.108843 0.403479
0.265293 0.1178 0.42388
0.350332 0.121767 0.435126
0.419074 0.122362 0.440238
0.475944 0.121279 0.442008
0.521706 0.119844 0.442191
0 0.125292 0.372274
0.0114748 0.14226 0.388128
0.0377661 0.166125 0.402152
0.173602 0.200137 0.44921
0.291951 0.218479 0.476219
0.390723 0.228428 0.491341
0.468971 0.232471 0.498451
0.532876 0.233402 0.501289
0.584009 0.233204 0.50219
0 0.196536 0.407889
0.0140078 0.219196 0.424399
0.0288243 0.245518 0.433402
0.170428 0.296056 0.48336
0.30811 0.327321 0.517266
0.41944 0.344839 0.535836
0.506249 0.352956 0.544762
0.576547 0.35613 0.548623
0.632441 0.357214 0.550134
0 0.254307 0.429053
0.0153811 0.285054 0.448051
0.0310063 0.319753 0.459556
0.160845 0.378378 0.504112
0.314778 0.422187 0.544106
0.435737 0.44683 0.565438
0.52932 0.459052 0.575967
0.604578 0.464607 0.580789
0.664164 0.46714 0.582895
0 0.302144 0.441886
0.0159152 0.338689 0.461189
0.0320745 0.380957 0.474968
0.145663 0.444511 0.513863
0.315312 0.500557 0.559747
0.443137 0.531762 0.583291
0.541695 0.548165 0.595285
0.620844 0.556466 0.601129
0.68333 0.560769 0.603876
0 0.341756 0.4486
0.0160525 0.383856 0.469581
0.0324407 0.431678 0.483619
0.126192 0.497047 0.516457
0.312505 0.565316 0.568612
0.445335 0.602289 0.593942
0.547494 0.622446 0.607126
0.629496 0.633371 0.61387
0.694148 0.639399 0.617197
0 0.372808 0.45243
0.0157778 0.419135 0.473747
0.0322118 0.471504 0.488609
0.105241 0.535241 0.514366
0.308507 0.614939 0.572976
0.444327 0.656245 0.599512
0.548806 0.679271 0.613535
0.63267 0.69218 0.62092
0.698711 0.69958 0.624674
0 0 0.304112
0.0110781 0 0.300496
0.0680095 0 0.324849
0.13695 0 0.343236
0.213413 0 0.359167
0.281407 0 0.370535
0.34052 0 0.37789
0.391775 0 0.382528
0.434211 0 0.385351
0 0.00585946 0.306691
0.00514229 0.012604 0.316823
0.0682689 0.0265049 0.358602
0.146258 0.0298924 0.382086
0.225681 0.0276646 0.394202
0.294118 0.0246128 0.399924
0.347601 0.0183719 0.398001
0.395773 0.0153658 0.397696
0.437293 0.0145266 0.398718
0 0.0460822 0.348043
0.00827039 0.0660563 0.373449
0.0558328 0.0913863 0.404974
0.164904 0.10901 0.443244
0.264897 0.118044 0.465629
0.350301 0.122026 0.478096
0.419303 0.122591 0.483894
0.476417 0.121508 0.486015
0.522362 0.120043 0.486381
0 0.123583 0.407401
0.011429 0.142061 0.426368
0.03682 0.166506 0.442039
0.171649 0.200763 0.492149
0.290715 0.219303 0.521691
0.389899 0.229343 0.538323
0.468482 0.233463 0.546319
0.532708 0.23444 0.549645
0.584085 0.234241 0.550835
0 0.19585 0.446403
0.014023 0.21973 0.465827
0.0289311 0.246616 0.476371
0.167163 0.296803 0.528405
0.30602 0.328511 0.565515
0.417853 0.346197 0.585916
0.505058 0.354437 0.595895
0.575692 0.357702 0.600351
0.631861 0.358816 0.602213
0 0.255314 0.470237
0.0154421 0.286259 0.491341
0.0311131 0.321279 0.504402
0.155856 0.379049 0.550225
0.311986 0.423667 0.594186
0.43357 0.448615 0.617624
0.527565 0.461006 0.629328
0.603189 0.466651 0.634821
0.663081 0.469245 0.637339
0 0.303563 0.48423
0.0159915 0.340337 0.505318
0.0322271 0.383169 0.521218
0.137911 0.444724 0.55993
0.311894 0.502373 0.61091
0.440482 0.533944 0.636759
0.539544 0.550561 0.65005
0.619028 0.558999 0.656641
0.681788 0.563378 0.659831
0 0.343389 0.49102
0.0161746 0.386313 0.514549
0.0326238 0.434409 0.530694
0.113848 0.495964 0.561181
0.308583 0.567391 0.620325
0.442191 0.604807 0.648112
0.5449 0.625238 0.662699
0.627344 0.636316 0.670253
0.692302 0.642451 0.674083
0 0.374716 0.495109
0.0158999 0.421653 0.518914
0.0324102 0.474479 0.535882
0.0843214 0.530846 0.555535
0.304234 0.617227 0.624857
0.440909 0.659022 0.653925
0.545983 0.682353 0.669413
0.630289 0.695445 0.677684
0.696635 0.702953 0.681971
