filmlog/CameraDisplay2383_3.cube
TITLE "Generated by Resolve"
LUT_3D_SIZE 33
0 0.0610819 0
0 0.069337 0
0 0.0781567 0
0 0.0874037 0
0 0.0968948 0
0 0.106462 0
0 0.115785 0
0 0.124941 0
0 0.133639 0
0 0.141222 0
0 0.148791 0
0 0.155474 0
0 0.161791 0
0 0.168048 0
0 0.175006 0
0 0.18201 0
0 0.188922 0
0 0.195178 0
0 0.201022 0
0 0.20679 0
0 0.212406 0
0 0.217014 0
0 0.22153 0
0 0.225971 0
0 0.230259 0
0 0.232532 0
0 0.241596 0
0 0.253101 0
0 0.266285 0
0.000183108 0.281804 0
0.00386053 0.299779 0
0.00741588 0.315694 0
0.0142061 0.326635 0
0 0.059556 0
0 0.0677653 0
0 0.0764324 0
0 0.0856947 0
0 0.095079 0
0 0.104631 0
0 0.114031 0
0 0.123201 0
0 0.132174 0
0 0.139788 0
0 0.147387 0
0 0.154284 0
0 0.160647 0
0 0.166888 0
0 0.173724 0
0 0.180713 0
0 0.187655 0
0 0.194064 0
0 0.199954 0
0 0.205722 0
0 0.211475 0
0 0.216129 0
0 0.220691 0
0 0.225177 0
0 0.229572 0
0 0.231815 0
0 0.240833 0
0 0.252369 0
0 0.267308 0
0 0.282078 0
0.00360113 0.299382 0
0.00906386 0.322637 0.00430304
0.0151675 0.343328 0.0150759
0 0.0580606 0
0 0.0662089 0
0 0.0746929 0
0 0.0839094 0
0 0.0932784 0
0 0.102876 0
0 0.112337 0
0 0.121523 0
0 0.130602 0
0 0.138415 0
0 0.145983 0
0 0.153109 0
0 0.159457 0
0 0.165728 0
0 0.172366 0
0 0.1794 0
0 0.186343 0
0 0.19295 0
0 0.19884 0
0 0.204654 0
0 0.210391 0
0 0.21529 0
0 0.219852 0
0 0.224338 0
0 0.228733 0
0 0.231098 0
0 0.241489 0
0 0.252857 0
0 0.272725 0
0.00157168 0.294057 0.00645457
0.00679026 0.317037 0.0176699
0.0116579 0.340475 0.0282139
0.0163119 0.364218 0.0406348
0 0.0566262 0
0 0.0646677 0
0 0.0729992 0
0 0.0822003 0
0 0.0914931 0
0 0.101076 0
0 0.110597 0
0 0.119783 0
0 0.128939 0
0 0.13698 0
0 0.144533 0
0 0.151873 0
0 0.158267 0
0 0.164569 0
0 0.171023 0
0 0.178103 0
0 0.185077 0
0 0.191852 0
0 0.197726 0
0 0.203586 0
0 0.209323 0
0 0.214405 0
0 0.218967 0
0 0.223499 0
0 0.23035 0
0 0.240909 0
0 0.253162 0
0 0.269078 0.00918593
0 0.288014 0.0183108
0.00373846 0.309819 0.0279545
0.00889601 0.3337 0.0402075
0.0137942 0.357702 0.05449
0.0184024 0.381613 0.0703899
0 0.0551614 0
0 0.0631418 0
0 0.0714427 0
0 0.0804913 0
0 0.0897383 0
0 0.0992905 0
0 0.108812 0
0 0.118059 0
0 0.12723 0
0 0.135561 0
0 0.14313 0
0 0.150622 0
0 0.157076 0
0 0.163363 0
0 0.169741 0
0 0.176806 0
0 0.183764 0
0 0.190616 0
0 0.196674 0
0 0.202472 0
0 0.208255 0
0 0.213565 0
0 0.219654 0
0 0.233158 0
0 0.242023 0.00500496
0 0.249897 0.0119936
0 0.264607 0.019028
0 0.283253 0.027924
0.000579843 0.303349 0.0390631
0.00582895 0.325948 0.0527352
0.0109255 0.349874 0.0686503
0.0158083 0.37406 0.0859693
0.0203708 0.397482 0.103548
0 0.0537575 0
0 0.0616007 0
0 0.0698405 0
0 0.0787518 0
0 0.0880293 0
0 0.0975052 0
0 0.107027 0
0 0.11635 0
0 0.125475 0
0 0.134096 0
0 0.141741 0
0 0.149264 0
0 0.155886 0
0 0.162219 0
0 0.16846 0
0 0.175448 0
0 0.182452 0
0 0.189364 0
0 0.19556 0
0 0.201404 0
0 0.208148 0
0 0.222919 0
0 0.231586 0.00425727
0 0.241871 0.0137636
0 0.253056 0.0221561
0 0.262989 0.0294194
0 0.278706 0.038819
0 0.297887 0.0513771
0.00256352 0.318379 0.0660716
0.00781262 0.341421 0.0829633
0.0128023 0.364981 0.100832
0.0175784 0.388647 0.119326
0.0220798 0.410758 0.137224
0 0.0523384 0
0 0.060029 0
0 0.0683146 0
0 0.0770275 0
0 0.0862745 0
0 0.0956893 0
0 0.105257 0
0 0.114656 0
0 0.123781 0
0 0.132677 0
0 0.140307 0
0 0.14786 0
0 0.154696 0
0 0.161013 0
0 0.1673 0
0 0.174151 0
0 0.18114 0
0 0.188098 0
0 0.195132 0
0 0.210101 0
0 0.219745 0.00357061
0 0.2309 0.0131228
0 0.241794 0.0213931
0 0.253681 0.0309453
0 0.266072 0.0422522
0 0.2766 0.0522469
0 0.292775 0.0647593
0 0.312245 0.080293
0.0043946 0.332494 0.0970779
0.00958267 0.355108 0.115251
0.014313 0.377401 0.133593
0.0189059 0.400107 0.152407
0.0234836 0.421317 0.170367
0 0.0508888 0
0 0.0585336 0
0 0.0667582 0
0 0.0752728 0
0 0.0845197 0
0 0.0938888 0
0 0.103441 0
0 0.112902 0
0 0.122103 0
0 0.131197 0
0 0.138872 0
0 0.146456 0
0 0.153521 0
0 0.159869 0
0 0.16614 0
0 0.172793 0
0 0.181018 0
0 0.195666 0
0 0.206271 0.00296025
0 0.217334 0.0123598
0 0.229068 0.0205997
0 0.241642 0.0300145
0 0.254078 0.0410315
0 0.266575 0.0538338
0 0.278889 0.0681163
0 0.289601 0.0803082
0 0.305684 0.094667
0.000823987 0.324987 0.111666
0.00588998 0.344244 0.128923
0.0109102 0.365881 0.147555
0.01561 0.387686 0.166232
0.0201114 0.409628 0.185183
0.0247501 0.430289 0.20325
0 0.0494698 0
0 0.0570993 0
0 0.0652171 0
0 0.073579 0
0 0.0827955 0
0 0.0920882 0
0 0.101701 0
0 0.111162 0
0 0.120363 0
0 0.129473 0
0 0.137453 0
0 0.145052 0
0 0.152285 0
0 0.158679 0
0 0.164935 0
0 0.180072 0
0 0.190875 0.00224308
0 0.202564 0.0115816
0 0.214878 0.0197757
0 0.227314 0.0289769
0 0.240375 0.0397803
0 0.253864 0.0524147
0 0.266728 0.0667124
0 0.279149 0.0821241
0 0.291325 0.0982528
0 0.302022 0.111345
0 0.31696 0.125811
0.00213626 0.335485 0.14342
0.00714122 0.35375 0.160616
0.0120089 0.374731 0.179385
0.0166323 0.395926 0.198276
0.0211643 0.417639 0.217441
0.0257877 0.437552 0.234806
0 0.0480659 0
0 0.0556649 0
0 0.0636454 0
0 0.0719615 0
0 0.0810407 0
0 0.0903182 0
0 0.0999008 0
0 0.109453 0
0 0.118639 0
0 0.127764 0
0 0.136019 0
0 0.143603 0
0 0.151064 0
0 0.163226 0
0 0.174411 0.0015259
0 0.186343 0.0107881
0 0.198581 0.0189059
0 0.211673 0.0279088
0 0.225437 0.0384985
0 0.238911 0.050782
0 0.252293 0.0649882
0 0.265827 0.0804303
0 0.278828 0.0966354
0 0.290867 0.113176
0 0.301961 0.129442
0 0.310887 0.141726
0 0.325856 0.156725
0.00323491 0.343618 0.174365
0.00813306 0.361334 0.191821
0.0128939 0.381735 0.210788
0.0173953 0.40238 0.229068
0.0220188 0.423865 0.248081
0.0266575 0.44329 0.26453
0 0.0466621 0
0 0.0542306 0
0 0.0621347 0
0 0.0704051 0
0 0.0793469 0
0 0.0885939 0
0 0.0980545 0
0 0.107668 0
0 0.11693 0
0 0.126055 0
0 0.1346 0
0 0.145449 0
0 0.157061 0.0010071
0 0.168688 0.00984207
0 0.181201 0.0179904
0 0.194522 0.0267948
0 0.208164 0.0369726
0 0.222263 0.0490425
0 0.236484 0.0630961
0 0.25008 0.0783703
0 0.263569 0.0945449
0 0.277028 0.111269
0 0.289769 0.128222
0 0.300649 0.144625
0 0.310597 0.160479
0 0.3187 0.17258
0 0.333196 0.187457
0.00410468 0.350362 0.205158
0.0089723 0.36759 0.222065
0.0137026 0.387625 0.24062
0.0180209 0.407782 0.258503
0.0226139 0.428275 0.276051
0.0273899 0.447929 0.292531
0 0.0452888 0
0 0.0527962 0
0 0.0605631 0
0 0.0688334 0
0 0.0776226 0
0 0.0868391 0
0 0.0962997 0
0 0.105837 0
0 0.115221 0
0 0.126055 0
0 0.138476 0.000198367
0 0.150027 0.00881971
0 0.162615 0.0170748
0 0.176028 0.0255436
0 0.189792 0.0354162
0 0.204135 0.0472267
0 0.218509 0.0609598
0 0.232746 0.076112
0 0.247105 0.0923781
0 0.260502 0.108797
0 0.273671 0.125734
0 0.286519 0.142947
0 0.298177 0.159533
0 0.307973 0.175311
0 0.317617 0.191302
0 0.32488 0.20267
0 0.339483 0.217594
0.00479133 0.355062 0.233906
0.00972 0.3729 0.251011
0.0142519 0.391806 0.268315
0.0187076 0.412528 0.286275
0.0232242 0.432227 0.303075
0.0280003 0.451453 0.318883
0 0.0439307 0
0 0.0513771 0
0 0.0590372 0
0 0.0672618 0
0 0.0758526 0
0 0.0850843 0
0 0.0944839 0
0 0.105211 0
0 0.117632 0
0 0.12987 0.00782788
0 0.143206 0.0160983
0 0.156268 0.0241245
0 0.17026 0.0337987
0 0.184268 0.0451057
0 0.198871 0.0584573
0 0.213886 0.073579
0 0.228351 0.0896315
0 0.242542 0.106294
0 0.25626 0.123095
0 0.269596 0.140261
0 0.281895 0.157183
0 0.293416 0.173602
0 0.304509 0.190005
0 0.314229 0.205951
0 0.323323 0.221271
0 0.32961 0.231144
0 0.344625 0.246418
0.00546273 0.35964 0.261418
0.0103151 0.376959 0.278019
0.0147097 0.395087 0.294621
0.0191958 0.415427 0.312047
0.0239109 0.435966 0.329458
0.0285191 0.45417 0.343908
0 0.0425727 0
0 0.049958 0
0 0.0575723 0
0 0.0657206 0
0 0.0741588 0
0 0.0838941 0
0 0.0954299 0
0 0.107576 0.00645457
0 0.120897 0.0146334
0 0.13463 0.0224613
0 0.149371 0.0319524
0 0.163577 0.0429389
0 0.178058 0.055787
0 0.193027 0.0705272
0 0.207797 0.0864576
0 0.223041 0.103456
0 0.237522 0.120592
0 0.250675 0.137163
0 0.263981 0.15433
0 0.276875 0.171389
0 0.288014 0.187671
0 0.298894 0.203891
0 0.309697 0.220035
0 0.319051 0.235172
0 0.327672 0.249653
0 0.333257 0.25832
0 0.347356 0.27216
0.00601205 0.363348 0.287678
0.0107118 0.379614 0.303334
0.0151064 0.397742 0.319615
0.0195926 0.417853 0.336797
0.0243076 0.438056 0.353353
0.0289158 0.456153 0.367651
0 0.0412299 0
0 0.0485389 0
0 0.0561532 0
0 0.0643015 0
0 0.0740826 0
0 0.0850233 0.00483711
0 0.0972152 0.0128328
0 0.11075 0.0204013
0 0.125536 0.0294652
0 0.140276 0.040116
0 0.15584 0.0528572
0 0.171115 0.0672923
0 0.185946 0.0829633
0 0.201373 0.0998245
0 0.216739 0.117357
0 0.230564 0.133974
0 0.243839 0.150698
0 0.256901 0.167803
0 0.269612 0.184726
0 0.281697 0.201297
0 0.292546 0.217334
0 0.303197 0.233143
0 0.313603 0.248585
0 0.322408 0.262303
0 0.330388 0.275639
0 0.335988 0.28397
0.000244144 0.349325 0.29662
0.00640879 0.365438 0.312291
0.0110628 0.381674 0.327489
0.0154421 0.399481 0.34316
0.0198978 0.419883 0.360296
0.0246586 0.439734 0.376135
0.029221 0.45742 0.38938
0 0.0398718 0
0 0.0471199 0
0 0.0551919 0
0 0.0643626 0.00323491
0 0.0747997 0.0109865
0 0.0868696 0.0182498
0 0.100313 0.0265507
0 0.115023 0.0366827
0 0.130449 0.0488289
0 0.14641 0.0632029
0 0.162631 0.0790875
0 0.17821 0.0955367
0 0.193668 0.112825
0 0.208881 0.130297
0 0.222614 0.147066
0 0.235615 0.163775
0 0.248661 0.180758
0 0.260929 0.197253
0 0.273274 0.213916
0 0.285664 0.230549
0 0.296559 0.246387
0 0.30634 0.260487
0 0.315984 0.274464
0 0.324865 0.287938
0 0.332448 0.300359
0 0.338018 0.308003
0.000564584 0.351034 0.320241
0.00671397 0.366842 0.335195
0.0113222 0.382986 0.350134
0.0157168 0.400839 0.365698
0.0201419 0.420981 0.381872
0.024918 0.440726 0.397208
0.0294957 0.458427 0.410163
0 0.0383459 0
0 0.0462806 0.00180056
0 0.0552224 0.009308
0 0.0653697 0.0164034
0 0.0769513 0.0239414
0 0.0897383 0.0331121
0 0.104189 0.0444495
0 0.119371 0.0580606
0 0.135943 0.0738231
0 0.1523 0.0903944
0 0.168231 0.107225
0 0.183795 0.124575
0 0.198734 0.142077
0 0.213031 0.159274
0 0.226322 0.17612
0 0.239109 0.192828
0 0.25185 0.209613
0 0.264836 0.226413
0 0.277363 0.243076
0 0.288533 0.258015
0 0.298787 0.272175
0 0.308492 0.285969
0 0.317876 0.299489
0 0.326787 0.312428
0 0.334127 0.324224
0 0.339208 0.330846
0.000900282 0.352697 0.343008
0.00697337 0.367895 0.357061
0.0115358 0.383871 0.371237
0.0158999 0.401602 0.386084
0.0203708 0.421805 0.402518
0.0250858 0.441123 0.416876
0.0297093 0.458961 0.429038
0 0.037583 0.00769055
0 0.0464179 0.0146639
0 0.0563363 0.0217136
0 0.0672923 0.0301061
0 0.07953 0.0404212
0 0.0931106 0.0530556
0 0.107561 0.0672313
0 0.123384 0.0833448
0 0.140322 0.100801
0 0.156374 0.117998
0 0.17203 0.135531
0 0.18761 0.153368
0 0.202029 0.170657
0 0.215869 0.187716
0 0.229038 0.204562
0 0.242252 0.221515
0 0.255955 0.238682
0 0.267994 0.254307
0 0.278996 0.268818
0 0.290196 0.283284
0 0.300725 0.29752
0 0.310262 0.310948
0 0.31931 0.323629
0 0.327977 0.335607
0 0.335256 0.346838
0 0.340047 0.352865
0.00111391 0.353338 0.363928
0.00714122 0.36846 0.37734
0.0117037 0.384436 0.391196
0.0160678 0.40206 0.405447
0.0204929 0.42182 0.420752
0.0251011 0.440848 0.434531
0.0299077 0.459388 0.447257
0 0.0375219 0.0194553
0 0.0471504 0.0271916
0 0.0576028 0.0367437
0 0.0691997 0.0483406
0 0.0821088 0.0617533
0 0.0953384 0.0760815
0 0.110887 0.0928359
0 0.127047 0.110384
0 0.142916 0.127581
0 0.158816 0.145312
0 0.174441 0.163317
0 0.19057 0.181735
0 0.204639 0.198917
0 0.218158 0.215854
0 0.231647 0.232975
0 0.244862 0.249287
0 0.257267 0.264561
0 0.268818 0.279286
0 0.279927 0.2934
0 0.291371 0.308003
0 0.302434 0.322423
0 0.311147 0.334142
0 0.319875 0.345922
0 0.328573 0.35761
0 0.336156 0.368307
0 0.340246 0.372244
0.00123598 0.353292 0.383307
0.00726329 0.368551 0.396506
0.0118257 0.384421 0.409293
0.0162203 0.40206 0.423163
0.0205997 0.421622 0.438025
0.0251316 0.440528 0.451545
0.0300298 0.459236 0.463783
0 0.0379034 0.033051
0 0.0479744 0.0438849
0 0.0590677 0.0564736
0 0.071046 0.0703136
0 0.0833448 0.0846571
0 0.0972915 0.101045
0 0.113039 0.118868
0 0.127916 0.135714
0 0.143725 0.153567
0 0.160418 0.172595
0 0.176532 0.19115
0 0.192172 0.209125
0 0.20621 0.226215
0 0.21973 0.242924
0 0.233402 0.259236
0 0.246021 0.27451
0 0.257542 0.288655
0 0.268894 0.302556
0 0.280369 0.316976
0 0.291844 0.331182
0 0.302617 0.344366
0 0.311452 0.355932
0 0.320165 0.367102
0 0.328984 0.37821
0 0.336782 0.38854
0 0.340246 0.390951
0.00131228 0.352819 0.400885
0.00730907 0.368124 0.41355
0.0119173 0.384161 0.426383
0.0163577 0.401938 0.440253
0.020676 0.421088 0.454215
0.0252079 0.439994 0.467216
0.0301366 0.458854 0.479423
0 0.037995 0.0507362
0 0.0483864 0.0638285
0 0.0596017 0.0780194
0 0.0710155 0.0923018
0 0.0845502 0.109102
0 0.0988632 0.12665
0 0.112963 0.143175
0 0.128191 0.160922
0 0.14464 0.180011
0 0.161547 0.199283
0 0.176959 0.217029
0 0.192401 0.234714
0 0.206302 0.250828
0 0.220111 0.26714
0 0.234119 0.283528
0 0.245594 0.297307
0 0.257038 0.311055
0 0.268864 0.325353
0 0.280476 0.339467
0 0.291646 0.352834
0 0.302342 0.365164
0 0.311238 0.376104
0 0.32018 0.38706
0 0.329168 0.398016
0 0.336858 0.407111
0 0.339513 0.408011
0.00137331 0.352087 0.417304
0.00733959 0.367575 0.430014
0.0119783 0.383612 0.442252
0.0163119 0.4009 0.455253
0.0207523 0.42034 0.469657
0.0252842 0.439429 0.48249
0.0301976 0.458228 0.494224
0 0.0369879 0.0695811
0 0.0478828 0.0842603
0 0.058381 0.0985428
0 0.0707713 0.114961
0 0.0842908 0.132387
0 0.0978256 0.149538
0 0.112642 0.167697
0 0.128008 0.185794
0 0.144106 0.204334
0 0.160616 0.223163
0 0.175753 0.239979
0 0.190661 0.256687
0 0.205814 0.273945
0 0.219883 0.290333
0 0.232883 0.305241
0 0.244663 0.319066
0 0.256641 0.333242
0 0.269001 0.347967
0 0.280064 0.360601
0 0.290669 0.372305
0 0.301274 0.384268
0 0.310765 0.395407
0 0.319509 0.405158
0 0.328222 0.414847
0 0.336431 0.424231
0 0.338827 0.424613
0.00141909 0.351263 0.433066
0.00737011 0.366522 0.445075
0.0120241 0.382834 0.457115
0.0162661 0.399832 0.469841
0.0207828 0.419486 0.484337
0.0253147 0.438453 0.49659
0.0301823 0.457115 0.507958
0 0.0349584 0.0878004
0 0.0458076 0.103883
0 0.0569619 0.119585
0 0.0695201 0.136721
0 0.0821241 0.153796
0 0.0964828 0.172366
0 0.111406 0.190555
0 0.126711 0.208576
0 0.141924 0.22591
0 0.157961 0.243656
0 0.174105 0.26157
0 0.19028 0.279911
0 0.206317 0.298009
0 0.21915 0.31249
0 0.231464 0.326223
0 0.243687 0.340261
0 0.25594 0.354314
0 0.267735 0.367117
0 0.278676 0.378882
0 0.289372 0.390616
0 0.299931 0.401785
0 0.309499 0.411872
0 0.318379 0.421485
0 0.327199 0.431174
0 0.335424 0.43978
0 0.338262 0.439811
0.00148013 0.350332 0.448066
0.00738537 0.365393 0.459693
0.0120851 0.38204 0.471473
0.0162814 0.398764 0.483452
0.0207065 0.418265 0.497597
0.0253605 0.437507 0.510292
0.0301823 0.456046 0.521324
0 0.0316014 0.104356
0 0.0432898 0.123201
0 0.0545052 0.139178
0 0.0670634 0.156832
0 0.0805371 0.175509
0 0.0951247 0.194232
0 0.109056 0.21091
0 0.123537 0.227893
0 0.138979 0.245609
0 0.156405 0.265064
0 0.173968 0.28481
0 0.189761 0.302464
0 0.204746 0.3187
0 0.217212 0.332403
0 0.229801 0.346227
0 0.242298 0.359655
0 0.254261 0.372442
0 0.26598 0.384634
0 0.276936 0.395956
0 0.287434 0.406806
0 0.298024 0.417456
0 0.308125 0.427665
0 0.316762 0.436683
0 0.325093 0.445106
0 0.333165 0.453086
0 0.33756 0.454429
0.00151064 0.349355 0.46247
0.00737011 0.364141 0.473289
0.0120394 0.380697 0.484749
0.0163119 0.397711 0.496483
0.0206149 0.417029 0.510521
0.0253758 0.436439 0.523369
0.0301366 0.454734 0.533669
0 0.027924 0.119738
0 0.0386816 0.137484
0 0.0508736 0.155947
0 0.0640574 0.174868
0 0.0782483 0.195071
0 0.0915847 0.211963
0 0.105898 0.229053
0 0.121065 0.247227
0 0.137179 0.265873
0 0.154788 0.285878
0 0.171695 0.304326
0 0.186679 0.320577
0 0.201984 0.337179
0 0.215076 0.350835
0 0.227955 0.364446
0 0.240681 0.377935
0 0.25243 0.389776
0 0.263737 0.400809
0 0.274617 0.411627
0 0.285328 0.422248
0 0.296071 0.432532
0 0.306096 0.442145
0 0.314549 0.450507
0 0.322835 0.458503
0 0.331075 0.466178
0 0.336339 0.467765
0.00144961 0.347951 0.475181
0.00735485 0.362844 0.486244
0.0120089 0.379339 0.497627
0.0163577 0.396658 0.509194
0.0205997 0.415885 0.522789
0.0253452 0.43508 0.535164
0.0301061 0.453437 0.545525
0 0.0228428 0.129839
0 0.0340429 0.150515
0 0.0469825 0.170871
0 0.0608988 0.19144
0 0.0740673 0.210544
0 0.0878157 0.228351
0 0.103288 0.247715
0 0.118898 0.266377
0 0.134066 0.283558
0 0.150942 0.302434
0 0.168246 0.321324
0 0.183581 0.33756
0 0.198978 0.353674
0 0.212802 0.368078
0 0.225956 0.381689
0 0.238819 0.394476
0 0.250233 0.405417
0 0.261357 0.416205
0 0.272374 0.426734
0 0.283345 0.436881
0 0.293843 0.446632
0 0.303868 0.456031
0 0.312367 0.464027
0 0.32105 0.471687
0 0.329747 0.479423
0 0.334737 0.48014
0.00140383 0.346502 0.487495
0.00733959 0.361547 0.498848
0.0119631 0.377829 0.509712
0.0163729 0.395636 0.521447
0.0206149 0.414771 0.534554
0.02533 0.433768 0.546731
0.0300755 0.452079 0.557031
0 0.0174868 0.136828
0 0.0291295 0.160494
0 0.0424201 0.182696
0 0.0564889 0.204898
0 0.0692454 0.223438
0 0.0839246 0.243503
0 0.099794 0.264073
0 0.115053 0.282216
0 0.130297 0.299519
0 0.147356 0.318273
0 0.164675 0.336736
0 0.180453 0.353338
0 0.196017 0.369497
0 0.210636 0.3841
0 0.223713 0.397009
0 0.236591 0.409613
0 0.248142 0.420478
0 0.25951 0.430838
0 0.270726 0.44123
0 0.281514 0.451057
0 0.291752 0.460441
0 0.301732 0.469261
0 0.31078 0.477043
0 0.31957 0.484642
0 0.328359 0.492302
0 0.333196 0.492271
0.00134279 0.344961 0.499199
0.00732433 0.360143 0.510201
0.011902 0.376226 0.521035
0.0164034 0.394736 0.533562
0.0206149 0.413642 0.546044
0.0253147 0.432517 0.557916
0.030045 0.450721 0.567819
0 0.0137484 0.146593
0 0.0236667 0.166598
0 0.038407 0.195239
0 0.050721 0.214679
0 0.064744 0.235798
0 0.080354 0.258442
0 0.0959029 0.278782
0 0.11165 0.297734
0 0.127535 0.315373
