filmlog/CameraDisplay2383_3.cube
TITLE "Generated by Resolve"
LUT_3D_SIZE 9
0 0.0610819 0
0 0.0968948 0
0 0.133639 0
0 0.161791 0
0 0.188922 0
0 0.212406 0
0 0.230259 0
0 0.266285 0
0.0142061 0.326635 0
0 0.0551614 0
0 0.0897383 0
0 0.12723 0
0 0.157076 0
0 0.183764 0
0 0.208255 0
0 0.242023 0.00500496
0.000579843 0.303349 0.0390631
0.0203708 0.397482 0.103548
0 0.0494698 0
0 0.0827955 0
0 0.120363 0
0 0.152285 0
0 0.190875 0.00224308
0 0.240375 0.0397803
0 0.291325 0.0982528
0.00714122 0.35375 0.160616
0.0257877 0.437552 0.234806
0 0.0439307 0
0 0.0758526 0
0 0.117632 0
0 0.17026 0.0337987
0 0.228351 0.0896315
0 0.281895 0.157183
0 0.323323 0.221271
0.0103151 0.376959 0.278019
0.0285191 0.45417 0.343908
0 0.0383459 0
0 0.0769513 0.0239414
0 0.135943 0.0738231
0 0.198734 0.142077
0 0.25185 0.209613
0 0.298787 0.272175
0 0.334127 0.324224
0.0115358 0.383871 0.371237
0.0297093 0.458961 0.429038
0 0.037995 0.0507362
0 0.0845502 0.109102
0 0.14464 0.180011
0 0.206302 0.250828
0 0.257038 0.311055
0 0.302342 0.365164
0 0.336858 0.407111
0.0119783 0.383612 0.442252
0.0301976 0.458228 0.494224
0 0.027924 0.119738
0 0.0782483 0.195071
0 0.137179 0.265873
0 0.201984 0.337179
0 0.25243 0.389776
0 0.296071 0.432532
0 0.331075 0.466178
0.0120089 0.379339 0.497627
0.0301061 0.453437 0.545525
0 0.00910964 0.155215
0 0.0610056 0.248432
0 0.124865 0.330739
0 0.191012 0.399054
0 0.244526 0.44799
0 0.288151 0.485618
0 0.324681 0.515267
0.0118105 0.373129 0.542443
0.029984 0.447883 0.588281
0 0.00392157 0.214862
0 0.0421607 0.27744
0 0.107988 0.369406
0 0.176699 0.442481
0 0.233433 0.492256
0 0.279637 0.527687
0 0.31783 0.556023
0.0116121 0.366674 0.579644
0.0296788 0.441382 0.623758
0 0.0466926 0
0 0.0793469 0
0 0.11693 0
0 0.149737 0
0 0.175875 0
0 0.203738 0
0.00840772 0.264271 0
0.102358 0.397116 0
0.230808 0.527428 0.0204318
0 0.0412299 0
0 0.0724804 0
0 0.110048 0
0 0.144121 0
0 0.170596 0
0 0.198932 0
0.00694286 0.262684 0
0.0645914 0.378317 0.0421149
0.218463 0.558129 0.157443
0 0.035935 0
0 0.0662547 0
0 0.102892 0
0 0.13843 0
0 0.177417 0.00291447
0 0.228107 0.0348516
0.0158999 0.319051 0.0961318
0.0447547 0.411643 0.169635
0.206882 0.581704 0.307912
0 0.0308995 0
0 0.0600748 0
0 0.0988785 0
0 0.15314 0.0334783
0 0.211505 0.0888838
0.000183108 0.268315 0.150637
0.020798 0.353994 0.227176
0.0443885 0.434745 0.293873
0.190845 0.577523 0.417487
0 0.0258488 0
0 0.0594034 0.0229496
0 0.111772 0.069749
0 0.17641 0.138445
0 0.232685 0.207233
0.00283818 0.282795 0.264424
0.0231022 0.365408 0.336706
0.043946 0.447135 0.398383
0.173648 0.559152 0.492393
0 0.0237278 0.0476844
0 0.0619669 0.101396
0 0.117327 0.17116
0 0.180407 0.243214
0 0.236637 0.307683
0.00360113 0.283299 0.354437
0.0237278 0.364523 0.420661
0.0447852 0.446372 0.474876
0.167498 0.552636 0.558999
0 0.0101778 0.100984
0 0.051194 0.175448
0 0.108202 0.251942
0 0.173266 0.325063
0 0.229969 0.384222
0.00357061 0.276997 0.421424
0.0236362 0.358389 0.483772
0.044831 0.441016 0.533684
0.163745 0.545647 0.613321
0 0.00184634 0.163989
0 0.0320897 0.215824
0 0.0944533 0.311482
0 0.160555 0.38349
0 0.221332 0.441917
0.00350958 0.269718 0.476188
0.0234379 0.350179 0.533455
0.0445716 0.433799 0.581094
0.160998 0.537942 0.658198
0 0.000381476 0.223911
0 0.0140078 0.231342
0 0.0763256 0.342367
0 0.145327 0.423636
0 0.208057 0.482094
0.00254826 0.257374 0.513924
0.0230259 0.340932 0.573892
0.0442054 0.425879 0.62031
0.159136 0.529747 0.695796
0 0.033402 0
0 0.0631571 0
0 0.0992905 0
0 0.133333 0
0.000961318 0.172686 0
0.0438392 0.249805 0
0.187015 0.420066 0
0.341299 0.546242 0.00114443
0.473381 0.645136 0.0376745
0 0.0284428 0
0 0.057145 0
0 0.0921645 0
0 0.127321 0
0.000869764 0.165759 0
0.0453498 0.245228 0
0.180041 0.415457 0.0160678
0.313954 0.531884 0.0657969
0.463767 0.667643 0.198642
0 0.0245212 0
0 0.0514229 0
0 0.0851606 0
0 0.12047 0
0.000885023 0.165286 0
0.0277867 0.251911 0.0301061
0.160632 0.428244 0.132067
0.325048 0.588281 0.263493
0.473564 0.70901 0.387442
0 0.021088 0
0 0.0457771 0
0 0.0804303 0
0 0.131151 0.0311589
0.00779736 0.200275 0.080766
0.0291905 0.29604 0.15494
0.139574 0.434974 0.266514
0.322194 0.606363 0.416617
0.473762 0.722667 0.531212
0 0.0175479 0
0 0.0430457 0.0217746
0 0.0895247 0.0662699
0 0.150225 0.131472
0.0120546 0.221073 0.200031
0.0326696 0.313573 0.277989
0.124758 0.432532 0.375326
0.316518 0.607569 0.532952
0.470878 0.723659 0.640009
0 0.0138552 0.0467689
0 0.0417029 0.0940719
0 0.090837 0.16112
0 0.149889 0.230503
0.0134127 0.222568 0.299474
0.0341192 0.313817 0.374395
0.112993 0.425467 0.460853
0.311376 0.601373 0.61944
0.467201 0.717876 0.720867
0 0 0.103075
0 0.0249638 0.150027
0 0.0785534 0.233188
0 0.138643 0.304967
0.0131991 0.214313 0.374258
0.0340429 0.306035 0.445609
0.107378 0.411978 0.52224
0.307073 0.591272 0.685618
0.463539 0.708995 0.78436
0 0 0.174487
0 0.00825513 0.181659
0 0.0629587 0.282368
0 0.124071 0.356771
0.0124208 0.201602 0.42768
0.0334478 0.294926 0.49926
0.10277 0.395209 0.5673
0.303075 0.578302 0.737835
0.459617 0.697658 0.835157
0 0 0.2383
0 0.00425727 0.238956
0 0.0452583 0.306523
0 0.109102 0.393881
0.0114595 0.187823 0.468452
0.032578 0.282704 0.541588
0.101213 0.383948 0.609949
0.299641 0.564706 0.780011
0.456062 0.685618 0.877012
0 0.0226291 0
0 0.0485847 0
0 0.0738689 0
0.0160372 0.12549 0
0.121736 0.257343 0
0.263249 0.390295 0
0.421317 0.517403 0.00512703
0.551339 0.614466 0.0099031
0.648707 0.687816 0.0465858
0 0.0196536 0
0 0.0430762 0
0 0.066743 0
0.0170901 0.117082 0
0.120562 0.246296 0
0.261295 0.378332 0
0.421195 0.517082 0.032578
0.513176 0.586908 0.066804
0.634241 0.70071 0.212757
0 0.0168307 0
0 0.037705 0
0 0.0601663 0
0.0181888 0.109743 0
0.117617 0.240681 0.00619516
0.24654 0.371267 0.0517281
0.409262 0.527245 0.176287
0.544854 0.653544 0.302159
0.652873 0.746258 0.415946
0 0.0138094 0
0 0.0325933 0
0 0.0555886 0
0.0120699 0.114794 0.0223392
0.104356 0.247639 0.101137
0.253635 0.408652 0.226932
0.41825 0.559579 0.359869
0.552132 0.677165 0.475166
0.657938 0.762081 0.569604
0 0.00965896 0
0 0.0284886 0.020676
0 0.0608988 0.0534829
0.0152743 0.130709 0.118257
0.0889601 0.249271 0.219989
0.250477 0.416403 0.369039
0.416312 0.563149 0.499397
0.550729 0.678996 0.604852
0.657023 0.762798 0.684886
0 0.00318914 0.047013
0 0.023209 0.0842756
0 0.0595407 0.138293
0.0168154 0.130419 0.216999
0.0790112 0.242588 0.319463
0.244373 0.408637 0.476402
0.411429 0.554925 0.603983
0.546197 0.670558 0.699443
0.653269 0.755047 0.769482
0 0 0.117098
0 0.0055848 0.126818
0 0.0468452 0.200793
0.0163424 0.11989 0.291966
0.0738689 0.228717 0.394095
0.238651 0.394568 0.555016
0.405829 0.540703 0.680186
0.540734 0.657084 0.77052
0.64889 0.744091 0.835447
0 0 0.198199
0 0.00234989 0.194293
0 0.0330968 0.243442
0.0149996 0.106294 0.345296
0.0720836 0.21442 0.450767
0.233768 0.3776 0.613397
0.400305 0.524056 0.738552
0.535363 0.642145 0.826703
0.644434 0.731731 0.888533
0 0 0.272068
0 0.000747692 0.248127
0 0.018555 0.257755
0.013489 0.0927291 0.382971
0.0714427 0.197635 0.491981
0.229816 0.360678 0.66006
0.394553 0.505791 0.784207
0.530236 0.626413 0.871656
0.640055 0.718517 0.932036
0 0.0118868 0
0.0126192 0.0313268 0
0.0605478 0.0844739 0
0.167498 0.187167 0
0.318273 0.314336 0
0.465614 0.435462 0.00511177
0.594202 0.543481 0.0103914
0.699321 0.628885 0.0133669
0.773861 0.695964 0.0507515
0 0.00932326 0
0.0133059 0.0265049 0
0.0589914 0.0748455 0
0.16286 0.171817 0
0.313451 0.298955 0
0.460334 0.419425 0.00456245
0.596338 0.542214 0.0403754
0.643015 0.585245 0.0686351
0.754742 0.702129 0.216861
0 0.00666819 0
0.0138705 0.0223239 0
0.0574807 0.0661326 0
0.158099 0.15671 0
0.312123 0.290684 0.0181735
0.432135 0.395239 0.0555734
0.578576 0.540841 0.188647
0.692088 0.658595 0.313634
0.777386 0.746731 0.425574
0 0.00360113 0
0.0144198 0.0186465 0
0.0576638 0.0602426 0
0.155169 0.150744 0.038819
0.308659 0.294484 0.1355
0.465217 0.44419 0.261738
0.595605 0.573053 0.384222
0.702815 0.680293 0.492592
0.784176 0.761044 0.582437
0 0 0
0.0129397 0.0152895 0.0160525
0.0574197 0.0605783 0.062211
0.160998 0.160433 0.159182
0.315831 0.306584 0.290562
0.4692 0.452094 0.419974
0.597574 0.576806 0.532082
0.703349 0.681178 0.626383
0.784207 0.760662 0.699886
0 0 0.0549935
0.0102846 0.0113375 0.0751812
0.056672 0.0568246 0.152697
0.159594 0.1552 0.270756
0.311757 0.29662 0.408927
0.46511 0.442832 0.538308
0.59321 0.566674 0.641535
0.699458 0.671931 0.723888
0.781048 0.752682 0.786526
0 0 0.129305
0.00726329 0.00148013 0.131975
0.054139 0.0471809 0.226673
0.154971 0.141756 0.35523
0.304021 0.277913 0.495537
0.458015 0.425925 0.623362
0.58584 0.549432 0.719921
0.693141 0.656535 0.796429
0.776699 0.741222 0.853956
0 0 0.198688
0.00363165 0 0.173709
0.0521553 0.0369573 0.283604
0.149554 0.126024 0.415686
0.295247 0.255863 0.555627
0.448615 0.403754 0.683833
0.577737 0.529564 0.77908
0.685588 0.638025 0.852308
0.770489 0.725628 0.906416
0 0 0.257038
0.0039826 0 0.225147
0.0500801 0.0277867 0.324422
0.144244 0.109941 0.458885
0.286595 0.233997 0.600107
0.43888 0.380377 0.729595
0.569635 0.509041 0.825528
0.677775 0.618372 0.896071
0.76379 0.708522 0.94847
0.0349432 0.00411994 0
0.0802167 0.0283513 0
0.181125 0.090074 0
0.322118 0.18996 0
0.467491 0.311574 0.00111391
0.598062 0.424842 0.00727855
0.709102 0.527443 0.0115511
0.796674 0.613108 0.0140383
0.854078 0.679042 0.0509194
0.0378271 0.000244144 0
0.078996 0.0235447 0
0.174655 0.0781262 0
0.312169 0.17171 0
0.457343 0.291646 4.57771e-05
0.590066 0.406729 0.00656138
0.711223 0.524056 0.0420539
0.735546 0.566598 0.0690471
0.834302 0.682399 0.21532
0.0429389 0 0
0.0784009 0.0195773 0
0.1682 0.0667887 0
0.302266 0.154284 0
0.454078 0.279103 0.0213626
0.554376 0.376181 0.0553445
0.690257 0.51722 0.18883
0.78912 0.636072 0.313619
0.860288 0.72639 0.424994
0.0487984 0 0
0.0776379 0.0157321 0
0.160281 0.0542611 0
0.29189 0.139055 0.0410163
0.446479 0.272633 0.139284
0.593606 0.419547 0.2645
0.710796 0.546563 0.385931
0.802563 0.65684 0.493843
0.868635 0.739971 0.582528
0.0477913 0 0.00146487
0.0784009 0.0116426 0.0205539
0.16495 0.0513771 0.0706035
0.307301 0.146822 0.171527
0.45742 0.279545 0.296971
0.600534 0.425208 0.42475
0.713252 0.54725 0.533806
0.802609 0.654185 0.627131
0.868986 0.738109 0.700145
0.043183 0 0.0560464
0.0782177 0.00486763 0.0887007
0.167147 0.0458381 0.16817
0.307515 0.139391 0.288197
0.453437 0.267308 0.416785
0.59443 0.411109 0.541939
0.708553 0.535088 0.643091
0.797253 0.641428 0.723491
0.864179 0.726421 0.785504
0.0408789 0 0.126314
0.0733349 0 0.154009
0.160952 0.0348058 0.244648
0.299046 0.123156 0.373724
0.442847 0.246662 0.503334
0.583856 0.389776 0.624765
0.700313 0.516548 0.721492
0.7897 0.623819 0.795285
0.857862 0.711254 0.851255
0.0404364 0 0.194568
0.0817578 0 0.229358
0.148913 0.0220035 0.295369
0.287556 0.104631 0.432685
0.429908 0.223194 0.562524
0.571496 0.365362 0.68394
0.689845 0.494575 0.779309
0.781292 0.604395 0.850904
0.850858 0.694453 0.903227
0.0391852 0 0.251423
0.0916152 0 0.30013
0.133593 0.00857557 0.322225
0.27541 0.0863508 0.473152
0.417044 0.200916 0.60589
0.557549 0.339117 0.727031
0.679286 0.472236 0.824247
0.77171 0.583032 0.893523
0.843565 0.676783 0.945068
0.121874 0 0
0.181659 0.0238499 0
0.286625 0.0738384 0
0.415518 0.158877 0
0.554086 0.273136 0.00015259
0.677028 0.388281 0.00642405
0.774746 0.489265 0.0103609
0.854444 0.578317 0.0129702
0.891707 0.640742 0.0475166
0.122972 0 0
0.177859 0.0187991 0
0.275837 0.061326 0
0.402518 0.141375 0
0.539712 0.251225 0
0.666606 0.368917 0.00556954
0.775891 0.483757 0.0400244
0.792859 0.533074 0.0670481
0.891157 0.65481 0.211872
0.122972 0 0
0.173617 0.0134279 0
0.265721 0.0502327 0
0.389944 0.1252 0
0.531609 0.233997 0.019379
0.626123 0.334829 0.0525978
0.753964 0.474144 0.182849
0.847807 0.596109 0.306615
0.917708 0.694896 0.419409
0.122972 0 0
0.172488 0.00865187 0
0.253635 0.0379644 0
0.37116 0.104952 0.036286
0.521691 0.222904 0.130205
0.665705 0.369253 0.25388
0.776699 0.50016 0.375906
0.860563 0.612131 0.483162
0.924834 0.704097 0.574472
0.120485 0 0
0.15816 0 0.0202792
0.252644 0.0307927 0.0675364
0.387549 0.107637 0.160403
0.533715 0.225895 0.280797
0.671275 0.369238 0.408087
0.778897 0.498116 0.52047
0.861006 0.607996 0.614542
0.924422 0.699443 0.690318
0.113664 0 0.0568856
0.174289 0 0.101625
0.248219 0.0215152 0.156802
0.384283 0.0963607 0.269154
0.528389 0.212131 0.395102
0.663676 0.35259 0.520806
0.772732 0.483589 0.626642
0.855375 0.594018 0.709361
0.919509 0.686885 0.774884
0.120882 0 0.140093
0.190402 0 0.195804
0.223453 0.00440986 0.213474
0.370184 0.0780804 0.346609
0.515801 0.191806 0.477501
0.649866 0.328511 0.598947
0.762737 0.463371 0.702419
0.845777 0.573938 0.778668
0.912932 0.671092 0.84007
0.125811 0 0.217823
0.195209 0 0.270191
0.23003 0.00157168 0.283391
0.352041 0.059144 0.397559
0.500191 0.169589 0.533379
0.633982 0.302235 0.654017
0.750332 0.439902 0.758022
0.835538 0.552697 0.832166
0.903655 0.651087 0.889662
0.127764 0 0.282963
0.197391 0 0.330617
0.237583 0 0.34287
0.331197 0.0412757 0.428458
0.484154 0.148257 0.573495
0.618082 0.276677 0.694972
0.73608 0.414374 0.798978
0.824613 0.530343 0.873289
0.894072 0.630411 0.929122
0.208423 0 0
0.254871 0.00999466 0
0.346624 0.0467994 0
0.467582 0.120089 0
0.593973 0.221012 0
0.71545 0.337224 0.00370794
0.811063 0.440192 0.00802625
0.889204 0.533257 0.0108949
0.917876 0.600671 0.0444648
0.208423 0 0
0.248569 0.00303655 0
0.336187 0.0377356 0
0.452674 0.104402 0
0.577493 0.199878 0
0.701183 0.315709 0.002533
0.811826 0.433585 0.036408
0.827253 0.48893 0.0632486
0.93106 0.618784 0.206882
0.208423 0 0
0.241367 0 0
0.327993 0.0305791 0
0.437903 0.0895705 0
0.565759 0.18114 0.0155642
0.65536 0.278828 0.0479744
0.790906 0.423285 0.174304
0.887221 0.549767 0.297383
0.958587 0.656046 0.411109
0.208423 0 0
0.252399 0 0
0.309392 0.0192111 0
0.409186 0.0658732 0.029572
0.555123 0.168627 0.116762
0.696544 0.306325 0.235737
0.813352 0.444434 0.359808
0.89984 0.562631 0.469596
0.966476 0.664057 0.56437
0.199878 0 0
0.254124 0 0.0288548
0.286076 0.00259403 0.0521859
0.421424 0.062562 0.139193
0.566232 0.16817 0.256031
0.700343 0.301747 0.380743
0.815442 0.440238 0.499657
0.898939 0.555428 0.597162
0.965042 0.656794 0.678004
0.20679 0 0.0617685
0.270298 0 0.115053
0.301228 0.000503548 0.142458
0.410758 0.0484169 0.23331
0.558785 0.153643 0.361868
0.690852 0.283116 0.486564
0.806745 0.422354 0.600748
0.891905 0.539406 0.689036
0.95819 0.641093 0.760052
0.22092 0 0.153567
0.282887 0 0.206683
0.316762 0 0.230457
0.385275 0.0296635 0.294591
0.543465 0.133761 0.437324
0.675517 0.259434 0.560021
0.792538 0.398077 0.670893
0.881605 0.518624 0.756588
0.94934 0.62211 0.822522
0.229557 0 0.237476
0.289845 0 0.284611
0.330449 0 0.308705
0.35761 0.0141299 0.331273
0.524193 0.112337 0.486992
0.65774 0.234058 0.611261
0.777386 0.372808 0.722499
0.869612 0.496178 0.807645
0.939635 0.601801 0.871275
0.233845 0 0.307332
0.293462 0 0.348028
0.344717 0 0.378882
0.34789 0.00616464 0.369574
0.504585 0.092195 0.521675
0.640436 0.210391 0.649439
0.760723 0.34641 0.76025
0.856825 0.472908 0.846525
0.929259 0.58056 0.909697
0.280781 0 0
0.317876 0 0
0.381369 0.0253452 0
0.486213 0.0813764 0
0.604791 0.167956 0
0.727474 0.280095 0
0.831769 0.389624 0.00534066
0.914183 0.488167 0.00889601
0.940063 0.560113 0.0415808
0.280781 0 0
0.32491 0 0
0.369131 0.018204 0
0.469337 0.0671702 0
0.587945 0.149584 0
0.71017 0.25774 0
0.83061 0.381048 0.0323796
0.854047 0.446204 0.0603799
0.960998 0.580972 0.20177
0.280781 0 0
0.32491 0 0
0.347417 0.00767529 0
0.452094 0.0538033 0
0.572488 0.131151 0.010956
0.666331 0.222797 0.0433509
0.811292 0.370169 0.164691
0.912001 0.499794 0.286473
0.987625 0.613413 0.401434
0.280781 0 0
0.32491 0 0
0.333211 0 0
0.413046 0.0295415 0.0218814
0.56025 0.117357 0.101442
0.701701 0.240665 0.214054
0.830732 0.38407 0.340398
0.924544 0.509712 0.453727
0.994018 0.617456 0.551049
0.280217 0 0
0.327535 0 0.0294804
0.353689 0 0.0591592
0.416007 0.022446 0.111879
0.56846 0.113268 0.226734
0.704555 0.233661 0.348959
0.829465 0.374838 0.472389
0.923247 0.500954 0.577813
0.991638 0.608011 0.662058
0.290028 0 0.0653391
0.346532 0 0.118959
0.382376 0 0.16022
0.384726 0.00663767 0.180056
0.55726 0.0973678 0.321324
0.693843 0.21503 0.447486
0.818982 0.355169 0.568124
0.914153 0.482811 0.665934
0.984451 0.591592 0.74255
0.307073 0 0.160891
0.360693 0 0.212665
0.405402 0 0.258839
0.39678 0.00486763 0.259617
0.536278 0.0770428 0.386114
0.677287 0.192981 0.515648
0.801678 0.329015 0.633021
0.902083 0.460929 0.730526
0.973892 0.57084 0.802686
0.317082 0 0.247028
0.368673 0 0.292149
0.411536 0 0.330938
0.407752 0.0034638 0.326635
0.511284 0.0567636 0.426429
0.658381 0.170031 0.563058
0.783276 0.30222 0.679774
0.889082 0.43801 0.779629
0.962783 0.54934 0.8495
0.322972 0 0.3196
0.373434 0 0.356954
0.41474 0 0.387915
0.417548 0.00143435 0.383139
0.47422 0.0334325 0.441138
0.640055 0.148898 0.598199
0.765347 0.276661 0.71487
0.873533 0.412711 0.815152
0.95111 0.527108 0.886244
