filmlog/CameraDisplay2383_2.cube
TITLE "Generated by Resolve"
LUT_3D_SIZE 33
0 0.0610819 0
0 0.0617075 0
0 0.0624094 0
0 0.0634775 0
0 0.0648356 0
0 0.0666361 0
0 0.0688334 0
0 0.0714885 0
0 0.0747387 0
0 0.0786908 0
0 0.0832227 0
0 0.0883192 0
0 0.0941024 0
0 0.100618 0
0 0.107759 0
0 0.115389 0
0 0.123537 0
0 0.132174 0
0 0.140093 0
0 0.148486 0
0 0.156451 0
0 0.164446 0
0 0.173388 0
0 0.183429 0
0 0.193515 0
0 0.202884 0
0 0.212421 0
0 0.220554 0
0 0.228794 0
0 0.237232 0
0 0.261448 0
0.0030518 0.296284 0
0.0142061 0.326635 0
0 0.0609598 0
0 0.0616007 0
0 0.0623026 0
0 0.0633555 0
0 0.0647288 0
0 0.0665293 0
0 0.0687114 0
0 0.0713359 0
0 0.0746166 0
0 0.0785534 0
0 0.0830854 0
0 0.0881819 0
0 0.0940261 0
0 0.100526 0
0 0.107668 0
0 0.115297 0
0 0.12343 0
0 0.132036 0
0 0.140002 0
0 0.148394 0
0 0.156374 0
0 0.164355 0
0 0.173297 0
0 0.183337 0
0 0.193423 0
0 0.202792 0
0 0.21236 0
0 0.220478 0
0 0.228733 0
0 0.237217 0
0 0.261387 0
0.00294499 0.29601 0
0.0140078 0.325856 0
0 0.0608072 0
0 0.0614481 0
0 0.0621805 0
0 0.0632029 0
0 0.0646067 0
0 0.0663767 0
0 0.0685893 0
0 0.0712139 0
0 0.0744335 0
0 0.0784161 0
0 0.0829328 0
0 0.0880293 0
0 0.0938125 0
0 0.100313 0
0 0.107515 0
0 0.115129 0
0 0.123278 0
0 0.131945 0
0 0.139864 0
0 0.148257 0
0 0.156237 0
0 0.164279 0
0 0.173205 0
0 0.183246 0
0 0.193347 0
0 0.202716 0
0 0.212284 0
0 0.220417 0
0 0.228656 0
0 0.23714 0
0 0.261311 0
0.00282292 0.295766 0
0.0137942 0.325032 0
0 0.0606088 0
0 0.0612345 0
0 0.0619821 0
0 0.0630045 0
0 0.0643931 0
0 0.0661936 0
0 0.0683757 0
0 0.0710307 0
0 0.0742351 0
0 0.0782177 0
0 0.0827344 0
0 0.0878157 0
0 0.0935836 0
0 0.10013 0
0 0.107271 0
0 0.1149 0
0 0.123033 0
0 0.131746 0
0 0.139696 0
0 0.148089 0
0 0.1561 0
0 0.164141 0
0 0.173037 0
0 0.183062 0
0 0.193194 0
0 0.202564 0
0 0.212161 0
0 0.220279 0
0 0.22858 0
0 0.237034 0
0 0.261234 0
0.00268559 0.295491 0
0.0140078 0.327031 0
0 0.0603494 0
0 0.0610208 0
0 0.0617075 0
0 0.0627756 0
0 0.0641337 0
0 0.0659342 0
0 0.068101 0
0 0.0707561 0
0 0.0739605 0
0 0.0778973 0
0 0.0823987 0
0 0.0875257 0
0 0.0932784 0
0 0.0998245 0
0 0.10695 0
0 0.11458 0
0 0.122774 0
0 0.131518 0
0 0.139406 0
0 0.14786 0
0 0.155886 0
0 0.163928 0
0 0.172793 0
0 0.182818 0
0 0.193027 0
0 0.202396 0
0 0.212024 0
0 0.220142 0
0 0.228443 0
0 0.236896 0
0 0.261082 0
0.002533 0.295277 0
0.0144808 0.330724 0.00166323
0 0.060029 0
0 0.0606546 0
0 0.061387 0
0 0.0624094 0
0 0.063798 0
0 0.0655985 0
0 0.0678111 0
0 0.0704204 0
0 0.073579 0
0 0.0775006 0
0 0.0820478 0
0 0.0871748 0
0 0.0929122 0
0 0.099443 0
0 0.106554 0
0 0.11426 0
0 0.122362 0
0 0.131182 0
0 0.139116 0
0 0.147539 0
0 0.155673 0
0 0.163653 0
0 0.172534 0
0 0.182544 0
0 0.192737 0
0 0.202152 0
0 0.211826 0
0 0.219989 0
0 0.228244 0
0 0.236759 0
0 0.26099 0
0.00233463 0.294499 0
0.0150607 0.335363 0.00683604
0 0.059617 0
0 0.0602426 0
0 0.0609751 0
0 0.0620279 0
0 0.0634165 0
0 0.0651713 0
0 0.0673686 0
0 0.0700084 0
0 0.0731365 0
0 0.0770886 0
0 0.0815747 0
0 0.0866865 0
0 0.0924544 0
0 0.09897 0
0 0.106081 0
0 0.113771 0
0 0.121935 0
0 0.130755 0
0 0.138735 0
0 0.147158 0
0 0.155322 0
0 0.163363 0
0 0.172183 0
0 0.182193 0
0 0.192477 0
0 0.201892 0
0 0.211566 0
0 0.21973 0
0 0.228031 0
0 0.236561 0
0 0.262379 0
0.00230411 0.294362 0
0.015198 0.341756 0.0135042
0 0.059144 0
0 0.0597696 0
0 0.060502 0
0 0.0615091 0
0 0.0629282 0
0 0.0646677 0
0 0.066865 0
0 0.0695048 0
0 0.0726024 0
0 0.0765087 0
0 0.0810407 0
0 0.0861372 0
0 0.0918746 0
0 0.0983597 0
0 0.105516 0
0 0.113222 0
0 0.12137 0
0 0.130159 0
0 0.138277 0
0 0.1467 0
0 0.154971 0
0 0.162997 0
0 0.171771 0
0 0.181827 0
0 0.192096 0
0 0.201511 0
0 0.211231 0
0 0.219455 0
0 0.227787 0
0 0.236347 0
0 0.262058 0
0.00318914 0.297948 0
0.0150759 0.349706 0.0216373
0 0.0585946 0
0 0.0591897 0
0 0.0599222 0
0 0.0609598 0
0 0.0623484 0
0 0.0641184 0
0 0.0663157 0
0 0.0689403 0
0 0.0720226 0
0 0.0758526 0
0 0.0803693 0
0 0.0854963 0
0 0.0912032 0
0 0.097734 0
0 0.104875 0
0 0.112581 0
0 0.120775 0
0 0.129549 0
0 0.137758 0
0 0.146212 0
0 0.154498 0
0 0.16257 0
0 0.171267 0
0 0.181323 0
0 0.191699 0
0 0.201099 0
0 0.210819 0
0 0.219165 0
0 0.227451 0
0 0.236072 0
0 0.261494 0
0.0043946 0.30425 0.00613413
0.0155947 0.35729 0.0308385
0 0.057969 0
0 0.0585489 0
0 0.0592508 0
0 0.0602884 0
0 0.0616617 0
0 0.0634318 0
0 0.0656443 0
0 0.0682689 0
0 0.0713817 0
0 0.0751354 0
0 0.0796216 0
0 0.0847334 0
0 0.0904555 0
0 0.0969711 0
0 0.104082 0
0 0.111864 0
0 0.120027 0
0 0.128786 0
0 0.137148 0
0 0.145602 0
0 0.154009 0
0 0.162066 0
0 0.170672 0
0 0.180789 0
0 0.191226 0
0 0.200687 0
0 0.210391 0
0 0.218814 0
0 0.2271 0
0 0.236896 0
0 0.266377 0
0.00576791 0.312673 0.0166323
0.0164492 0.36527 0.0422065
0 0.0572518 0
0 0.0578622 0
0 0.0585336 0
0 0.059556 0
0 0.060914 0
0 0.0626841 0
0 0.0648814 0
0 0.0674907 0
0 0.0705882 0
0 0.0742962 0
0 0.0788128 0
0 0.0839094 0
0 0.089601 0
0 0.0960708 0
0 0.103212 0
0 0.110994 0
0 0.119203 0
0 0.128008 0
0 0.136461 0
0 0.1449 0
0 0.153399 0
0 0.161501 0
0 0.170001 0
0 0.180102 0
0 0.190616 0
0 0.200122 0
0 0.209827 0
0 0.218402 0
0 0.226734 0
0 0.24004 0
0 0.275074 0.00495918
0.00675975 0.320638 0.0267491
0.0175174 0.373953 0.0563516
0 0.0564736 0
0 0.0570535 0
0 0.0577249 0
0 0.0586862 0
0 0.0600748 0
0 0.0618296 0
0 0.0640269 0
0 0.0666514 0
0 0.0697337 0
0 0.0733349 0
0 0.0778363 0
0 0.082948 0
0 0.0886702 0
0 0.095079 0
0 0.102251 0
0 0.110048 0
0 0.118227 0
0 0.127062 0
0 0.135653 0
0 0.144137 0
0 0.152758 0
0 0.1608 0
0 0.169314 0
0 0.1794 0
0 0.189899 0
0 0.199496 0
0 0.209247 0
0 0.217914 0
0 0.227344 0
0 0.247715 0
0 0.282277 0.0170138
0.00794995 0.329854 0.0396429
0.0186007 0.38323 0.073518
0 0.0555886 0
0 0.0561837 0
0 0.0568551 0
0 0.0578164 0
0 0.059144 0
0 0.060914 0
0 0.0630961 0
0 0.0657054 0
0 0.0687724 0
0 0.0723583 0
0 0.0767681 0
0 0.0818494 0
0 0.087602 0
0 0.0940261 0
0 0.101152 0
0 0.10898 0
0 0.117174 0
0 0.125978 0
0 0.134768 0
0 0.143282 0
0 0.15201 0
0 0.160098 0
0 0.168536 0
0 0.178622 0
0 0.18909 0
0 0.19884 0
0 0.208591 0
0 0.21738 0
0 0.236576 0
0 0.25417 0.0110475
0 0.291554 0.0284886
0.00921645 0.339849 0.0563516
0.0198215 0.393072 0.0938277
0 0.0545968 0
0 0.0552071 0
0 0.0558633 0
0 0.0568551 0
0 0.0581521 0
0 0.0598611 0
0 0.0620279 0
0 0.064622 0
0 0.0677043 0
0 0.0712749 0
0 0.0755932 0
0 0.0806897 0
0 0.0864118 0
0 0.0927596 0
0 0.0999161 0
0 0.107759 0
0 0.11603 0
0 0.124788 0
0 0.133806 0
0 0.14229 0
0 0.151186 0
0 0.159304 0
0 0.167742 0
0 0.177676 0
0 0.188205 0
0 0.198108 0
0 0.207858 0
0 0.224002 0
0 0.242512 0.00903334
0 0.263096 0.0226139
0 0.301808 0.0441138
0.0105592 0.350545 0.0770581
0.021088 0.403098 0.116869
0 0.0535286 0
0 0.0541238 0
0 0.0547951 0
0 0.0557717 0
0 0.0570535 0
0 0.0587015 0
0 0.0608682 0
0 0.0634775 0
0 0.0665446 0
0 0.0701305 0
0 0.0743572 0
0 0.079408 0
0 0.0850843 0
0 0.0914168 0
0 0.0985885 0
0 0.106386 0
0 0.114733 0
0 0.123522 0
0 0.132753 0
0 0.141222 0
0 0.15021 0
0 0.158404 0
0 0.166873 0
0 0.17673 0
0 0.187228 0
0 0.197253 0
0 0.210452 0
0 0.230686 0.00480659
0 0.250645 0.0213779
0 0.273426 0.037644
0.0010071 0.312901 0.0645609
0.0119631 0.3617 0.10135
0.0222934 0.412451 0.142016
0 0.0523842 0
0 0.0529793 0
0 0.0536202 0
0 0.0545968 0
0 0.0558633 0
0 0.0575265 0
0 0.059617 0
0 0.0622416 0
0 0.0652781 0
0 0.0688792 0
0 0.0729381 0
0 0.0779583 0
0 0.0836957 0
0 0.090013 0
0 0.0971237 0
0 0.104952 0
0 0.113298 0
0 0.122118 0
0 0.131579 0
0 0.140078 0
0 0.149035 0
0 0.157427 0
0 0.165927 0
0 0.175616 0
0 0.186236 0
0 0.198413 0
0 0.219532 0.0028687
0 0.238926 0.0188602
0 0.261067 0.0370794
0 0.284596 0.0579843
0.00251774 0.324514 0.0895705
0.0131991 0.371908 0.128069
0.0234226 0.42089 0.169024
0 0.0511177 0
0 0.0516976 0
0 0.052369 0
0 0.0532998 0
0 0.0545968 0
0 0.0562448 0
0 0.0582895 0
0 0.0608682 0
0 0.0639048 0
0 0.0674754 0
0 0.0715496 0
0 0.0764477 0
0 0.0821241 0
0 0.0884565 0
0 0.0955367 0
0 0.103349 0
0 0.111788 0
0 0.120607 0
0 0.130068 0
0 0.138796 0
0 0.147784 0
0 0.156374 0
0 0.164874 0
0 0.174487 0
0 0.188937 0
0 0.20853 0.00323491
0 0.227558 0.0182345
0 0.249332 0.035111
0 0.272618 0.0588235
0 0.296239 0.0836805
0.00395209 0.335592 0.117815
0.0143587 0.381247 0.156954
0.0245518 0.429007 0.198291
0 0.0497292 0
0 0.050309 0
0 0.0509804 0
0 0.0519265 0
0 0.0532082 0
0 0.0548714 0
0 0.0569009 0
0 0.0593576 0
0 0.0624094 0
0 0.06598 0
0 0.0700236 0
0 0.074815 0
0 0.0804303 0
0 0.0867628 0
0 0.0937972 0
0 0.101625 0
0 0.110124 0
0 0.118959 0
0 0.128435 0
0 0.137438 0
0 0.146456 0
0 0.155245 0
0 0.163775 0
0 0.180957 0
0 0.197726 0.00569161
0 0.216907 0.0194553
0 0.238102 0.0356909
0 0.261692 0.058381
0 0.284703 0.0866407
0 0.307713 0.113252
0.00520333 0.345312 0.148302
0.0154269 0.389746 0.187976
0.0256046 0.436316 0.229038
0 0.0482795 0
0 0.0488441 0
0 0.0495155 0
0 0.0504768 0
0 0.0517433 0
0 0.0533913 0
0 0.0553902 0
0 0.0578622 0
0 0.0608225 0
0 0.0643473 0
0 0.0684215 0
0 0.0730144 0
0 0.0786755 0
0 0.084947 0
0 0.0919356 0
0 0.0997482 0
0 0.108248 0
0 0.117174 0
0 0.12665 0
0 0.135943 0
0 0.144991 0
0 0.153994 0
0 0.171252 0
0 0.187594 0.0100252
0 0.206485 0.0226291
0 0.228016 0.0389105
0 0.250614 0.0609293
0 0.274327 0.0883955
0 0.29659 0.11899
0 0.317617 0.14522
0.00634775 0.353841 0.180804
0.0163119 0.396918 0.220371
0.0265354 0.442557 0.260288
0 0.0467231 0
0 0.0472877 0
0 0.0479438 0
0 0.0488899 0
0 0.0501717 0
0 0.0517891 0
0 0.0538033 0
0 0.0562448 0
0 0.0591287 0
0 0.0626688 0
0 0.0666972 0
0 0.0712749 0
0 0.0767681 0
0 0.0830091 0
0 0.0899672 0
0 0.0977493 0
0 0.106294 0
0 0.115297 0
0 0.124773 0
0 0.134371 0
0 0.147051 0
0 0.1617 0.00422675
0 0.177981 0.0157473
0 0.196963 0.0280613
0 0.217899 0.0446784
0 0.240482 0.0667887
0 0.263249 0.0935073
0 0.287007 0.123445
0 0.306737 0.153613
0 0.32694 0.180041
0.00729381 0.361059 0.214771
0.0170748 0.403052 0.253437
0.0273594 0.447761 0.291478
0 0.0450752 0
0 0.045655 0
0 0.0463111 0
0 0.0472267 0
0 0.0484932 0
0 0.0501259 0
0 0.0521096 0
0 0.054551 0
0 0.0573892 0
0 0.0608072 0
0 0.0648356 0
0 0.069398 0
0 0.0746777 0
0 0.0809644 0
0 0.087892 0
0 0.095613 0
0 0.104143 0
0 0.113222 0
0 0.12488 0
0 0.138491 0.00247196
0 0.152972 0.0126955
0 0.169528 0.0229038
0 0.187945 0.035996
0 0.208652 0.0536507
0 0.230259 0.0760967
0 0.252995 0.102235
0 0.27512 0.130663
0 0.296757 0.160555
0 0.315175 0.19028
0 0.333898 0.215717
0.00817884 0.367254 0.249165
0.0178378 0.408408 0.286305
0.0280919 0.452018 0.322896
0 0.0433661 0
0 0.0439307 0
0 0.0445411 0
0 0.0454871 0
0 0.0466926 0
0 0.0483253 0
0 0.050309 0
0 0.0527047 0
0 0.0555734 0
0 0.0588693 0
0 0.0628824 0
0 0.0674296 0
0 0.0725414 0
0 0.0787518 0
0 0.0857099 0
0 0.0937209 0
0 0.10457 0
0 0.116442 0.00447089
0 0.129717 0.0130617
0 0.145098 0.0218509
0 0.161517 0.03299
0 0.179507 0.0474556
0 0.19942 0.0663767
0 0.220737 0.089189
0 0.242542 0.114794
0 0.264225 0.141955
0 0.284825 0.170275
0 0.304433 0.199222
0 0.322118 0.228107
0 0.339101 0.250935
0.00891127 0.372137 0.283009
0.0183261 0.41181 0.318669
0.028687 0.455055 0.35404
0 0.0415351 0
0 0.0420844 0
0 0.0427253 0
0 0.0436408 0
0 0.0448615 0
0 0.0464332 0
0 0.0484016 0
0 0.0507973 0
0 0.0536202 0
0 0.0569162 0
0 0.0608072 0
0 0.0653239 0
0 0.0710155 0
0 0.0781567 0
0 0.0863661 0.00254826
0 0.0960861 0.00917067
0 0.10779 0.0161746
0 0.121691 0.0240787
0 0.136706 0.0339818
0 0.153735 0.0470588
0 0.171603 0.0635386
0 0.1906 0.0832837
0 0.211276 0.106203
0 0.231907 0.130556
0 0.251987 0.1561
0 0.272602 0.183352
0 0.291676 0.210819
0 0.310552 0.238834
0 0.326986 0.265064
0 0.342672 0.285389
0.00944533 0.375463 0.316747
0.0187686 0.414664 0.351003
0.02916 0.45716 0.384558
0 0.0395972 0
0 0.040177 0
0 0.0407874 0
0 0.0416876 0
0 0.0429236 0
0 0.0444648 0
0 0.0464179 0
0 0.0488746 0
0 0.0519722 0
0 0.0556802 0
0 0.0599222 0.002533
0 0.0654612 0.00680552
0 0.0719768 0.0115663
0 0.0796368 0.0164187
0 0.0893416 0.0221408
0 0.100587 0.0294347
0 0.113695 0.0389258
0 0.128557 0.0510109
0 0.145312 0.0662242
0 0.163333 0.0842145
0 0.181872 0.104051
0 0.201251 0.126238
0 0.220478 0.149294
0 0.239246 0.173388
0 0.258228 0.198642
0 0.278111 0.225223
0 0.297154 0.251865
0 0.314321 0.276616
0 0.330159 0.300954
0 0.345541 0.319509
0.00981155 0.377295 0.349157
0.0191501 0.416526 0.382437
0.0295567 0.458579 0.414221
0 0.0377356 0.0041352
0 0.0383459 0.00469978
0 0.0390173 0.00529488
0 0.0400244 0.00614939
0 0.041413 0.00733959
0 0.0433051 0.00898756
0 0.045716 0.0109407
0 0.0486458 0.013077
0 0.0522469 0.0156405
0 0.0565805 0.0185855
0 0.0617227 0.0222477
0 0.0678721 0.0267643
0 0.0751354 0.0323949
0 0.0839399 0.039704
0 0.094316 0.0488746
0 0.106111 0.059968
0 0.11986 0.0736248
0 0.136019 0.0899367
0 0.152972 0.107683
0 0.170413 0.126864
0 0.188876 0.147997
0 0.207141 0.16997
0 0.225406 0.192844
0 0.244053 0.216983
0 0.264424 0.242832
0 0.2822 0.266423
0 0.300298 0.290547
0 0.317067 0.314336
0 0.332387 0.336553
0 0.34667 0.352682
0.0101167 0.378424 0.380529
0.01944 0.41735 0.412375
0.0298619 0.459297 0.442237
0 0.037644 0.0233921
0 0.0383307 0.0239719
0 0.0391546 0.0246586
0 0.0403296 0.0256504
0 0.0419623 0.027039
0 0.0440833 0.0289616
0 0.0467689 0.0314794
0 0.0500343 0.0345922
0 0.0540017 0.0384527
0 0.0586862 0.0432746
0 0.0644541 0.0493324
0 0.0712902 0.0566262
0 0.0789807 0.0649882
0 0.0877699 0.0747234
0 0.0981155 0.086305
0 0.111147 0.100587
0 0.125093 0.115999
0 0.140337 0.132662
0 0.15697 0.151263
0 0.174502 0.171511
0 0.193637 0.193454
0 0.210895 0.214893
0 0.229267 0.238087
0 0.247822 0.260609
0 0.265858 0.283055
0 0.283787 0.30576
0 0.302586 0.329656
0 0.318059 0.350317
0 0.333852 0.371237
0 0.347127 0.383948
0.0102998 0.378592 0.410147
0.0195926 0.417121 0.440146
0.0300603 0.459083 0.468833
0 0.0379644 0.0508278
0 0.0387579 0.0518349
0 0.0396429 0.0529183
0 0.0409094 0.054551
0 0.04271 0.0567941
0 0.0449531 0.059617
0 0.0477455 0.0631418
0 0.0512093 0.0675517
0 0.055375 0.0728161
0 0.0602121 0.0789654
0 0.0657664 0.0858778
0 0.0722362 0.0939651
0 0.0803845 0.104158
0 0.0904402 0.116487
0 0.100862 0.129274
0 0.112337 0.142641
0 0.125811 0.158312
0 0.141512 0.176562
0 0.15903 0.196658
0 0.17641 0.216541
0 0.194629 0.237385
0 0.212055 0.257816
0 0.231037 0.280156
0 0.247883 0.300237
0 0.265522 0.321447
0 0.284108 0.343984
0 0.302373 0.365393
0 0.318181 0.384756
0 0.33463 0.40441
0 0.346258 0.412924
0.0104067 0.377783 0.437873
0.0197147 0.41593 0.466514
0.0301976 0.458228 0.494347
0 0.0357977 0.084535
0 0.0365301 0.0855573
0 0.0373541 0.0867018
0 0.0385901 0.0884565
0 0.0403143 0.0909438
0 0.0426642 0.0943465
0 0.0456245 0.0986191
0 0.0489052 0.103273
0 0.0529488 0.108965
