filmlog/CameraDisplay2383_2.cube
TITLE "Generated by Resolve"
LUT_3D_SIZE 5
0 0.0610819 0
0 0.0747387 0
0 0.123537 0
0 0.193515 0
0.0142061 0.326635 0
0 0.0585946 0
0 0.0720226 0
0 0.120775 0
0 0.191699 0
0.0155947 0.35729 0.0308385
0 0.0511177 0
0 0.0639048 0
0 0.111788 0
0 0.188937 0
0.0245518 0.429007 0.198291
0 0.0377356 0.0041352
0 0.0522469 0.0156405
0 0.11986 0.0736248
0 0.264424 0.242832
0.0298619 0.459297 0.442237
0 0.00392157 0.214862
0 0.0103151 0.214008
0 0.089189 0.347066
0 0.242298 0.499428
0.0296788 0.441382 0.623758
0 0.0550698 0
0 0.0682078 0
0 0.116594 0
0 0.188647 0
0.0861372 0.40798 0.00502022
0 0.0527504 0
0 0.0657054 0
0 0.113771 0
0 0.186526 0
0.0705425 0.410788 0.0355535
0 0.0454108 0
0 0.0577249 0
0 0.104555 0
0 0.184421 0
0.044831 0.441505 0.19324
0 0.0321508 0.00396735
0 0.0458991 0.0153506
0 0.110201 0.0719615
0 0.256748 0.241932
0.0439918 0.4869 0.452201
0 0.00250248 0.218189
0 0.00650034 0.218387
0 0.0768902 0.337011
0 0.232563 0.496117
0.0438087 0.467536 0.637369
0 0.0370794 0
0 0.0488899 0
0 0.093492 0
0 0.176883 0
0.41059 0.620691 0.0336461
0 0.0349889 0
0 0.0466011 0
0 0.090547 0
0 0.17435 0
0.383917 0.597162 0.0541848
0 0.0284733 0
0 0.0395209 0
0 0.0814984 0
0 0.167956 0
0.407614 0.678401 0.324422
0 0.0187839 0.00459297
0 0.0272526 0.014374
0 0.0817884 0.0674601
0.0083772 0.23418 0.232303
0.401602 0.698024 0.632593
0 0 0.233188
0 0.000900282 0.233082
0 0.0335241 0.278294
0.00758373 0.202594 0.47837
0.388144 0.662821 0.848478
0 0.00976577 0
0.00723278 0.0162356 0
0.0572518 0.0661784 0
0.378866 0.34049 0.000122072
0.791913 0.695247 0.0511635
0 0.00862135 0
0.00762951 0.0150912 0
0.0566262 0.0626993 0
0.376486 0.333806 0
0.739605 0.652232 0.067155
0.00125124 0.00451667 0
0.00894179 0.0112764 0
0.0548409 0.0522164 0
0.375708 0.320089 0.0090486
0.79028 0.735241 0.370993
0.00729381 0 0.0106966
0.00978103 0.00140383 0.0126955
0.0544747 0.0411841 0.0599527
0.377813 0.332967 0.344182
0.801831 0.756954 0.718425
0.00190738 0 0.248051
0.00817884 0 0.249912
0.0455329 0.0120241 0.293217
0.344671 0.256657 0.630503
0.780865 0.704021 0.948989
0.280781 0 0
0.300038 0 0
0.349905 0.0136873 0
0.626841 0.186542 0
0.940063 0.560113 0.0415808
0.280781 0 0
0.300038 0 0
0.340047 0.0091249 0
0.619532 0.178195 0
0.918624 0.538949 0.0599222
0.280781 0 0
0.300038 0 0
0.327321 0 0
0.602747 0.155962 0.000869764
0.982864 0.607874 0.348943
0.277974 0 0.00712596
0.299901 0 0.0195315
0.364614 0 0.076051
0.593256 0.130816 0.268589
0.990646 0.605493 0.678462
0.322972 0 0.3196
0.344884 0 0.335485
0.403571 0 0.379431
0.517372 0.0567941 0.48217
0.95111 0.527108 0.886244
