filmlog/CameraDisplay2383_2.cube
TITLE "Generated by Resolve"
LUT_3D_SIZE 9
0 0.0610819 0
0 0.0648356 0
0 0.0747387 0
0 0.0941024 0
0 0.123537 0
0 0.156451 0
0 0.193515 0
0 0.228794 0
0.0142061 0.326635 0
0 0.0603494 0
0 0.0641337 0
0 0.0739605 0
0 0.0932784 0
0 0.122774 0
0 0.155886 0
0 0.193027 0
0 0.228443 0
0.0144808 0.330724 0.00166323
0 0.0585946 0
0 0.0623484 0
0 0.0720226 0
0 0.0912032 0
0 0.120775 0
0 0.154498 0
0 0.191699 0
0 0.227451 0
0.0155947 0.35729 0.0308385
0 0.0555886 0
0 0.059144 0
0 0.0687724 0
0 0.087602 0
0 0.117174 0
0 0.15201 0
0 0.18909 0
0 0.236576 0
0.0198215 0.393072 0.0938277
0 0.0511177 0
0 0.0545968 0
0 0.0639048 0
0 0.0821241 0
0 0.111788 0
0 0.147784 0
0 0.188937 0
0 0.272618 0.0588235
0.0245518 0.429007 0.198291
0 0.0450752 0
0 0.0484932 0
0 0.0573892 0
0 0.0746777 0
0 0.104143 0
0 0.152972 0.0126955
0 0.230259 0.0760967
0 0.315175 0.19028
0.0280919 0.452018 0.322896
0 0.0377356 0.0041352
0 0.041413 0.00733959
0 0.0522469 0.0156405
0 0.0751354 0.0323949
0 0.11986 0.0736248
0 0.188876 0.147997
0 0.264424 0.242832
0 0.332387 0.336553
0.0298619 0.459297 0.442237
0 0.0294499 0.115129
0 0.034226 0.122927
0 0.0476081 0.143526
0 0.0753948 0.183139
0 0.119509 0.237476
0 0.190051 0.316686
0 0.261418 0.392096
0 0.328862 0.458732
0.0301213 0.453864 0.541299
0 0.00392157 0.214862
0 0.00509651 0.215015
0 0.0103151 0.214008
0 0.0368963 0.266224
0 0.089189 0.347066
0 0.163745 0.430228
0 0.242298 0.499428
0 0.314717 0.553719
0.0296788 0.441382 0.623758
0 0.0592966 0
0 0.0630961 0
0 0.0727703 0
0 0.0920882 0
0 0.121599 0
0 0.155108 0
0 0.192248 0
0 0.227863 0
0.0234226 0.336858 0
0 0.0586404 0
0 0.0623484 0
0 0.0720684 0
0 0.0912642 0
0 0.120775 0
0 0.154559 0
0 0.191714 0
0 0.227512 0
0.0225681 0.338262 0.00106813
0 0.0569467 0
0 0.0605631 0
0 0.0702373 0
0 0.0892348 0
0 0.118791 0
0 0.153124 0
0 0.190326 0
0 0.22652 0
0.0213169 0.364813 0.030396
0 0.0539406 0
0 0.0574807 0
0 0.0669871 0
0 0.0855726 0
0 0.115221 0
0 0.150607 0
0 0.187655 0
0 0.23566 0
0.0235752 0.397986 0.0930648
0 0.0494698 0
0 0.0529793 0
0 0.0621347 0
0 0.0801556 0
0 0.109789 0
0 0.146151 0
0 0.187701 0
0 0.271519 0.0588846
0.0279393 0.436072 0.19913
0 0.043534 0
0 0.0468605 0
0 0.0557259 0
0 0.0727703 0
0 0.102098 0
0 0.151095 0.0127108
0 0.228565 0.0760967
0 0.31397 0.190402
0.0317845 0.459586 0.324819
0 0.0361486 0.00408942
0 0.039765 0.00730907
0 0.0504311 0.0155642
0 0.0729992 0.0322271
0 0.117098 0.0731365
0 0.186343 0.147585
0 0.262409 0.242649
0 0.331121 0.336751
0.0337835 0.467384 0.445426
0 0.0272221 0.113283
0 0.031693 0.121004
0 0.0448463 0.141695
0 0.0722362 0.181033
0 0.11635 0.236042
0 0.186862 0.315465
0 0.258961 0.391608
0 0.327047 0.45861
0.0340124 0.461585 0.544915
0 0.00352483 0.215793
0 0.00434882 0.216953
0 0.00848402 0.212955
0 0.0328832 0.258564
0 0.0856794 0.344289
0 0.160006 0.427955
0 0.239643 0.498634
0 0.312825 0.553445
0.0336004 0.449119 0.628199
0 0.0550698 0
0 0.0585946 0
0 0.0682078 0
0 0.0869612 0
0 0.116594 0
0 0.151583 0
0 0.188647 0
0 0.229404 0
0.0861372 0.40798 0.00502022
0 0.0544137 0
0 0.0579538 0
0 0.0675212 0
0 0.0861372 0
0 0.115785 0
0 0.151034 0
0 0.188037 0
0 0.228962 0
0.0800488 0.400595 0.0077821
0 0.0527504 0
0 0.0562448 0
0 0.0657054 0
0 0.084123 0
0 0.113771 0
0 0.149416 0
0 0.186526 0
0 0.227909 0
0.0705425 0.410788 0.0355535
0 0.0497749 0
0 0.053254 0
0 0.0624552 0
0 0.0805066 0
0 0.110201 0
0 0.146471 0
0 0.183856 0
0 0.2318 0
0.0563363 0.425849 0.0980545
0 0.0454108 0
0 0.0488136 0
0 0.0577249 0
0 0.0750744 0
0 0.104555 0
0 0.142061 0
0 0.184421 0
0 0.271092 0.0539559
0.044831 0.441505 0.19324
0 0.0395972 0
0 0.0428931 0
0 0.0515602 0
0 0.0682078 0
0 0.0968338 0
0 0.146426 0.0127565
0 0.224155 0.0760357
1.5259e-05 0.314122 0.185367
0.0418097 0.477958 0.328679
0 0.0321508 0.00396735
0 0.0356603 0.007187
0 0.0458991 0.0153506
0 0.067628 0.0317998
0 0.110201 0.0719615
0 0.1794 0.146273
0 0.256748 0.241932
0.00285344 0.33106 0.332219
0.0439918 0.4869 0.452201
0 0.022034 0.10869
0 0.0256809 0.115831
0 0.0378729 0.136553
0 0.0642863 0.175555
0 0.108202 0.232181
0 0.178485 0.312062
0 0.252796 0.390402
0.00331121 0.325551 0.453269
0.0442817 0.480674 0.553292
0 0.00250248 0.218189
0 0.00335698 0.219303
0 0.00650034 0.218387
0 0.0236362 0.239353
0 0.0768902 0.337011
0 0.150408 0.421927
0 0.232563 0.496117
0.00296025 0.311269 0.548806
0.0438087 0.467536 0.637369
0 0.0476692 0
0 0.0511482 0
0 0.0601816 0
0 0.0779431 0
0 0.107515 0
0 0.144366 0
0 0.181918 0
0.00454719 0.254078 0
0.213062 0.516274 0.0190433
0 0.0470283 0
0 0.0504921 0
0 0.0594492 0
0 0.0771496 0
0 0.106706 0
0 0.14374 0
0 0.181308 0
0.00456245 0.253559 0
0.204044 0.504921 0.0213779
0 0.0454414 0
0 0.0488441 0
0 0.0577249 0
0 0.0751354 0
0 0.104555 0
0 0.142061 0
0 0.179751 0
0.00460822 0.252323 0
0.201312 0.513069 0.0467079
0 0.0426032 0
0 0.0459297 0
0 0.0547341 0
0 0.0716716 0
0 0.100847 0
0 0.139101 0
0 0.177066 0
0.00376898 0.253223 0
0.200015 0.543069 0.140948
0 0.0383917 0
0 0.0416571 0
0 0.0502632 0
0 0.0667582 0
0 0.0952316 0
0 0.134615 0
0 0.178515 0
0.00991836 0.290684 0.0537423
0.189792 0.564157 0.260212
0 0.0328527 0
0 0.0359655 0
0 0.0442969 0
0 0.0601358 0
0 0.0876173 0
0 0.137545 0.0127565
0 0.216007 0.0758831
0.0163119 0.33669 0.191928
0.169802 0.560037 0.382269
0 0.0258183 0.00390631
0 0.0286107 0.00694286
0 0.037995 0.0149233
0 0.0585946 0.0310369
0 0.0983749 0.0700236
0 0.166873 0.143786
0 0.246052 0.240345
0.0192874 0.353643 0.344686
0.140612 0.524636 0.4748
0 0.0135195 0.0998245
0 0.0165713 0.10631
0 0.0263523 0.12668
0 0.0507362 0.166186
0 0.0935531 0.224826
0 0.162753 0.304952
0 0.241489 0.388067
0.019791 0.347814 0.470542
0.133455 0.51635 0.577752
0 0.000640879 0.223194
0 0.0015259 0.223941
0 0.00367742 0.225925
0 0.0126497 0.229404
0 0.0601358 0.319158
0 0.133379 0.410788
0 0.219577 0.491051
0.0191043 0.32961 0.565332
0.129244 0.501991 0.664027
0 0.0370794 0
0 0.0403296 0
0 0.0488899 0
0 0.0652628 0
0 0.093492 0
0 0.133211 0
0 0.176883 0
0.110536 0.363287 0
0.41059 0.620691 0.0336461
0 0.0364691 0
0 0.0397192 0
0 0.0482338 0
0 0.0645457 0
0 0.092668 0
0 0.13254 0
0 0.176181 0
0.110582 0.362615 0
0.399741 0.609216 0.0370794
0 0.0349889 0
0 0.0381628 0
0 0.0466011 0
0 0.0627298 0
0 0.090547 0
0 0.13077 0
0 0.17435 0
0.110719 0.360952 0
0.383917 0.597162 0.0541848
0 0.0323491 0
0 0.0354467 0
0 0.0437324 0
0 0.0595102 0
0 0.0869001 0
0 0.12723 0
0 0.171023 0
0.106325 0.359792 0.00347906
0.401083 0.642451 0.175952
0 0.0284733 0
0 0.0314946 0
0 0.0395209 0
0 0.054963 0
0 0.0814984 0
0 0.121859 0
0 0.167956 0
0.0739757 0.348043 0.0607767
0.407614 0.678401 0.324422
0 0.0242618 0
0 0.0266423 0
0 0.0339208 0
0 0.0488441 0
0 0.0740368 0
0 0.122927 0.0125582
0.00257877 0.204654 0.0681926
0.052369 0.37203 0.198398
0.407004 0.697185 0.485191
0 0.0187839 0.00459297
0 0.0204776 0.00709544
0 0.0272526 0.014374
0 0.0453193 0.0296635
0 0.0817884 0.0674601
0 0.147066 0.139406
0.0083772 0.23418 0.232303
0.0483253 0.383658 0.352605
0.401602 0.698024 0.632593
0 0.0021973 0.0937819
0 0.00456245 0.0969406
0 0.0114137 0.108736
0 0.0304875 0.148577
0 0.0722667 0.212314
0 0.13727 0.291524
0.00906386 0.227054 0.377615
0.0459449 0.381552 0.488792
0.39501 0.685176 0.752163
0 0 0.233188
0 0 0.232792
0 0.000900282 0.233082
0 0.00489815 0.235279
0 0.0335241 0.278294
0 0.105974 0.388113
0.00758373 0.202594 0.47837
0.0441749 0.358907 0.585672
0.388144 0.662821 0.848478
0 0.0246433 0
0 0.027039 0
0 0.0344244 0
0 0.0494087 0
0 0.0744488 0
0.000137331 0.111055 0
0.104601 0.260655 0
0.360555 0.492195 0.00234989
0.615976 0.682612 0.045182
0 0.0242008 0
0 0.0265812 0
0 0.0338445 0
0 0.0487526 0
0 0.0736706 0
9.15541e-05 0.110109 0
0.104524 0.25948 0
0.360311 0.490837 0.00231937
0.603296 0.67068 0.0492561
0 0.0230869 0
0 0.0254368 0
0 0.0323796 0
0 0.0471046 0
0 0.0717174 0
1.5259e-05 0.107774 0
0.104372 0.25655 0
0.359899 0.487816 0.00228885
0.573922 0.645289 0.0622721
0 0.0213931 0
0 0.0234226 0
0 0.0298009 0
0 0.0442512 0
0 0.0684825 0
0 0.103593 0
0.104082 0.251316 0
0.363638 0.494148 0.0227665
0.60029 0.691936 0.194125
0 0.0191348 0
0 0.0208896 0
0 0.0264439 0
0 0.0400244 0
0 0.0636149 0
0 0.0970779 0
0.104692 0.248203 0
0.341711 0.48394 0.0979324
0.616526 0.73312 0.358862
0 0.0160525 0
0 0.0178836 0
0 0.0222934 0
0 0.0343938 0
0 0.0570993 0
0.000549325 0.0973373 0.00418097
0.0817121 0.244633 0.079118
0.353246 0.529763 0.302296
0.623682 0.756054 0.535241
0 0.0103151 0.00605783
0 0.0123293 0.00859083
0 0.0175784 0.0151064
0 0.0290074 0.0279088
0 0.0603037 0.0635538
0.00650034 0.116106 0.122057
0.0572824 0.247501 0.235874
0.349203 0.536217 0.494224
0.622629 0.758679 0.695933
0 0 0.106386
0 0 0.107546
0 0.000167849 0.111345
0 0.00735485 0.118608
0 0.0427558 0.186954
0.0068513 0.104952 0.267002
0.049546 0.240085 0.389776
0.339864 0.516777 0.645106
0.615228 0.741878 0.822934
0 0 0.268574
0 0 0.257939
0 0 0.2477
0 0.000976577 0.245762
0 0.00793469 0.245579
0.00337224 0.0765393 0.360113
0.0467842 0.2094 0.491188
0.329732 0.482292 0.754299
0.606241 0.715648 0.924208
0 0.00976577 0
0.000228885 0.0111238 0
0.00723278 0.0162356 0
0.0186007 0.0284428 0
0.0572518 0.0661784 0
0.167712 0.165316 0
0.378866 0.34049 0.000122072
0.607813 0.533578 0.0104067
0.791913 0.695247 0.0511635
0 0.00947585 0
0.000427253 0.0108186 0
0.00735485 0.0159152 0
0.018616 0.0278325 0
0.057084 0.0652171 0
0.167163 0.163607 0
0.378149 0.338552 4.57771e-05
0.607172 0.531716 0.0103456
0.778058 0.683391 0.0555734
0 0.00862135 0
0.000915541 0.0100404 0
0.00762951 0.0150912 0
0.0186923 0.0263371 0
0.0566262 0.0626993 0
0.165682 0.159182 0
0.376486 0.333806 0
0.605661 0.527169 0.0102235
0.739605 0.652232 0.067155
0 0.00697337 0
0.00170901 0.00860609 0
0.00814832 0.0135805 0
0.0188296 0.0240787 0
0.0558022 0.0582895 0
0.163058 0.1514 0
0.373465 0.325277 0
0.614115 0.534264 0.03299
0.768475 0.694209 0.199222
0.00125124 0.00451667 0
0.00297551 0.00607309 0
0.00894179 0.0112764 0
0.0190127 0.0208591 0
0.0548409 0.0522164 0
0.159091 0.139849 0
0.375708 0.320089 0.0090486
0.577447 0.506844 0.0999771
0.79028 0.735241 0.370993
0.00381476 0.000915541 0
0.00512703 0.00268559 0
0.0100252 0.00793469 0
0.0196078 0.0173953 0
0.0535592 0.0442206 0
0.151339 0.124514 0.0104982
0.365652 0.316167 0.122316
0.607126 0.555413 0.336858
0.801175 0.756954 0.553414
0.00729381 0 0.0106966
0.0068513 0 0.0101015
0.00978103 0.00140383 0.0126955
0.0185092 0.0126345 0.0228733
0.0544747 0.0411841 0.0599527
0.161639 0.135592 0.160723
0.377813 0.332967 0.344182
0.611109 0.561608 0.546807
0.801831 0.756954 0.718425
0.00213626 0 0.115587
0.004654 0 0.117739
0.00741588 0 0.113085
0.0142519 0 0.125917
0.0529946 0.0308537 0.197833
0.156817 0.119051 0.327276
0.365835 0.305165 0.5196
0.600381 0.536522 0.707698
0.794842 0.738827 0.849439
0.00190738 0 0.248051
0.00389105 0 0.248844
0.00817884 0 0.249912
0.0134585 0 0.23444
0.0455329 0.0120241 0.293217
0.144564 0.0867018 0.436515
0.344671 0.256657 0.630503
0.582437 0.493416 0.819669
0.780865 0.704021 0.948989
0.111116 0 0
0.11284 0 0
0.126726 0.00787366 0
0.166979 0.022446 0
0.244175 0.055848 0
0.380728 0.141466 0
0.573114 0.299397 0.00175479
0.762432 0.484749 0.0102541
0.889052 0.644129 0.0477913
0.112352 0 0
0.113497 0 0
0.126925 0.00737011 0
0.166598 0.0218662 0
0.242969 0.0545052 0
0.379339 0.139544 0
0.571633 0.296956 0.00161746
0.761318 0.482521 0.0101625
0.882933 0.637903 0.0531777
0.114672 0 0
0.115679 0 0
0.12755 0.00608835 0
0.165621 0.0204318 0
0.240162 0.0512856 0
0.37554 0.134478 0
0.567926 0.290837 0.0012665
0.758785 0.477165 0.00996414
0.853773 0.615351 0.0658274
0.114672 0 0
0.121401 0 0
0.128649 0.00334173 0
0.163882 0.0179599 0
0.236286 0.0465705 0
0.369482 0.126406 0
0.56051 0.279255 0.000564584
0.767437 0.481743 0.0324712
0.88307 0.65214 0.194812
0.114672 0 0
0.121401 0 0
0.131075 0 0
0.161028 0.0138857 0
0.230396 0.0397803 0
0.360189 0.114443 0
0.55668 0.267201 0.00936904
0.722499 0.448447 0.0959029
0.908858 0.690944 0.365652
0.114672 0 0
0.121401 0 0
0.138811 0 0
0.159884 0.0087892 0
0.224552 0.0324865 0
0.338994 0.0925154 0.0122225
0.538506 0.249287 0.115862
0.760983 0.491295 0.329183
0.919951 0.707195 0.546014
0.112642 0 0.0115358
0.11751 0 0.0141756
0.130526 0 0.0211337
0.147372 0 0.028275
0.216876 0.019852 0.0654917
0.352026 0.0892805 0.159762
0.555001 0.254658 0.329732
0.765545 0.490608 0.534813
0.919524 0.701198 0.708446
0.111437 0 0.131075
0.11902 0 0.137484
0.138842 0 0.153948
0.175982 0 0.183505
0.201785 0.000579843 0.195102
0.335729 0.0634775 0.315251
0.537514 0.221897 0.496712
0.751247 0.459998 0.690852
0.909514 0.676478 0.836088
0.118364 0 0.280293
0.12604 0 0.286076
0.145998 0 0.30016
0.183001 0 0.325139
0.220417 0 0.338842
0.292241 0.027039 0.397253
0.505409 0.174792 0.600214
0.723247 0.40853 0.793835
0.890303 0.634668 0.930694
0.280781 0 0
0.286198 0 0
0.300038 0 0
0.321126 0 0
0.349905 0.0136873 0
0.460761 0.0656291 0
0.626841 0.186542 0
0.823758 0.380697 0.00497444
0.940063 0.560113 0.0415808
0.280781 0 0
0.286198 0 0
0.300038 0 0
0.321965 0 0
0.347189 0.0124361 0
0.458671 0.0639963 0
0.624796 0.184192 0
0.822324 0.378408 0.00486763
0.93431 0.553857 0.0463874
0.280781 0 0
0.286198 0 0
0.300038 0 0
0.321965 0 0
0.340047 0.0091249 0
0.453742 0.0600748 0
0.619532 0.178195 0
0.818891 0.372808 0.00462348
0.918624 0.538949 0.0599222
0.280781 0 0
0.286198 0 0
0.300038 0 0
0.321965 0 0
0.328786 0.00328069 0
0.444984 0.0533608 0
0.610758 0.168383 0
0.82623 0.374426 0.025391
0.957351 0.576562 0.185077
0.280781 0 0
0.286198 0 0
0.300038 0 0
0.321965 0 0
0.327321 0 0
0.434302 0.0451209 0
0.602747 0.155962 0.000869764
0.786252 0.346136 0.0863661
0.982864 0.607874 0.348943
0.280781 0 0
0.286198 0 0
0.300038 0 0
0.321965 0 0
0.333288 0 0
0.394278 0.0245518 0.00283818
0.580713 0.135134 0.0899672
0.818189 0.370871 0.295094
0.993667 0.618173 0.522835
0.277974 0 0.00712596
0.28304 0 0.00984207
0.299901 0 0.0195315
0.326375 0 0.0391089
0.364614 0 0.076051
0.381292 0.00761425 0.105501
0.593256 0.130816 0.268589
0.818326 0.359792 0.481926
0.990646 0.605493 0.678462
0.305837 0 0.152438
0.312459 0 0.158694
0.329259 0 0.174548
0.356176 0 0.201358
0.392523 0 0.238773
0.395773 0.0031281 0.249454
0.566064 0.0985428 0.406439
0.792798 0.318853 0.617914
0.974899 0.572778 0.797925
0.322972 0 0.3196
0.329183 0 0.324239
0.344884 0 0.335485
0.370031 0 0.354376
0.403571 0 0.379431
0.419944 0 0.385229
0.517372 0.0567941 0.48217
0.754711 0.264591 0.704997
0.95111 0.527108 0.886244
