filmlog/CameraDisplay2383.cube
TITLE "Generated by Resolve"
LUT_3D_SIZE 33
0 0.000137331 0.00122072
0.0069276 0 0.000244144
0.0140536 0 0
0.0206607 0 0
0.0271305 0 0
0.0343786 0.000350958 0
0.0438697 0.000656138 0
0.0566873 0.00109865 0
0.0697948 0.00144961 0
0.0830854 0.00170901 0
0.0967269 0.00183108 0
0.111254 0.00169375 0
0.126207 0.00148013 0
0.142809 0.00115969 0
0.15967 0.000854505 0
0.175937 0.000518807 0
0.192035 7.62951e-05 0
0.206592 0 0
0.221134 0 0
0.233783 0 0
0.245975 0 0
0.258305 0 0
0.271794 0 0
0.285084 0 0
0.298131 0 0
0.310536 0 0
0.322774 0 0
0.334691 0 0
0.345495 0 0
0.356085 0 0
0.366522 0 0
0.375967 0 0
0.384771 0 0
0 0.00708019 0
0.00500496 0.0065156 0
0.0120699 0.00648508 0
0.0187228 0.00682078 0
0.0252384 0.00721752 0
0.0324407 0.00762951 0
0.042298 0.00819409 0
0.055375 0.00875868 0
0.0690776 0.00933852 0
0.0831006 0.00984207 0
0.0974746 0.0101778 0
0.112718 0.0102388 0
0.12842 0.0102235 0
0.145922 0.0102083 0
0.16347 0.0101778 0
0.180667 0.0101472 0
0.197818 0.0100862 0
0.213764 0.00975052 0
0.229755 0.00944533 0
0.244022 0.00892653 0
0.257893 0.00839246 0
0.270985 0.0074464 0
0.282155 0.00520333 0
0.293095 0.00303655 0
0.304295 0.00137331 0
0.315801 0.000457771 0
0.327123 0 0
0.338308 0 0
0.349203 0 0
0.359869 0 0
0.370413 0 0
0.379904 0 0
0.388708 0 0
0 0.0124056 0
0.00314336 0.0119326 0
0.0104982 0.0120089 0
0.0176089 0.0124819 0
0.0242161 0.0130159 0
0.0316472 0.0135653 0
0.0417487 0.0142672 0
0.0552682 0.0149844 0
0.0694438 0.0156405 0
0.0839857 0.0162051 0
0.0989548 0.0166629 0
0.114855 0.016907 0
0.131243 0.0170901 0
0.149599 0.0173495 0
0.167712 0.0176242 0
0.18584 0.0178988 0
0.203891 0.0180819 0
0.220752 0.0181125 0
0.237659 0.018143 0
0.252659 0.0179751 0
0.267247 0.0177005 0
0.281361 0.0173648 0
0.294591 0.0168002 0
0.307607 0.0162661 0
0.319921 0.0153964 0
0.330938 0.014023 0
0.341741 0.0126802 0
0.352331 0.0114748 0
0.362371 0.0107118 0
0.372183 0.0099794 0
0.381857 0.00926223 0
0.390509 0.00856031 0
0.39852 0.00788891 0
0 0.0171054 0
0.000167849 0.0167544 0
0.00898756 0.0170901 0
0.0167849 0.0177462 0
0.0235599 0.0183413 0
0.0312963 0.0190433 0
0.0417029 0.019852 0
0.0557259 0.020798 0
0.0704967 0.0216831 0
0.0856947 0.0224918 0
0.101305 0.0231937 0
0.117815 0.0236515 0
0.134859 0.0240635 0
0.154162 0.0247349 0
0.172885 0.0253758 0
0.191791 0.0259403 0
0.210636 0.0264591 0
0.228275 0.0267796 0
0.245975 0.0270848 0
0.261723 0.0271458 0
0.277058 0.0271611 0
0.291875 0.0271 0
0.305806 0.0267948 0
0.319493 0.0265049 0
0.332799 0.0261692 0
0.345266 0.0257572 0
0.357519 0.0253605 0
0.36939 0.0249638 0
0.379934 0.0244297 0
0.390249 0.0239109 0
0.400412 0.0234226 0
0.409201 0.0226596 0
0.417136 0.0217746 0
0 0.0219272 0
0 0.0211795 0
0.00698863 0.0218357 0
0.0159762 0.0228428 0
0.0230411 0.0237278 0
0.0309758 0.0246891 0
0.0418708 0.0258335 0
0.0563668 0.0270695 0
0.0717327 0.028275 0
0.0875563 0.0293889 0
0.103777 0.0303655 0
0.120928 0.0310826 0
0.138643 0.0317693 0
0.158831 0.0328527 0
0.178103 0.0338903 0
0.197803 0.0347906 0
0.217472 0.0356451 0
0.235859 0.0362554 0
0.254337 0.0368658 0
0.27071 0.0371557 0
0.286641 0.0373693 0
0.302037 0.0374914 0
0.316503 0.0373846 0
0.330739 0.0372778 0
0.344549 0.0371252 0
0.357488 0.0368658 0
0.37023 0.0366217 0
0.382589 0.0363775 0
0.393668 0.0360723 0
0.404532 0.0357824 0
0.415229 0.0355077 0
0.424826 0.0352331 0
0.433738 0.0349737 0
0 0.0274815 0
0 0.0265354 0
0.00425727 0.027039 0
0.0148928 0.0285496 0
0.022446 0.0297704 0
0.0307164 0.0310521 0
0.0420386 0.0325475 0
0.0571756 0.0341955 0
0.0731365 0.0357366 0
0.0895552 0.0371557 0
0.106371 0.0383917 0
0.124315 0.0394903 0
0.14287 0.0405737 0
0.163653 0.0421149 0
0.183673 0.043595 0
0.204181 0.0448615 0
0.224659 0.046067 0
0.243793 0.0469673 0
0.263005 0.0478676 0
0.280003 0.0483711 0
0.296529 0.0487831 0
0.31249 0.0491188 0
0.327489 0.0492409 0
0.342245 0.0493477 0
0.356542 0.0493629 0
0.369894 0.0492256 0
0.383017 0.0490883 0
0.395758 0.0489357 0
0.407187 0.0487373 0
0.418387 0.0485237 0
0.429419 0.0483253 0
0.439307 0.048127 0
0.448493 0.0479286 0
0 0.0343938 0
0 0.0334936 0
0.002533 0.0338903 0
0.0129702 0.0356451 0
0.0217441 0.0374762 0
0.0303807 0.0391699 0
0.042237 0.0411383 0
0.0581064 0.0432898 0
0.0747845 0.0452735 0
0.0919203 0.0471046 0
0.109407 0.0487068 0
0.128496 0.0505074 0
0.148318 0.0523537 0
0.169406 0.0543069 0
0.190249 0.0562142 0
0.211627 0.0579232 0
0.232944 0.0595407 0
0.252888 0.0608225 0
0.272923 0.0620737 0
0.290608 0.0629129 0
0.30782 0.0636454 0
0.324422 0.0642557 0
0.339925 0.0645609 0
0.355184 0.0648508 0
0.369955 0.0650339 0
0.383719 0.0650187 0
0.397269 0.0650034 0
0.410407 0.0649729 0
0.422217 0.0648814 0
0.433768 0.0647898 0
0.445151 0.0646982 0
0.455344 0.0645762 0
0.464805 0.0644388 0
0 0.0435035 0
0 0.0427405 0
0.000869764 0.0429389 0
0.00953689 0.0445411 0
0.019913 0.0472419 0
0.0296788 0.0497444 0
0.0423285 0.0523995 0
0.0591287 0.0552377 0
0.0766613 0.0578164 0
0.0947433 0.0602579 0
0.113436 0.0626535 0
0.133883 0.0653849 0
0.155093 0.068101 0
0.176577 0.0705577 0
0.198322 0.0729229 0
0.220691 0.0751507 0
0.243 0.0772564 0
0.263813 0.0789654 0
0.284718 0.0806287 0
0.303136 0.0817578 0
0.321004 0.0827802 0
0.338247 0.0836347 0
0.35433 0.0841382 0
0.370138 0.0846113 0
0.385443 0.0849775 0
0.39971 0.0851453 0
0.413748 0.0853132 0
0.427359 0.0854505 0
0.439551 0.0854658 0
0.451499 0.085481 0
0.463264 0.0855116 0
0.473777 0.0854505 0
0.483513 0.0853742 0
0 0.0530709 0
0 0.0525368 0
1.5259e-05 0.052781 0
0.00697337 0.0542458 0
0.0175021 0.0574655 0
0.0285496 0.0609598 0
0.0422065 0.0644083 0
0.0598917 0.0678874 0
0.0784161 0.071107 0
0.0977035 0.074342 0
0.117906 0.0778058 0
0.139513 0.0813306 0
0.1617 0.0847334 0
0.183734 0.0877394 0
0.206409 0.0906386 0
0.229694 0.0933547 0
0.252903 0.0959029 0
0.27454 0.0979934 0
0.296284 0.100038 0
0.315373 0.101472 0
0.333913 0.102754 0
0.351781 0.103853 0
0.368399 0.104555 0
0.384726 0.105211 0
0.400549 0.10576 0
0.415305 0.106096 0
0.429801 0.106416 0
0.44387 0.106691 0
0.456443 0.106828 0
0.468757 0.106935 0
0.480873 0.107057 0
0.491707 0.107073 0
0.501717 0.107042 0
0 0.0630198 0
0 0.0627756 0
0 0.0632334 0
0.00502022 0.0645457 0
0.0145266 0.0678569 0
0.0270695 0.0724193 0
0.0418402 0.0767224 0
0.060441 0.0808728 0
0.0800946 0.0849622 0
0.100694 0.089189 0
0.122393 0.0938125 0
0.145068 0.098085 0
0.167742 0.102129 0
0.190753 0.105699 0
0.214328 0.109133 0
0.238499 0.112306 0
0.262592 0.115328 0
0.285008 0.117784 0
0.307546 0.12018 0
0.327306 0.121889 0
0.346487 0.123445 0
0.36495 0.124788 0
0.382116 0.125689 0
0.398962 0.126543 0
0.41529 0.12726 0
0.430503 0.127749 0
0.445457 0.128222 0
0.459953 0.128634 0
0.472892 0.128862 0
0.485557 0.129076 0
0.498039 0.129274 0
0.509163 0.129381 0
0.519432 0.129396 0
0 0.0731518 0
0 0.0732586 0
0 0.074052 0
0.00361639 0.0752575 0
0.0109407 0.0782635 0
0.0251469 0.0840314 0
0.0411536 0.0892958 0
0.0607462 0.0941939 0
0.0817426 0.0994736 0
0.103761 0.104891 0
0.12665 0.11046 0
0.150378 0.115496 0
0.173663 0.120211 0
0.197559 0.124331 0
0.222049 0.128298 0
0.247105 0.13196 0
0.272084 0.135439 0
0.295277 0.138277 0
0.318593 0.141039 0
0.33901 0.143053 0
0.358816 0.144869 0
0.37789 0.146456 0
0.39559 0.14757 0
0.41297 0.148623 0
0.429801 0.149538 0
0.445472 0.150164 0
0.460883 0.150774 0
0.475807 0.151339 0
0.489113 0.151659 0
0.502129 0.15198 0
0.514946 0.152285 0
0.52636 0.152438 0
0.536889 0.152514 0
0 0.0839704 0
0 0.0844129 0
0 0.0855879 0
0.00341802 0.0870527 0
0.0087129 0.0897688 0
0.0193484 0.0949416 0
0.0400244 0.102388 0
0.0608225 0.108644 0
0.0832532 0.115251 0
0.106676 0.121859 0
0.130648 0.128313 0
0.155367 0.134112 0
0.179263 0.139528 0
0.204028 0.144259 0
0.229419 0.148806 0
0.25539 0.153017 0
0.281285 0.157 0
0.305257 0.160235 0
0.329351 0.163226 0
0.350439 0.165362 0
0.370901 0.167346 0
0.390585 0.1691 0
0.40882 0.170336 0
0.426734 0.171542 0
0.444053 0.172564 0
0.460151 0.173297 0
0.47599 0.173999 0
0.491325 0.174655 6.10361e-05
0.504997 0.175067 0.000122072
0.518364 0.175463 0.000183108
0.531533 0.175845 0.000228885
0.543236 0.176059 0.000244144
0.554025 0.176196 0.000228885
0 0.0950637 0
0 0.0958724 0
0 0.0974441 0
0.00354009 0.0992752 0
0.00706493 0.101717 0
0.0139162 0.105867 0
0.0385443 0.115709 0
0.0607462 0.123568 0
0.0846265 0.131579 0
0.109392 0.139361 0
0.134417 0.14667 0
0.160082 0.153246 0
0.184588 0.159396 0
0.210224 0.164416 0
0.2365 0.169223 0
0.263355 0.173709 0
0.29015 0.177966 0
0.314885 0.18143 0
0.339742 0.184833 0
0.361501 0.18735 0
0.382589 0.18967 0
0.402869 0.191714 7.62951e-05
0.421637 0.193194 0.00030518
0.44007 0.194614 0.000518807
0.457877 0.195834 0.000701915
0.474388 0.196704 0.000839246
0.490623 0.197559 0.000976577
0.506355 0.198337 0.00108339
0.520378 0.198871 0.00115969
0.534096 0.199374 0.00122072
0.547616 0.199863 0.00128176
0.559609 0.200153 0.00129702
0.570642 0.200336 0.00129702
0 0.106859 0
0 0.10808 0
0 0.110079 0
0.00370794 0.112322 0
0.00721752 0.11516 0
0.0135042 0.119677 0
0.0340887 0.129717 0
0.0598001 0.13991 0
0.0856947 0.149294 0
0.111513 0.158083 0
0.137636 0.165927 0
0.164034 0.172915 0
0.189532 0.179461 0
0.216114 0.185183 0
0.243351 0.190723 0
0.271092 0.195834 0
0.298756 0.200671 0
0.3243 0.204669 0
0.349981 0.20856 1.5259e-05
0.372396 0.21146 0.000427253
0.394095 0.21413 0.000793469
0.414984 0.21648 0.00111391
0.434287 0.218219 0.00135805
0.453254 0.219883 0.00158694
0.47155 0.221317 0.00178531
0.488502 0.22237 0.0019379
0.505165 0.223377 0.00207523
0.521309 0.224308 0.00221256
0.535683 0.224948 0.00227359
0.549722 0.225544 0.00234989
0.563546 0.226139 0.00241093
0.575814 0.22649 0.00244144
0.587091 0.226734 0.00244144
0 0.118761 0
0 0.120424 0
0.000137331 0.12285 0
0.00387579 0.125505 0
0.00737011 0.128801 0
0.0130617 0.133761 0
0.0295415 0.143771 0
0.0586404 0.15642 0
0.0866102 0.166735 0
0.113512 0.175952 0
0.140688 0.18471 0
0.167788 0.192599 0
0.194293 0.199985 0
0.22179 0.206455 0
0.249973 0.212696 0
0.278599 0.218463 0
0.307149 0.223926 0
0.333486 0.228443 0.000366217
0.359976 0.232853 0.000976577
0.383047 0.236164 0.00140383
0.405371 0.239185 0.00178531
0.426841 0.241871 0.00213626
0.446662 0.243854 0.00238041
0.466133 0.245762 0.00262455
0.484932 0.247425 0.00285344
0.502312 0.248661 0.00300603
0.519387 0.249836 0.00315862
0.535927 0.250919 0.00329595
0.550622 0.251667 0.00337224
0.564981 0.252369 0.00344854
0.57911 0.253056 0.00352483
0.591653 0.253483 0.00354009
0.603159 0.253773 0.00354009
0 0.130846 0
0 0.132967 0
0.000289921 0.135805 0
0.00401312 0.138827 0
0.0075227 0.142779 0
0.0124819 0.148547 0
0.0235599 0.157702 0
0.0564736 0.172152 0
0.0870527 0.183825 0
0.115099 0.194171 0
0.143343 0.203967 0
0.171176 0.212787 0
0.198611 0.221042 0
0.227008 0.228275 0
0.256123 0.235264 0
0.285664 0.241718 0
0.315145 0.247837 0.00062562
0.342321 0.252934 0.00128176
0.36965 0.257908 0.00190738
0.393408 0.261631 0.00236515
0.416388 0.265049 0.00277714
0.438468 0.268086 0.00314336
0.458778 0.270329 0.00340276
0.478721 0.272465 0.00366217
0.497963 0.274342 0.00389105
0.515755 0.275731 0.0040589
0.533227 0.277073 0.00421149
0.550149 0.278309 0.00436408
0.565164 0.279164 0.00444038
0.579828 0.279957 0.00453193
0.594263 0.280751 0.00460822
0.607065 0.281254 0.00463874
0.618814 0.28159 0.00463874
0 0.142763 0
0 0.145327 0
0.000427253 0.148577 0
0.0041352 0.151995 0
0.00769055 0.156634 0
0.0120089 0.163058 0
0.0190433 0.170871 0
0.0545052 0.18761 0
0.0873274 0.200824 0
0.116548 0.212314 0
0.145815 0.223148 0
0.174365 0.232883 0
0.202701 0.242008 0
0.231968 0.250019 0
0.261982 0.25774 0
0.292393 0.264897 0.000610361
0.322744 0.271687 0.00144961
0.350713 0.277348 0.00213626
0.378851 0.282872 0.0027924
0.403265 0.287022 0.00328069
0.426871 0.290837 0.00370794
0.449531 0.294224 0.00408942
0.470314 0.296727 0.00436408
0.490715 0.299107 0.00463874
0.510384 0.301198 0.00486763
0.528572 0.302754 0.00505074
0.546426 0.304265 0.00521859
0.563714 0.305653 0.00537118
0.579034 0.3066 0.00546273
0.593988 0.3075 0.00553903
0.608728 0.308385 0.00563058
0.621775 0.308965 0.0056611
0.633768 0.309361 0.00567636
0 0.153903 0
0 0.156878 0
0.000457771 0.160464 0
0.00419623 0.164157 0
0.00787366 0.169451 0
0.0121462 0.176425 0
0.0186618 0.184726 0
0.0529335 0.202228 0
0.0865644 0.216617 0
0.117464 0.229328 0
0.147677 0.241169 0
0.176898 0.251789 0
0.206043 0.261738 0
0.236088 0.270466 0
0.266896 0.278904 0.000320439
0.2981 0.286732 0.00125124
0.329244 0.294148 0.00213626
0.3579 0.300343 0.00283818
0.386725 0.306386 0.00354009
0.411688 0.310933 0.00402838
0.435828 0.315114 0.00447089
0.458991 0.318822 0.00486763
0.480232 0.321584 0.00515755
0.501076 0.324208 0.00544747
0.521187 0.326528 0.00569161
0.539727 0.328252 0.00587472
0.557946 0.329931 0.00605783
0.57557 0.331472 0.00621042
0.59118 0.332525 0.00630198
0.606424 0.333532 0.00639353
0.621439 0.334524 0.00648508
0.63473 0.33518 0.00653086
0.646922 0.335637 0.00654612
0 0.164645 0
0 0.167803 0
0.000503548 0.171496 0
0.00425727 0.175769 0
0.0080415 0.182116 0
0.0122988 0.189914 0
0.0182956 0.198627 0
0.0514687 0.216876 0
0.0858625 0.232456 0
0.118364 0.246403 0
0.149493 0.259236 0
0.179385 0.270756 0
0.209323 0.281529 0
0.240116 0.291005 0
0.271717 0.30016 0.000915541
0.3037 0.308644 0.00189212
0.335607 0.316701 0.0027924
0.364935 0.32343 0.00354009
0.39443 0.330007 0.00424201
0.419928 0.334951 0.00476081
0.444587 0.339483 0.00521859
0.468238 0.343542 0.00563058
0.489937 0.346548 0.00593576
0.511238 0.349447 0.00622568
0.531746 0.35198 0.00648508
0.550652 0.353887 0.00668345
0.569223 0.355718 0.00686656
0.587182 0.357412 0.00703441
0.603052 0.358587 0.00714122
0.618585 0.359716 0.00723278
0.633875 0.360815 0.00732433
0.647395 0.361532 0.00737011
0.6598 0.362051 0.00738537
0 0.173953 0
0 0.177478 0
0.000457771 0.181552 0
0.00428778 0.186572 0
0.00816358 0.193698 0
0.0123903 0.202075 0
0.0181277 0.211246 0
0.0495766 0.229877 0
0.0845045 0.246525 0
0.118685 0.261662 0
0.150576 0.275395 0
0.181079 0.287709 0
0.211704 0.299245 0
0.243107 0.309377 0.000259403
0.275334 0.319158 0.00134279
0.307958 0.328252 0.00234989
0.340505 0.336889 0.00328069
0.370382 0.344106 0.00404364
0.400458 0.351156 0.00477607
0.426444 0.356481 0.00529488
0.451545 0.361364 0.00578317
0.475639 0.365728 0.00619516
0.497658 0.368978 0.0065156
0.519295 0.372091 0.00682078
0.540139 0.374823 0.00709544
0.559335 0.376898 0.00729381
0.578225 0.378912 0.00747692
0.596475 0.380743 0.00766003
0.612619 0.382055 0.00776684
0.628382 0.383291 0.00787366
0.643915 0.384497 0.00796521
0.657633 0.385321 0.00802625
0.670237 0.385901 0.0080415
0 0.183032 0
0 0.186923 0
0.000381476 0.191363 0
0.00433356 0.197223 0
0.00825513 0.205066 0
0.0124666 0.213962 0
0.0180056 0.223621 0
0.0476692 0.242527 0
0.0830549 0.260227 0
0.118898 0.276555 0
0.151507 0.291157 0
0.182589 0.304265 0
0.21387 0.316518 0
0.245853 0.327291 0.00062562
0.278691 0.337713 0.00172427
0.311894 0.347387 0.00276188
0.345052 0.356588 0.0037232
0.375463 0.364294 0.00450141
0.406088 0.371817 0.0052491
0.432532 0.377508 0.00579843
0.458091 0.382757 0.00628672
0.482582 0.387427 0.00672923
0.504921 0.390906 0.00704967
0.526848 0.394232 0.00737011
0.547997 0.397177 0.00764477
0.567498 0.39942 0.0078584
0.586664 0.401587 0.00805676
0.605203 0.403586 0.00823987
0.621592 0.40502 0.00834669
0.637598 0.406378 0.0084535
0.653376 0.407706 0.00856031
0.667292 0.408606 0.00862135
0.680064 0.409277 0.00863661
0 0.191852 0
0 0.196063 0
0.000335698 0.200977 0
0.00436408 0.20763 0
0.00834669 0.216144 0
0.0125124 0.225544 0
0.0178378 0.235599 0
0.0452583 0.254597 0
0.0811933 0.273411 0
0.119036 0.291035 0
0.152285 0.306477 0
0.183902 0.320333 0
0.215793 0.333303 0
0.24831 0.344717 0.000946059
0.281712 0.355734 0.00207523
0.31548 0.366003 0.0031281
0.349187 0.375753 0.00411994
0.380102 0.383932 0.00491341
0.411231 0.391913 0.00569161
0.438102 0.397971 0.0062562
0.464057 0.403571 0.00675975
0.48893 0.408545 0.00721752
0.511589 0.412253 0.00755322
0.533822 0.415808 0.00787366
0.555261 0.418952 0.00814832
0.575036 0.421363 0.00836194
0.594476 0.423697 0.00857557
0.61326 0.425849 0.00875868
0.629892 0.427405 0.00888075
0.646128 0.428885 0.00900282
0.662135 0.43032 0.00910964
0.676249 0.431327 0.00917067
0.689174 0.432059 0.00920119
0 0.200305 0
0 0.204791 0
0.00030518 0.210575 0
0.00440986 0.217868 0
0.00840772 0.226841 0
0.0124819 0.236713 0
0.0172732 0.246998 0
0.0410163 0.265522 0
0.0778363 0.285695 0
0.119051 0.304967 0
0.152773 0.321202 0
0.184833 0.335775 0
0.217243 0.349432 0
0.250233 0.361456 0.00122072
0.284138 0.373083 0.00238041
0.318425 0.383917 0.00344854
0.352667 0.394217 0.00445563
0.383993 0.402853 0.00527962
0.415549 0.411292 0.00607309
0.442786 0.4177 0.00665293
0.469108 0.423621 0.00717174
0.494316 0.428916 0.00762951
0.517327 0.432883 0.00798047
0.539925 0.436698 0.00831617
0.561654 0.44007 0.00860609
0.581674 0.442664 0.00883497
0.601328 0.445151 0.0090486
0.62034 0.447456 0.00924697
0.637171 0.449149 0.00936904
0.653635 0.450752 0.00949111
0.669841 0.452323 0.00961318
0.684123 0.453422 0.00967422
0.697215 0.454246 0.00970474
0 0.208591 0
0 0.213367 0
0.000289921 0.219989 0
0.00444038 0.227939 0
0.00846876 0.237369 0
0.0124514 0.247684 0
0.0167086 0.258183 0
0.0371557 0.276234 0
0.0746929 0.297749 0
0.119051 0.318654 0
0.153231 0.335668 0
0.185718 0.350958 0
0.218631 0.365286 0.000228885
0.252064 0.377905 0.00146487
0.286458 0.390112 0.00265507
0.321248 0.401511 0.00375372
0.355993 0.41236 0.00479133
0.387732 0.421454 0.00563058
0.419699 0.430335 0.00643931
0.447272 0.43711 0.00701915
0.47393 0.443351 0.00755322
0.499489 0.448936 0.00802625
0.522835 0.453178 0.00839246
0.545754 0.457252 0.00874342
0.567803 0.460838 0.0090486
0.588022 0.4636 0.00927749
0.607904 0.466255 0.00949111
0.627131 0.468727 0.00968948
0.644175 0.470527 0.00982681
0.660838 0.472267 0.00994888
0.677241 0.473945 0.010071
0.691707 0.475151 0.0101472
0.704952 0.476066 0.0101778
0 0.216617 0
0 0.221866 0
0.000274662 0.229267 0
0.00447089 0.237781 0
0.00851453 0.247669 0
0.0124514 0.258442 0
0.0163729 0.26923 0
0.0343023 0.286931 0
0.0721447 0.309621 0
0.118822 0.331975 0
0.153521 0.349752 0
0.18645 0.365728 0
0.219837 0.380728 0.000427253
0.253727 0.393942 0.00169375
0.288579 0.406729 0.00291447
0.323812 0.418677 0.00404364
0.359014 0.43003 0.00509651
0.391135 0.439582 0.00593576
0.423514 0.448905 0.00677501
0.451423 0.456031 0.00737011
0.478401 0.462608 0.00791943
0.504265 0.468498 0.00840772
0.527916 0.472984 0.00877394
0.551141 0.477287 0.0091249
0.573449 0.481102 0.00944533
0.593912 0.484031 0.00967422
0.614008 0.486854 0.0099031
0.633463 0.489494 0.0101167
0.650706 0.491432 0.0102541
0.667552 0.493278 0.0103914
0.684138 0.495094 0.0105135
0.698756 0.496391 0.0105898
0.712169 0.497383 0.0106355
0 0.22414 0
0 0.230152 0
0.000259403 0.238209 0
0.00447089 0.247089 0
0.00852979 0.257389 0
0.0124666 0.26862 0
0.0163424 0.27985 0
0.0327916 0.297505 0
0.0704814 0.321035 0
0.118196 0.344411 0
0.15349 0.362966 0
0.186892 0.379614 0
0.220722 0.395239 0.000579843
0.255024 0.409003 0.00187686
0.290288 0.422339 0.00311284
0.325872 0.434791 0.00425727
0.36144 0.446647 0.0053254
0.393927 0.456611 0.00619516
0.426673 0.466377 0.00703441
0.454887 0.473823 0.00764477
0.482155 0.480705 0.00820935
0.508293 0.486885 0.0087129
0.532158 0.4916 0.00907912
0.555596 0.496117 0.00944533
0.578149 0.500145 0.00976577
0.59884 0.503243 0.0100099
0.619196 0.506249 0.0102541
0.638865 0.509041 0.0104677
0.656275 0.511101 0.010605
0.673289 0.513085 0.0107424
0.690044 0.515007 0.0108797
0.704814 0.516411 0.010956
0.718349 0.517494 0.0110018
0 0.23151 0
0 0.2383 0
0.000244144 0.246998 0
0.00447089 0.256245 0
0.00852979 0.266972 0
0.0124819 0.278645 0
0.0163119 0.290288 0
0.0313573 0.307897 0
0.0688792 0.33225 0
0.117601 0.356664 0
0.153475 0.375967 0
0.187304 0.393271 0
0.221576 0.409506 0.000732433
0.25626 0.423835 0.00204471
0.291936 0.437705 0.00329595
0.327871 0.45066 0.00447089
0.363775 0.462974 0.00555428
0.396628 0.473381 0.00643931
0.42974 0.483543 0.00729381
0.458244 0.491341 0.00791943
0.485771 0.498527 0.00848402
0.512169 0.504967 0.00900282
0.536248 0.509911 0.0093843
0.559915 0.514656 0.00975052
0.582681 0.518868 0.0100862
0.603616 0.522148 0.0103304
0.624201 0.525338 0.0105745
0.644099 0.528283 0.0108034
0.661662 0.53048 0.010956
0.678843 0.53257 0.0110933
0.69575 0.534615 0.0112306
0.710658 0.53611 0.0113069
0.724315 0.537285 0.011368
0 0.238697 0
0 0.24625 0
0.000213626 0.255528 0
0.00445563 0.265126 0
0.00854505 0.276265 0
0.0124971 0.288365 0
0.0162814 0.30042 0
0.0302129 0.318044 0
0.0675059 0.343145 0
