filmlog/CameraDisplay2383_3.cube
TITLE "Generated by Resolve"
LUT_3D_SIZE 5
0 0.0610819 0
0 0.133639 0
0 0.188922 0
0 0.230259 0
0.0142061 0.326635 0
0 0.0494698 0
0 0.120363 0
0 0.190875 0.00224308
0 0.291325 0.0982528
0.0257877 0.437552 0.234806
0 0.0383459 0
0 0.135943 0.0738231
0 0.25185 0.209613
0 0.334127 0.324224
0.0297093 0.458961 0.429038
0 0.027924 0.119738
0 0.137179 0.265873
0 0.25243 0.389776
0 0.331075 0.466178
0.0301061 0.453437 0.545525
0 0.00392157 0.214862
0 0.107988 0.369406
0 0.233433 0.492256
0 0.31783 0.556023
0.0296788 0.441382 0.623758
0 0.033402 0
0 0.0992905 0
0.000961318 0.172686 0
0.187015 0.420066 0
0.473381 0.645136 0.0376745
0 0.0245212 0
0 0.0851606 0
0.000885023 0.165286 0
0.160632 0.428244 0.132067
0.473564 0.70901 0.387442
0 0.0175479 0
0 0.0895247 0.0662699
0.0120546 0.221073 0.200031
0.124758 0.432532 0.375326
0.470878 0.723659 0.640009
0 0 0.103075
0 0.0785534 0.233188
0.0131991 0.214313 0.374258
0.107378 0.411978 0.52224
0.463539 0.708995 0.78436
0 0 0.2383
0 0.0452583 0.306523
0.0114595 0.187823 0.468452
0.101213 0.383948 0.609949
0.456062 0.685618 0.877012
0 0.0118868 0
0.0605478 0.0844739 0
0.318273 0.314336 0
0.594202 0.543481 0.0103914
0.773861 0.695964 0.0507515
0 0.00666819 0
0.0574807 0.0661326 0
0.312123 0.290684 0.0181735
0.578576 0.540841 0.188647
0.777386 0.746731 0.425574
0 0 0
0.0574197 0.0605783 0.062211
0.315831 0.306584 0.290562
0.597574 0.576806 0.532082
0.784207 0.760662 0.699886
0 0 0.129305
0.054139 0.0471809 0.226673
0.304021 0.277913 0.495537
0.58584 0.549432 0.719921
0.776699 0.741222 0.853956
0 0 0.257038
0.0500801 0.0277867 0.324422
0.286595 0.233997 0.600107
0.569635 0.509041 0.825528
0.76379 0.708522 0.94847
0.121874 0 0
0.286625 0.0738384 0
0.554086 0.273136 0.00015259
0.774746 0.489265 0.0103609
0.891707 0.640742 0.0475166
0.122972 0 0
0.265721 0.0502327 0
0.531609 0.233997 0.019379
0.753964 0.474144 0.182849
0.917708 0.694896 0.419409
0.120485 0 0
0.252644 0.0307927 0.0675364
0.533715 0.225895 0.280797
0.778897 0.498116 0.52047
0.924422 0.699443 0.690318
0.120882 0 0.140093
0.223453 0.00440986 0.213474
0.515801 0.191806 0.477501
0.762737 0.463371 0.702419
0.912932 0.671092 0.84007
0.127764 0 0.282963
0.237583 0 0.34287
0.484154 0.148257 0.573495
0.73608 0.414374 0.798978
0.894072 0.630411 0.929122
0.280781 0 0
0.381369 0.0253452 0
0.604791 0.167956 0
0.831769 0.389624 0.00534066
0.940063 0.560113 0.0415808
0.280781 0 0
0.347417 0.00767529 0
0.572488 0.131151 0.010956
0.811292 0.370169 0.164691
0.987625 0.613413 0.401434
0.280217 0 0
0.353689 0 0.0591592
0.56846 0.113268 0.226734
0.829465 0.374838 0.472389
0.991638 0.608011 0.662058
0.307073 0 0.160891
0.405402 0 0.258839
0.536278 0.0770428 0.386114
0.801678 0.329015 0.633021
0.973892 0.57084 0.802686
0.322972 0 0.3196
0.41474 0 0.387915
0.47422 0.0334325 0.441138
0.765347 0.276661 0.71487
0.95111 0.527108 0.886244
