filmlog/LutKodakNeutral.cube
TITLE "Generated by Resolve"
LUT_3D_SIZE 5
0 0.333318 0
0 0.490913 0
0 0.599176 0
0 0.345937 0
0.0195468 0.33019 0
0 0.303349 0
0 0.464897 0
0 0.473228 0.0689708
0 0.316228 0.0954147
0.0246433 0.446372 0.223331
0 0.190753 0.0547799
0 0.390021 0.233814
0 0.582895 0.453208
0 0.364981 0.321706
0.0248264 0.471183 0.416037
0 0.186236 0.351904
0 0.401053 0.557412
0 0.588525 0.717815
0 0.364843 0.464775
0.0235294 0.467811 0.530999
0.000503548 0.127291 0.475944
0 0.383047 0.751415
0 0.574289 0.877317
0 0.362493 0.566506
0.023682 0.464561 0.615763
0 0.257877 0
0 0.421592 0
0.033814 0.257298 0
0.335561 0.543145 0
0.535149 0.62977 0.0331579
0 0.229175 0
0 0.390494 0
0.00567636 0.165957 0
0.165789 0.440497 0.136522
0.474403 0.713771 0.405341
0 0.134936 0.059205
0 0.303807 0.223331
0.0091249 0.230594 0.196094
0.109606 0.459693 0.392279
0.450278 0.735409 0.668299
9.15541e-05 0.109255 0.309865
0 0.304295 0.532769
0.0137179 0.243763 0.391791
0.0899367 0.446799 0.54725
0.447196 0.739406 0.831128
0 0.101671 0.495811
0.00424201 0.260578 0.655528
0.025742 0.245045 0.502754
0.10663 0.466514 0.686198
0.522194 0.802274 1
0.0111849 0.0388647 0
0.136965 0.144915 0
0.512612 0.416327 0
0.877089 0.665751 0
0.857145 0.672709 0.0486915
0.0169223 0.0305333 0
0.13106 0.119875 0
0.355428 0.287114 0.0171206
0.603983 0.536538 0.205509
0.783123 0.743542 0.456504
0 0 0
0.0596628 0.0652171 0.0695964
0.313451 0.315862 0.316991
0.584024 0.584375 0.571801
0.761639 0.766262 0.747967
0.010544 0 0.238453
0.0452125 0.0540627 0.255314
0.284306 0.29192 0.541222
0.555337 0.562036 0.773556
0.740078 0.751186 0.91136
0.18677 0 1
0.0377966 0.033341 0.366445
0.259464 0.249042 0.65684
0.530632 0.5243 0.887602
0.719814 0.721309 1
0.216831 0.0122377 0
0.45507 0.125734 0
0.814176 0.364492 0
1 0.602838 0
0.978027 0.618875 0.0486915
0.940841 0 0.00395209
0.423804 0.0933089 0
0.5906 0.228061 0.0226444
0.785 0.467292 0.207416
0.925048 0.689448 0.458305
0.670039 0 0.32752
0.258686 0.031632 0.0873579
0.53315 0.230076 0.323339
0.765743 0.502113 0.574594
0.90103 0.702266 0.749615
0.621576 0 0.88542
0.20763 0.0059968 0.266407
0.491264 0.198795 0.544244
0.729244 0.471138 0.772778
0.874144 0.678157 0.91046
0.620203 0 1
0.207843 1.5259e-05 0.413443
0.449104 0.156191 0.653895
0.692699 0.424781 0.879408
0.846128 0.639857 1
1 0 0.00474556
0.567956 0.0558785 0
0.868223 0.239841 0
1 0.491859 0
1 0.540322 0.0448157
1 0 0.00474556
0.519142 0.0276799 0
0.630823 0.126589 0.0158999
0.843351 0.364553 0.193866
0.994858 0.607584 0.446311
0.962219 0 0.331258
0.355276 0 0.0863661
0.566033 0.115633 0.275776
0.815427 0.377752 0.535119
0.966964 0.609781 0.729717
0.896254 0 0.960693
0.389502 0 0.342901
0.510735 0.0816205 0.463264
0.767803 0.335775 0.714763
0.933516 0.576562 0.882902
0.882155 0 1
0.882155 0 1
0.441138 0.0385748 0.537041
0.72076 0.284657 0.807309
0.901122 0.534951 0.974075
