filmlog/LutKodakNeutral.cube
TITLE "Generated by Resolve"
LUT_3D_SIZE 9
0 0.333318 0
0 0.416388 0
0 0.490913 0
0 0.547433 0
0 0.599176 0
0 0.641733 0
0 0.345937 0
0.0283207 0.369436 0
0.0195468 0.33019 0
0 0.318303 0
0 0.400732 0
0 0.478416 0
0 0.537728 0
0 0.589578 0
0 0.634241 0
0 0.258869 0.00215152
0.00331121 0.307973 0.0322728
0.0225071 0.403494 0.0944839
0 0.303349 0
0 0.385138 0
0 0.464897 0
0 0.527932 0
0 0.473228 0.0689708
0 0.55787 0.157534
0 0.316228 0.0954147
0.0061799 0.362234 0.14931
0.0246433 0.446372 0.223331
0 0.288304 0
0 0.369177 0
0 0.350088 0.06421
0 0.445121 0.147478
0 0.542489 0.256016
0 0.627787 0.367529
0 0.352148 0.218723
0.00712596 0.387427 0.264973
0.0251011 0.464881 0.331579
0 0.190753 0.0547799
0 0.27689 0.129946
0 0.390021 0.233814
0 0.497215 0.349081
0 0.582895 0.453208
0 0.656153 0.543023
0 0.364981 0.321706
0.00700389 0.395758 0.357015
0.0248264 0.471183 0.416037
0 0.194171 0.197498
0 0.296071 0.305196
0 0.408042 0.417273
0 0.511894 0.519875
0 0.593362 0.604227
0 0.663767 0.677211
0 0.369192 0.404623
0.00653086 0.396719 0.427008
0.0242771 0.471672 0.480415
0 0.186236 0.351904
0 0.294545 0.461479
0 0.401053 0.557412
0 0.508659 0.649363
0 0.588525 0.717815
0 0.655756 0.772213
0 0.364843 0.464775
0.00605783 0.394156 0.482658
0.0235294 0.467811 0.530999
0.00169375 0.139223 0.407568
0 0.282002 0.573312
0 0.395315 0.673243
0 0.500572 0.749966
0 0.581704 0.805737
0 0.647532 0.847349
0 0.363577 0.519524
0.0062562 0.39324 0.53138
0.0233158 0.465522 0.575479
0.000503548 0.127291 0.475944
0.00331121 0.252049 0.617899
0 0.383047 0.751415
0 0.490288 0.826596
0 0.574289 0.877317
0 0.638056 0.886961
0 0.362493 0.566506
0.00714122 0.393439 0.575097
0.023682 0.464561 0.615763
0 0.295827 0
0 0.377188 0
0 0.458122 0
0 0.522881 0
0 0.575006 0
0.0191348 0.294408 0
0.0470741 0.367391 0
0.208682 0.524086 0
0.269917 0.522469 0.0153048
0 0.280797 0
0 0.361212 0
0 0.444266 0
0 0.511757 0
0 0.564996 0
0.0191806 0.288579 0
0.0135805 0.263233 0
0.0703746 0.391531 0.0422827
0.22768 0.566018 0.160586
0 0.265476 0
0 0.346044 0
0 0.429328 0
0 0.500465 0
0 0.451698 0.0706035
0 0.232898 0.029099
0.0166781 0.326024 0.0886397
0.042771 0.425635 0.165759
0.200565 0.598932 0.317128
0 0.250187 0
0 0.330816 0
0 0.31606 0.064744
0 0.41648 0.147829
0 0.515816 0.255894
0 0.276493 0.141115
0.0192264 0.363684 0.218219
0.0385443 0.448615 0.288167
0.1738 0.603876 0.433753
0 0.158892 0.0558022
0 0.240909 0.129091
0 0.346212 0.228351
0 0.460731 0.344671
0 0.552728 0.451164
0 0.292683 0.253483
0.01944 0.37673 0.32723
0.038468 0.458381 0.389212
0.148989 0.595804 0.517052
0 0.156451 0.193317
0 0.249241 0.293935
0 0.359045 0.406043
0 0.469352 0.511452
0 0.56112 0.601999
0 0.294194 0.343206
0.0188602 0.377218 0.411292
0.0377203 0.458976 0.465354
0.140307 0.590311 0.584848
0 0.137621 0.322728
0 0.244968 0.44535
0 0.353307 0.546426
0 0.463508 0.639277
0 0.554818 0.714076
0 0.294286 0.416449
0.0186923 0.375296 0.477668
0.03682 0.455085 0.524224
0.135119 0.583749 0.63949
0.000595102 0.119448 0.402106
0.00172427 0.217212 0.520409
0 0.349706 0.659892
0 0.456046 0.740093
0 0.549355 0.803922
0.00105287 0.297993 0.480797
0.0200809 0.376944 0.537255
0.0371405 0.453773 0.576944
0.134203 0.582757 0.691325
0 0.116426 0.482597
0.00256352 0.158312 0.525185
0 0.328664 0.718242
0 0.446082 0.815808
0 0.538857 0.872099
0.00421149 0.29723 0.531197
0.0228275 0.37998 0.590234
0.0389258 0.455207 0.625376
0.138033 0.587777 0.743053
0 0.257877 0
0 0.338506 0
0 0.421592 0
0.0034638 0.207599 0
0.033814 0.257298 0
0.102205 0.367163 0
0.335561 0.543145 0
0.552285 0.677546 0
0.535149 0.62977 0.0331579
0 0.242512 0
0 0.323201 0
0 0.406119 0
0.00349432 0.200168 0
0.0335546 0.248844 0
0.105608 0.360006 0
0.211215 0.414389 0.0115358
0.343755 0.528008 0.0747234
0.485222 0.664302 0.208118
0 0.229175 0
0 0.308461 0
0 0.390494 0
0.00337224 0.191821 0
0.00567636 0.165957 0
0.0307927 0.263676 0.0294957
0.165789 0.440497 0.136522
0.330968 0.596048 0.274235
0.474403 0.713771 0.405341
0 0.216831 0
0 0.2934 0
0 0.281056 0.0652171
0 0.136416 0.0272984
0.00784314 0.20766 0.0765698
0.0282902 0.305226 0.150698
0.13051 0.459403 0.28011
0.314397 0.619791 0.434287
0.461677 0.731945 0.555703
0 0.134936 0.059205
0 0.204593 0.127611
0 0.303807 0.223331
0 0.158541 0.126101
0.0091249 0.230594 0.196094
0.0291447 0.323919 0.273854
0.109606 0.459693 0.392279
0.300114 0.623972 0.554803
0.450278 0.735409 0.668299
0 0.129198 0.195972
0 0.206073 0.286229
0 0.31014 0.39382
0 0.161257 0.227451
0.00918593 0.235203 0.298497
0.0285954 0.32578 0.371359
0.0955367 0.451621 0.47686
0.289525 0.619547 0.643168
0.440925 0.731243 0.750927
9.15541e-05 0.109255 0.309865
0 0.188998 0.413382
0 0.304295 0.532769
0 0.164691 0.317098
0.0137179 0.243763 0.391791
0.0307927 0.329763 0.455146
0.0899367 0.446799 0.54725
0.292226 0.62504 0.725231
0.447196 0.739406 0.831128
0 0.107591 0.411704
0.00154116 0.136141 0.444358
0 0.293721 0.626673
0 0.159335 0.369757
0.0211643 0.249729 0.461463
0.0375677 0.338979 0.530221
0.0923018 0.451331 0.615427
0.320607 0.653834 0.819394
0.484459 0.773022 0.924102
0 0.101671 0.495811
0.000244144 0.128923 0.508751
0.00424201 0.260578 0.655528
0.00161746 0.146044 0.397665
0.025742 0.245045 0.502754
0.0462501 0.345953 0.590097
0.10663 0.466514 0.686198
0.356207 0.684138 0.902235
0.522194 0.802274 1
0 0.222629 0
0 0.300984 0
0.0201267 0.130983 0
0.0529946 0.2038 0
0.236545 0.357717 0
0.441459 0.505394 0
0.655711 0.642222 0
0.826093 0.744747 0
0.723491 0.667124 0.0431678
0 0.211627 0
0 0.285939 0
0.0197604 0.121508 0
0.0543374 0.193591 0
0.234607 0.344671 0
0.438392 0.491691 0
0.476249 0.506539 0.0294957
0.555062 0.570962 0.079942
0.662165 0.691768 0.227466
0 0.201038 0
0 0.270665 0
0.0194553 0.112413 0
0.0569619 0.183688 0
0.140215 0.242679 0.00315862
0.269261 0.370413 0.0611582
0.428626 0.527962 0.187457
0.556313 0.653498 0.320287
0.656748 0.745998 0.44123
0 0.190127 0
0 0.255406 0
0 0.0577554 0
0.0134737 0.120317 0.0214847
0.107042 0.260365 0.108064
0.257023 0.418753 0.240269
0.417655 0.567605 0.381155
0.545907 0.683391 0.503151
0.646601 0.767117 0.603677
0 0.111955 0.0643015
0 0.168093 0.126268
0 0.0655528 0.0537575
0.0133669 0.138445 0.120134
0.0814374 0.268223 0.234913
0.241886 0.430579 0.390158
0.40354 0.575067 0.528176
0.533013 0.688685 0.639643
0.635416 0.770642 0.72462
0 0.10515 0.204349
0 0.16376 0.278584
0 0.0724804 0.14551
0.0182803 0.149294 0.231937
0.0740978 0.269734 0.345388
0.240955 0.438132 0.514488
0.40415 0.580789 0.647745
0.53051 0.689998 0.744518
0.632624 0.77084 0.817319
0 0.0955215 0.323049
0.000946059 0.125093 0.359182
0.000961318 0.062974 0.201053
0.0296635 0.158145 0.317983
0.0948348 0.293111 0.455055
0.282734 0.473793 0.633585
0.447944 0.61326 0.757778
0.571344 0.718074 0.843626
0.667292 0.793454 0.903395
0 0.0869764 0.435538
0.000350958 0.121889 0.445396
0 0.0457008 0.23595
0.0294194 0.146914 0.365423
0.107088 0.295506 0.520806
0.294041 0.478706 0.707179
0.457679 0.618723 0.831174
0.581064 0.724712 0.913619
0.675441 0.800015 0.967514
0 0.0670939 0.568215
0 0.117937 0.515312
0 0.0249638 0.258701
0.0254063 0.130114 0.394675
0.106981 0.282383 0.561563
0.291752 0.468956 0.75874
0.451896 0.607538 0.881987
0.576654 0.717189 0.964218
0.671168 0.794369 1
0.0111849 0.0388647 0
0.047715 0.0703746 0
0.136965 0.144915 0
0.301762 0.271382 0
0.512612 0.416327 0
0.709651 0.549737 0
0.877089 0.665751 0
1 0.756527 0
0.857145 0.672709 0.0486915
0.013901 0.0344396 0
0.0488289 0.0625772 0
0.134035 0.13196 0
0.29456 0.252781 0
0.505608 0.398749 0
0.702266 0.53196 0
0.663996 0.527169 0.0388342
0.700389 0.568063 0.070573
0.786831 0.69012 0.235599
0.0169223 0.0305333 0
0.0497597 0.0555276 0
0.13106 0.119875 0
0.287129 0.234257 0
0.355428 0.287114 0.0171206
0.472496 0.38996 0.0641642
0.603983 0.536538 0.205509
0.70724 0.654856 0.337697
0.783123 0.743542 0.456504
0.0200504 0.0265049 0
0.0504616 0.0491646 0
0.068452 0.0613413 0
0.170825 0.154299 0.044419
0.323644 0.299275 0.149615
0.474189 0.448142 0.284077
0.597269 0.576349 0.413962
0.697948 0.683009 0.528481
0.773281 0.76321 0.623392
0 0 0
0.0129702 0.0160372 0.0180209
0.0596628 0.0652171 0.0695964
0.162646 0.168536 0.17554
0.313451 0.315862 0.316991
0.461463 0.460853 0.454093
0.584024 0.584375 0.571801
0.684977 0.6878 0.670954
0.761639 0.766262 0.747967
0 0 0.0631571
0.00555428 0.0135042 0.0847334
0.0516365 0.0632029 0.171023
0.151446 0.165515 0.299107
0.298924 0.309133 0.446281
0.446357 0.454505 0.581643
0.569497 0.577279 0.689296
0.671946 0.681193 0.774563
0.750332 0.760616 0.839475
0.010544 0 0.238453
0 0.00480659 0.154009
0.0452125 0.0540627 0.255314
0.141131 0.15317 0.392981
0.284306 0.29192 0.541222
0.432303 0.43975 0.673838
0.555337 0.562036 0.773556
0.659297 0.667979 0.852354
0.740078 0.751186 0.91136
0.190326 0 0.99498
0 0 0.20322
0.0412299 0.0432136 0.319707
0.132265 0.137667 0.460334
0.27126 0.270634 0.607462
0.418494 0.419425 0.740108
0.542336 0.543572 0.837263
0.647028 0.650996 0.912352
0.729503 0.737423 0.967422
0.18677 0 1
0 0 0.259205
0.0377966 0.033341 0.366445
0.124544 0.12134 0.508705
0.259464 0.249042 0.65684
0.405097 0.396689 0.790188
0.530632 0.5243 0.887602
0.635676 0.632715 0.959442
0.719814 0.721309 1
0.0874037 0.0262913 0
0.163485 0.06392 0
0.315145 0.148852 0
0.511666 0.270726 0
0.70631 0.409751 0
0.876875 0.534539 0
1 0.645731 0
1 0.737285 0
0.941024 0.655344 0.0503853
0.0917372 0.0216831 0
0.160555 0.0559243 0
0.305104 0.133165 0
0.49723 0.248753 0
0.692302 0.387121 0
0.866117 0.514611 0
0.786587 0.507485 0.0423438
0.798535 0.548501 0.0722515
0.86891 0.669108 0.237064
0.0994278 0.0152743 0
0.159045 0.0494698 0
0.295125 0.118074 0
0.48278 0.22742 0
0.508324 0.273365 0.0229191
0.602289 0.368566 0.066804
0.719417 0.510674 0.210147
0.806058 0.630259 0.342153
0.866911 0.721553 0.460227
0.123171 0.00683604 0
0.15729 0.0429694 0
0.184222 0.0542916 0
0.315953 0.139528 0.0515755
0.466621 0.274495 0.159503
0.605356 0.420615 0.293324
0.71426 0.54757 0.422293
0.798184 0.657481 0.535698
0.857877 0.740566 0.62884
0.453605 0 0.333028
0.0827649 0.0110781 0.0267491
0.17084 0.0540017 0.0859541
0.311269 0.151522 0.198383
0.456764 0.285801 0.333272
0.593637 0.431083 0.467781
0.700252 0.552483 0.581857
0.784161 0.658946 0.678981
0.846006 0.742046 0.754391
0.414725 0 0.597772
0.0737011 0.00491341 0.108141
0.161303 0.0493324 0.19855
0.298238 0.145937 0.32932
0.439475 0.275746 0.465537
0.57499 0.419715 0.59559
0.684108 0.542962 0.700023
0.768734 0.648386 0.782101
0.832563 0.732692 0.845518
0.391394 0 0.827741
0.0629892 0 0.186587
0.14815 0.0383612 0.287205
0.281407 0.130602 0.425696
0.419989 0.256245 0.561364
0.556085 0.400076 0.686152
0.668116 0.526162 0.784787
0.753948 0.63241 0.859129
0.819699 0.719097 0.915496
0.378027 0 1
0.0666819 0 0.272602
0.13254 0.0251469 0.348608
0.2645 0.112261 0.492683
0.401556 0.233661 0.627649
0.538018 0.376822 0.751247
0.652094 0.505592 0.847562
0.740246 0.614542 0.919188
0.807843 0.703838 0.971069
0.367514 0 1
0.0740673 0 0.35639
0.115587 0.0110933 0.384543
0.24892 0.0939651 0.53962
0.384604 0.211597 0.676463
0.519997 0.351385 0.799359
0.637201 0.484092 0.896361
0.726696 0.594278 0.965194
0.797086 0.687343 1
0.216831 0.0122377 0
0.3066 0.0549935 0
0.45507 0.125734 0
0.630198 0.231418 0
0.814176 0.364492 0
0.973373 0.492348 0
1 0.602838 0
1 0.699275 0
0.978027 0.618875 0.0486915
0.323323 0 0
0.300343 0.0468147 0
0.4392 0.108965 0
0.612116 0.210254 0
0.794415 0.339178 0
0.959396 0.470878 0
0.855222 0.467613 0.0419318
0.858671 0.515236 0.0723278
0.927565 0.64126 0.236103
0.940841 0 0.00395209
0.292607 0.037171 0
0.423804 0.0933089 0
0.594049 0.190005 0
0.5906 0.228061 0.0226444
0.677546 0.327184 0.0663767
0.785 0.467292 0.207416
0.865995 0.58999 0.338857
0.925048 0.689448 0.458305
0.940841 0 0.00395209
0.290013 0.0304112 0
0.283299 0.0369421 0.00189212
0.398199 0.104189 0.049836
0.543587 0.223377 0.154467
0.678813 0.36939 0.28751
0.780407 0.499809 0.416968
0.856519 0.611841 0.529702
0.914061 0.703731 0.625193
0.670039 0 0.32752
0.162493 0 0.0303349
0.258686 0.031632 0.0873579
0.391913 0.110506 0.192737
0.53315 0.230076 0.323339
0.664591 0.373739 0.457588
0.765743 0.502113 0.574594
0.842222 0.61146 0.671885
0.90103 0.702266 0.749615
0.623529 0 0.615717
0.166522 0 0.131594
0.240864 0.0236973 0.195178
0.373907 0.10074 0.317845
0.513497 0.218128 0.451575
0.643778 0.359548 0.582071
0.74757 0.489891 0.690303
0.826291 0.599786 0.774243
0.887221 0.692027 0.840467
0.621576 0 0.88542
0.20267 0 0.282689
0.20763 0.0059968 0.266407
0.350652 0.0831922 0.407935
0.491264 0.198795 0.544244
0.621134 0.336996 0.668742
0.729244 0.471138 0.772778
0.809369 0.581506 0.849348
0.874144 0.678157 0.91046
0.618875 0 1
0.775051 0 1
0.205295 0.00190738 0.345251
0.326619 0.0641947 0.46833
0.469627 0.177295 0.607904
0.599145 0.311666 0.730266
0.711574 0.449622 0.834287
0.793515 0.56141 0.907347
0.859648 0.659327 0.963745
0.620203 0 1
0.77882 0 1
0.207843 1.5259e-05 0.413443
0.302312 0.0459144 0.507012
0.449104 0.156191 0.653895
0.578698 0.286671 0.776562
0.692699 0.424781 0.879408
0.778561 0.540429 0.952316
0.846128 0.639857 1
1 0 0.00474556
0.39968 0.0314488 0
0.527947 0.0876326 0
0.692027 0.182757 0
0.859907 0.303212 0
1 0.43476 0
1 0.548257 0
1 0.650431 0
1 0.579751 0.0466926
1 0 0.00474556
0.390524 0.0225986 0
0.5122 0.0743877 0
0.671473 0.163287 0
0.837415 0.27837 0
0.999176 0.410666 0
0.89308 0.418616 0.039704
0.894759 0.472023 0.0694438
0.968414 0.605417 0.233326
1 0 0.00474556
0.378759 0.0112612 0
0.500359 0.0639506 0
0.650996 0.144503 0
0.625559 0.175799 0.0199588
0.708934 0.272923 0.0622568
0.822828 0.416876 0.201434
0.905638 0.543389 0.332586
0.965972 0.650187 0.453132
1 0 0.00474556
0.393591 0.00360113 0
0.340932 0.0180972 0.00228885
0.436316 0.0653086 0.0445716
0.576669 0.168521 0.143526
0.709926 0.306401 0.272892
0.817212 0.443778 0.40473
0.895552 0.561715 0.520027
0.955474 0.663172 0.618967
0.86566 0 0.323049
0.938598 0 0.513207
0.287846 0.00120546 0.0738842
0.42446 0.0644999 0.174746
0.564721 0.171069 0.30251
0.693263 0.305348 0.434852
0.801663 0.443198 0.558251
0.879744 0.558328 0.659251
0.941238 0.659175 0.741833
0.843198 0 0.64802
0.907225 0 0.828931
0.28893 0 0.185382
0.398672 0.0513771 0.286625
0.543023 0.158267 0.423514
0.670298 0.288777 0.553262
0.781125 0.427878 0.669856
0.862135 0.544381 0.75906
0.925216 0.645518 0.830457
0.846983 0 0.937301
0.887007 0 1
0.293675 0 0.28957
0.364111 0.0327764 0.361746
0.51812 0.139284 0.510216
0.645991 0.266392 0.635828
0.758999 0.405447 0.747585
0.844388 0.525307 0.832807
0.909636 0.628214 0.897993
0.8486 0 1
0.882155 0 1
0.298558 0 0.380911
0.33022 0.0158999 0.408759
0.492699 0.11841 0.5682
0.621973 0.24181 0.69395
0.737606 0.381018 0.804685
0.826719 0.504051 0.888777
0.894728 0.609277 0.950851
0.85594 0 1
0.882155 0 1
0.305409 0 0.463111
0.31136 0.00650034 0.450523
0.468299 0.098085 0.609079
0.599924 0.218418 0.737652
0.716793 0.355703 0.847364
0.809674 0.481773 0.931456
0.880247 0.589029 0.992554
1 0 0.00474556
0.473625 0.00764477 0
0.567956 0.0558785 0
0.710475 0.13344 0
0.868223 0.239841 0
1 0.369833 0
1 0.491859 0
1 0.60087 0
1 0.540322 0.0448157
1 0 0.00474556
0.535134 0 0
0.550912 0.04448 0
0.687358 0.114977 0
0.845533 0.217929 0
1 0.344396 0
0.911955 0.367239 0.0367437
0.919753 0.429908 0.070985
0.999023 0.568353 0.230167
1 0 0.00474556
1 0 0.00474556
0.519142 0.0276799 0
0.663767 0.0970626 0
0.630823 0.126589 0.0158999
0.71519 0.217121 0.0619516
0.843351 0.364553 0.193866
0.930266 0.49366 0.324315
0.994858 0.607584 0.446311
1 0 0.00474556
1 0 0.00474556
0.359777 0 0
0.436255 0.0293736 0.0365606
0.580652 0.117311 0.129625
0.714504 0.240909 0.253788
0.834516 0.383749 0.388678
0.919966 0.508858 0.507729
0.982498 0.616327 0.60911
0.962219 0 0.331258
0.938079 0 0.517754
0.355276 0 0.0863661
0.415885 0.0242161 0.14844
0.566033 0.115633 0.275776
0.69688 0.236835 0.406577
0.815427 0.377752 0.535119
0.903319 0.503288 0.643885
0.966964 0.609781 0.729717
0.922393 0 0.665248
0.906188 0 0.840848
0.365621 0 0.211215
0.372442 0.0078584 0.236881
0.54052 0.101015 0.38613
0.672694 0.21976 0.518334
0.793271 0.360525 0.642054
0.883772 0.487343 0.74049
0.950668 0.595575 0.817304
0.896254 0 0.960693
0.885954 0 1
0.389502 0 0.342901
0.368719 0.00451667 0.327245
0.510735 0.0816205 0.463264
0.647242 0.198779 0.596094
0.767803 0.335775 0.714763
0.863996 0.466819 0.811399
0.933516 0.576562 0.882902
0.882155 0 1
0.882155 0 1
0.882155 0 1
0.373037 0.00318914 0.406165
0.47924 0.0611124 0.512062
0.621912 0.176226 0.650462
0.743481 0.309895 0.767544
0.845304 0.445106 0.865705
0.916945 0.55613 0.933837
0.882155 0 1
0.882155 0 1
0.882155 0 1
0.376913 0.00141909 0.471534
0.441138 0.0385748 0.537041
0.598901 0.155322 0.691402
0.72076 0.284657 0.807309
0.825605 0.420844 0.905409
0.901122 0.534951 0.974075
