filmlog/LutKodakNeutral.cube
TITLE "Generated by Resolve"
LUT_3D_SIZE 33
0 0.333318 0
0 0.353521 0
0 0.374533 0
0 0.395575 0
0 0.416388 0
0 0.43682 0
0 0.455817 0
0 0.473884 0
0 0.490913 0
0 0.506096 0
0 0.521004 0
0 0.534417 0
0 0.547433 0
0 0.560052 0
0 0.573251 0
0 0.586419 0
0 0.599176 0
0 0.610544 0
0 0.621271 0
0 0.631693 0
0 0.641733 0
0 0.649927 0
0 0.65803 0
0 0.665858 0
0 0.345937 0
0.00611887 0.329519 0
0.0148623 0.339651 0
0.0218509 0.352911 0
0.0283207 0.369436 0
0.00712596 0.282078 0
0.0110628 0.299611 0
0.0148775 0.315038 0
0.0195468 0.33019 0
0 0.329473 0
0 0.349813 0
0 0.370535 0
0 0.391623 0
0 0.412421 0
0 0.432929 0
0 0.452369 0
0 0.470542 0
0 0.487938 0
0 0.503319 0
0 0.518227 0
0 0.531975 0
0 0.544976 0
0 0.557687 0
0 0.570794 0
0 0.583978 0
0 0.596826 0
0 0.608499 0
0 0.619226 0
0 0.629755 0
0 0.640055 0
0 0.648432 0
0 0.656535 0
0 0.664439 0
0 0.345022 0
0.00616464 0.328664 0
0.0149233 0.338796 0
0 0.252399 0
0.00187686 0.26772 0
0.00602731 0.282124 0
0.0101015 0.298939 0
0.0144503 0.322606 0.000656138
0.0193484 0.346624 0.0116121
0 0.325567 0
0 0.346029 0
0 0.366537 0
0 0.387671 0
0 0.408606 0
0 0.429175 0
0 0.448814 0
0 0.467201 0
0 0.485084 0
0 0.50045 0
0 0.51545 0
0 0.529534 0
0 0.542626 0
0 0.555337 0
0 0.568353 0
0 0.581521 0
0 0.594369 0
0 0.606455 0
0 0.617288 0
0 0.627802 0
0 0.638117 0
0 0.646845 0
0 0.655024 0
0 0.662943 0
0 0.344045 0
0 0.233204 0
0 0.241459 0
0 0.252537 0
0.0015259 0.272007 0
0.00628672 0.294972 0.00225834
0.0110323 0.319249 0.0128023
0.0155032 0.343496 0.0230259
0.0204776 0.367575 0.0344396
0 0.32195 0
0 0.342245 0
0 0.362448 0
0 0.383749 0
0 0.404654 0
0 0.425299 0
0 0.445396 0
0 0.463737 0
0 0.481773 0
0 0.497581 0
0 0.512673 0
0 0.527077 0
0 0.540169 0
0 0.552987 0
0 0.565805 0
0 0.57908 0
0 0.592035 0
0 0.604425 0
0 0.615244 0
0 0.625864 0
0 0.636179 0
0 0.645335 0
0 0.653452 0
0 0.526162 0.00682078
0 0.245029 0
0 0.238773 0
0 0.252201 0
0 0.270619 0.00402838
0.0024567 0.291112 0.0127718
0.00724804 0.31368 0.022446
0.0119783 0.337957 0.0337224
0.0164645 0.362356 0.0473182
0.0215457 0.386465 0.0625162
0 0.318303 0
0 0.338384 0
0 0.35848 0
0 0.379828 0
0 0.400732 0
0 0.421576 0
0 0.441825 0
0 0.46041 0
0 0.478416 0
0 0.494697 0
0 0.509896 0
0 0.524529 0
0 0.537728 0
0 0.55053 0
0 0.563363 0
0 0.576623 0
0 0.589578 0
0 0.602335 0
0 0.613199 0
0 0.623926 0
0 0.634241 0
0 0.514611 0.0015259
0 0.515923 0.0271153
0 0.537072 0.0536355
0 0.258869 0.00215152
0 0.252308 0.00622568
0 0.26772 0.0131228
0 0.286671 0.0220035
0.00331121 0.307973 0.0322728
0.00817884 0.331273 0.0453498
0.0128939 0.355459 0.0605478
0.0180514 0.380041 0.077348
0.0225071 0.403494 0.0944839
0 0.314565 0
0 0.33463 0
0 0.354757 0
0 0.375799 0
0 0.396857 0
0 0.417716 0
0 0.438041 0
0 0.456962 0
0 0.475059 0
0 0.491844 0
0 0.507027 0
0 0.52195 0
0 0.535271 0
0 0.54818 0
0 0.5608 0
0 0.574182 0
0 0.587243 0
0 0.6 0
0 0.611261 0
0 0.501823 0
0 0.497887 0.0251621
0 0.520653 0.0524758
0 0.537621 0.072282
0 0.55639 0.0946365
0 0.272969 0.0203098
0 0.267063 0.0231785
0 0.283223 0.0314794
0 0.302663 0.0435492
0.00421149 0.324376 0.0577707
0.00909438 0.347921 0.0741741
0.0137636 0.37171 0.0915541
0.0188602 0.395483 0.109697
0.0232853 0.417624 0.12723
0 0.310842 0
0 0.330785 0
0 0.351049 0
0 0.371908 0
0 0.392905 0
0 0.413748 0
0 0.434272 0
0 0.453529 0
0 0.471702 0
0 0.488975 0
0 0.50425 0
0 0.519158 0
0 0.53283 0
0 0.54583 0
0 0.55845 0
0 0.571618 0
0 0.584802 0
0 0.507347 0
0 0.476951 0.0233768
0 0.500572 0.0513313
0 0.519112 0.0712291
0 0.538262 0.0915694
0 0.557748 0.114672
0 0.577401 0.137255
0 0.287938 0.0399023
0 0.282017 0.043946
0 0.298466 0.0556802
0 0.318105 0.0710613
0.00505074 0.339483 0.0874495
0.00987259 0.362478 0.10544
0.0144045 0.384878 0.123354
0.0194553 0.407752 0.142016
0.0238346 0.428855 0.15967
0 0.307134 0
0 0.326863 0
0 0.347265 0
0 0.367803 0
0 0.389075 0
0 0.409918 0
0 0.430518 0
0 0.449973 0
0 0.46836 0
0 0.486 0
0 0.501381 0
0 0.516381 0
0 0.530373 0
0 0.543374 0
0 0.5561 0
0 0.569177 0
0 0.453681 0.0219883
0 0.478157 0.0495155
0 0.49778 0.0701305
0 0.516899 0.0902266
0 0.537774 0.1131
0 0.558679 0.135454
0 0.579126 0.159731
0 0.599298 0.185809
0 0.302495 0.0655375
0 0.296132 0.0701762
0 0.312322 0.0840467
0.000335698 0.331746 0.101015
0.00570687 0.352041 0.118379
0.0104219 0.373968 0.136736
0.0149233 0.395941 0.155352
0.019913 0.41796 0.174197
0.0243076 0.43856 0.192142
0 0.303349 0
0 0.323186 0
0 0.343481 0
0 0.363821 0
0 0.385138 0
0 0.405982 0
0 0.426642 0
0 0.44654 0
0 0.464897 0
0 0.482933 0
0 0.498604 0
0 0.513603 0
0 0.527932 0
0 0.541024 0
0 0.427527 0.0192111
0 0.452934 0.0480201
0 0.473228 0.0689708
0 0.493629 0.0888838
0 0.515435 0.111513
0 0.536309 0.133639
0 0.55787 0.157534
0 0.579904 0.183597
0 0.600458 0.210925
0 0.620233 0.23949
0 0.316228 0.0954147
0 0.309438 0.0994888
0 0.324331 0.113924
0.000900282 0.342794 0.131716
0.0061799 0.362234 0.14931
0.0108339 0.383368 0.168078
0.0152895 0.404822 0.186908
0.0202792 0.426581 0.206088
0.0246433 0.446372 0.223331
0 0.29958 0
0 0.319524 0
0 0.339712 0
0 0.359731 0
0 0.381216 0
0 0.402045 0
0 0.422782 0
0 0.443 0
0 0.46157 0
0 0.479576 0
0 0.495735 0
0 0.510826 0
0 0.405371 0.0194247
0 0.425284 0.0464485
0 0.44654 0.0678416
0 0.467384 0.0874952
0 0.489433 0.109834
0 0.511574 0.131762
0 0.534524 0.155398
0 0.556558 0.181018
0 0.57818 0.208316
0 0.59997 0.236988
0 0.620661 0.26569
0 0.639597 0.293523
0 0.328115 0.126558
0 0.318975 0.128557
0 0.333822 0.143923
0.00129702 0.351553 0.162005
0.00653086 0.370352 0.179934
0.0111391 0.391058 0.198947
0.0155184 0.411765 0.217304
0.0205386 0.433463 0.236332
0.0248722 0.452674 0.25272
0 0.295827 0
0 0.315785 0
0 0.335851 0
0 0.356008 0
0 0.377188 0
0 0.398138 0
0 0.418921 0
0 0.439399 0
0 0.458122 0
0 0.476219 0
0 0.379904 0.0163272
0 0.395895 0.0450141
0 0.417914 0.0670787
0 0.438483 0.085893
0 0.46125 0.10811
0 0.484077 0.129839
0 0.507103 0.15288
0 0.530526 0.17821
0 0.553719 0.205646
0 0.575692 0.233936
0 0.59733 0.26273
0 0.618814 0.291386
0 0.638727 0.319493
0 0.655436 0.34612
0 0.337804 0.157733
0 0.327443 0.157992
0 0.341711 0.173861
0.0016022 0.358785 0.191913
0.00679026 0.377218 0.209705
0.011368 0.397482 0.228443
0.0157015 0.417548 0.246235
0.0206149 0.438071 0.263783
0.0250095 0.457786 0.280461
0 0.292042 0
0 0.312139 0
0 0.332113 0
0 0.3523 0
0 0.373175 0
0 0.394308 0
0 0.415076 0
0 0.435492 0
0 0.350286 0.0114137
0 0.363119 0.043061
0 0.386343 0.0658579
0 0.407248 0.0842145
0 0.430503 0.106264
0 0.453788 0.127687
0 0.477363 0.15021
0 0.501442 0.17528
0 0.525444 0.202594
0 0.548669 0.230701
0 0.571664 0.25948
0 0.593149 0.287953
0 0.614099 0.316197
0 0.634516 0.344228
0 0.652277 0.370428
0 0.66743 0.395071
0 0.345769 0.188663
0 0.334218 0.187289
0 0.348638 0.203387
0.00173953 0.363943 0.220432
0.00700389 0.382971 0.238224
0.0114748 0.402136 0.255787
0.0158541 0.422766 0.273747
0.020737 0.442573 0.290822
0.0250858 0.461784 0.306737
0 0.288304 0
0 0.308431 0
0 0.328176 0
0 0.348592 0
0 0.369177 0
0 0.390356 0
0 0.318105 0.00167849
0 0.325994 0.0408789
0 0.350088 0.06421
0 0.372686 0.0827039
0 0.397314 0.104356
0 0.420813 0.125216
0 0.445121 0.147478
0 0.4692 0.171817
0 0.493996 0.19884
0 0.51899 0.227359
0 0.542489 0.256016
0 0.565393 0.284749
0 0.587243 0.312779
0 0.608698 0.340581
0 0.627787 0.367529
0 0.645716 0.3935
0 0.662715 0.418418
0 0.67776 0.442557
0 0.352148 0.218723
0 0.339513 0.214923
0 0.354116 0.231479
0.00192264 0.369085 0.247471
0.00712596 0.387427 0.264973
0.0115206 0.405814 0.281712
0.0158999 0.426322 0.299413
0.0208743 0.447013 0.317388
0.0251011 0.464881 0.331579
0 0.284581 0
0 0.304646 0
0 0.324407 0
0 0.344808 0
0 0.309087 0
0 0.286 0.038117
0 0.309438 0.0619364
0 0.333043 0.0805524
0 0.357702 0.0998398
0 0.383627 0.122164
0 0.410147 0.144579
0 0.43473 0.168322
0 0.45977 0.194644
0 0.485008 0.222858
0 0.50959 0.25156
0 0.535149 0.281331
0 0.558221 0.30988
0 0.579293 0.336873
0 0.600488 0.36408
0 0.620737 0.391073
0 0.63772 0.415869
0 0.654673 0.440345
0 0.67129 0.464317
0 0.685649 0.486931
0 0.357046 0.247166
0 0.343557 0.241245
0 0.35729 0.25687
0.00202945 0.373159 0.273274
0.00714122 0.390494 0.289891
0.0115511 0.408911 0.306355
0.0159152 0.429129 0.323857
0.0208438 0.44947 0.340963
0.0250858 0.467247 0.355093
0 0.280781 0
0 0.300862 0
0 0.320745 0
0 0.246754 0.0348211
0 0.26807 0.0594949
0 0.290547 0.0780194
0 0.314519 0.0964675
0 0.341192 0.118196
0 0.368505 0.140093
0 0.395254 0.163821
0 0.422873 0.190158
0 0.448997 0.218128
0 0.474205 0.246891
0 0.500267 0.276249
0 0.525307 0.305501
0 0.547707 0.333104
0 0.569055 0.359869
0 0.589914 0.386572
0 0.609674 0.412543
0 0.62858 0.437659
0 0.645457 0.461524
0 0.662074 0.484932
0 0.677882 0.507332
0 0.691386 0.527337
0 0.360418 0.273228
0 0.346624 0.266178
0 0.359579 0.280812
0.00202945 0.375662 0.297688
0.00714122 0.392935 0.31368
0.0115206 0.411078 0.329717
0.0158999 0.431418 0.34728
0.0208133 0.45153 0.363546
0.0250095 0.468879 0.376638
0 0.276936 0
0 0.210147 0.0312963
0 0.228855 0.0570535
0 0.249119 0.0756542
0 0.271 0.0932326
0 0.296193 0.113817
0 0.322606 0.13489
0 0.350469 0.158129
0 0.378943 0.183871
0 0.407416 0.211963
0 0.435782 0.241627
0 0.462211 0.270695
0 0.488365 0.299794
0 0.513588 0.328786
0 0.535592 0.355718
0 0.556649 0.381857
0 0.577356 0.407782
0 0.596582 0.433036
0 0.616205 0.457984
0 0.635523 0.482277
0 0.652262 0.505211
0 0.667277 0.525429
0 0.682017 0.545495
0 0.695598 0.56466
0 0.362875 0.297871
0 0.349126 0.289799
0 0.361639 0.304006
0.00196841 0.377371 0.320302
0.00708019 0.394583 0.336141
0.0114748 0.412818 0.352056
0.0158389 0.432929 0.368658
0.020737 0.452842 0.384466
0.024918 0.470207 0.397345
0 0.190753 0.0547799
0 0.209888 0.0737011
0 0.230335 0.0906996
0 0.252918 0.110277
0 0.27689 0.129946
0 0.303243 0.151919
0 0.330938 0.176608
0 0.359625 0.203983
0 0.390021 0.233814
0 0.418616 0.263371
0 0.446281 0.292638
0 0.472343 0.320729
0 0.497215 0.349081
0 0.520897 0.376822
0 0.542245 0.402731
0 0.562524 0.428031
0 0.582895 0.453208
0 0.6038 0.478233
0 0.623392 0.502251
0 0.640467 0.523095
0 0.656153 0.543023
0 0.671122 0.562814
0 0.68545 0.581933
0 0.699031 0.599985
0 0.364981 0.321706
0 0.350668 0.3122
0 0.363714 0.326558
0.00192264 0.378851 0.342153
0.00700389 0.395758 0.357015
0.0113985 0.413901 0.372351
0.0157626 0.434058 0.388922
0.0206149 0.453574 0.403876
0.0248264 0.471183 0.416037
0 0.190204 0.0882277
0 0.211719 0.107256
0 0.234287 0.126131
0 0.257847 0.146487
0 0.283711 0.169787
0 0.310658 0.196048
0 0.338369 0.223789
0 0.368261 0.253559
0 0.398413 0.283436
0 0.426352 0.312169
0 0.453285 0.340139
0 0.479515 0.368658
0 0.503334 0.396124
0 0.525826 0.422354
0 0.546975 0.447517
0 0.56846 0.47245
0 0.590845 0.498039
0 0.609079 0.519707
0 0.62623 0.53994
0 0.643534 0.560006
0 0.659754 0.580179
0 0.674372 0.599069
0 0.688197 0.616602
0 0.70132 0.633066
0 0.366583 0.344533
0 0.351843 0.333776
0 0.364614 0.34696
0.00183108 0.379614 0.361807
0.0069276 0.396643 0.376822
0.0113069 0.414664 0.391608
0.0156405 0.434394 0.40708
0.0204471 0.453422 0.420981
0.0247349 0.472084 0.434104
0 0.191119 0.12163
0 0.214389 0.141527
0 0.237827 0.163165
0 0.263218 0.188586
0 0.289357 0.21503
0 0.315679 0.242359
0 0.3458 0.272419
0 0.375189 0.301625
0 0.403815 0.330358
0 0.431357 0.358343
0 0.458045 0.386511
0 0.485176 0.415396
0 0.508064 0.441444
0 0.530098 0.465751
0 0.552071 0.490105
0 0.573495 0.514061
0 0.593027 0.53608
0 0.610864 0.556359
0 0.628229 0.576059
0 0.646174 0.59649
0 0.662867 0.616144
0 0.676295 0.632425
0 0.689525 0.648432
0 0.702708 0.664424
0 0.367849 0.366003
0 0.352239 0.353048
0 0.364874 0.365911
0.00170901 0.380041 0.380545
0.00680552 0.396963 0.394598
0.0112001 0.415 0.409201
0.0155032 0.434424 0.424292
0.0202792 0.4533 0.437583
0.0245975 0.472236 0.450385
0 0.192935 0.157092
0 0.217258 0.180987
0 0.242252 0.206912
0 0.267475 0.233494
0 0.292363 0.259983
0 0.320729 0.289219
0 0.350378 0.318257
0 0.377462 0.345647
0 0.405676 0.373617
0 0.434943 0.403052
0 0.462516 0.43183
0 0.488457 0.458671
0 0.511269 0.482841
0 0.533486 0.506371
0 0.555947 0.530159
0 0.575998 0.55201
0 0.59379 0.571389
0 0.611597 0.5906
0 0.629511 0.610452
0 0.647227 0.629755
0 0.66363 0.647654
0 0.677119 0.663355
0 0.690471 0.678401
0 0.703914 0.693217
0 0.368811 0.38616
0 0.352392 0.371496
0 0.364599 0.383337
0.00155642 0.379797 0.397375
0.00668345 0.397055 0.411322
0.0110933 0.415198 0.426078
0.0153658 0.434211 0.440269
0.0201419 0.453086 0.453376
0.024445 0.472084 0.465827
0 0.194171 0.197498
0 0.218845 0.223331
0 0.24361 0.249821
0 0.267781 0.275669
0 0.296071 0.305196
0 0.324254 0.333379
0 0.35053 0.359854
0 0.378317 0.38793
0 0.408042 0.417273
0 0.437552 0.445823
0 0.463752 0.472267
0 0.489311 0.497353
0 0.511894 0.519875
0 0.535164 0.543709
0 0.557458 0.566766
0 0.575204 0.58555
0 0.593362 0.604227
0 0.61207 0.623468
0 0.630137 0.642695
0 0.647532 0.660777
0 0.663767 0.677211
0 0.677348 0.691829
0 0.690959 0.706386
0 0.704646 0.720745
0 0.369192 0.404623
0 0.351965 0.387793
0 0.364141 0.399817
0.00140383 0.379416 0.413657
0.00653086 0.396719 0.427008
0.0109102 0.41442 0.440742
0.0152132 0.433799 0.455314
0.0199893 0.452705 0.46862
0.0242771 0.471672 0.480415
0 0.192691 0.237476
0 0.217868 0.264118
0 0.241291 0.288823
0 0.268208 0.317647
0 0.295918 0.345678
0 0.322667 0.3729
0 0.350576 0.400931
0 0.378393 0.428687
0 0.407675 0.45655
0 0.436515 0.483818
0 0.461677 0.507195
0 0.48658 0.530388
0 0.511757 0.554681
0 0.534905 0.578073
0 0.555444 0.599054
0 0.574182 0.617441
0 0.593332 0.636347
0 0.612848 0.655848
0 0.630014 0.672816
0 0.646403 0.688563
0 0.662745 0.704402
0 0.677119 0.718929
0 0.690333 0.731609
0 0.703685 0.744244
0 0.3691 0.421668
0 0.351461 0.403632
0 0.363592 0.415244
0.00122072 0.378622 0.428336
0.00637827 0.396124 0.441886
0.0107271 0.413565 0.454887
0.0150607 0.433249 0.469703
0.0198367 0.452125 0.482582
0.0240635 0.470741 0.493904
0 0.190265 0.276875
0 0.216205 0.303548
0 0.241077 0.329992
0 0.267674 0.357458
0 0.293309 0.383581
0 0.321553 0.411902
0 0.34934 0.439307
0 0.377417 0.466255
0 0.404227 0.490593
0 0.431693 0.515175
0 0.459327 0.540124
0 0.487251 0.565774
0 0.513451 0.59057
0 0.533959 0.610483
0 0.553689 0.629267
0 0.573266 0.647929
0 0.592721 0.666438
0 0.611078 0.683299
0 0.628138 0.699016
0 0.644785 0.714672
0 0.661021 0.729168
0 0.675486 0.742168
0 0.688991 0.754482
0 0.702556 0.766873
0 0.368383 0.437354
0 0.351293 0.418769
0 0.363165 0.42977
0.00108339 0.37792 0.442786
0.00624094 0.395529 0.456291
0.0105592 0.412711 0.468482
0.0148928 0.432181 0.482643
0.0196841 0.451453 0.495979
0.0238804 0.469856 0.507103
0 0.18854 0.316045
0 0.21622 0.344427
0 0.240482 0.369924
0 0.266407 0.396048
0 0.294514 0.423667
0 0.322087 0.451194
0 0.347127 0.474586
0 0.373007 0.497932
0 0.400336 0.522408
0 0.43122 0.549538
0 0.461311 0.576272
0 0.487495 0.599832
0 0.511681 0.621118
0 0.53167 0.639582
0 0.551781 0.658
0 0.571633 0.675837
0 0.590417 0.692561
0 0.608652 0.70869
0 0.625635 0.723278
0 0.642084 0.737331
0 0.658366 0.751171
0 0.673655 0.76434
0 0.686961 0.775662
0 0.699489 0.786007
0 0.366522 0.451118
0 0.351308 0.433783
0 0.362921 0.444129
0.000991836 0.377325 0.456443
0.00613413 0.394766 0.469551
0.0104524 0.41207 0.48188
0.0147402 0.43125 0.495338
0.0195468 0.450782 0.508949
0.023682 0.468788 0.51928
0 0.186236 0.351904
0 0.211841 0.379294
0 0.238529 0.406363
0 0.265965 0.433677
0 0.294545 0.461479
0 0.318853 0.484215
0 0.34464 0.50692
0 0.372045 0.531807
0 0.401053 0.557412
0 0.431586 0.583749
0 0.459159 0.607034
0 0.483864 0.628244
0 0.508659 0.649363
0 0.529534 0.667185
0 0.549996 0.685023
0 0.570199 0.702678
0 0.588525 0.717815
0 0.605875 0.731609
0 0.622797 0.745342
0 0.639323 0.758968
0 0.655756 0.772213
0 0.670863 0.784146
0 0.683772 0.794385
0 0.696284 0.804181
0 0.364843 0.464775
0 0.35082 0.447654
0 0.362295 0.457481
0.000946059 0.376898 0.469657
0.00605783 0.394156 0.482658
0.0104067 0.411688 0.495293
0.0146487 0.430625 0.507912
0.0194095 0.449821 0.520668
0.0235294 0.467811 0.530999
0 0.178744 0.377096
0 0.208377 0.410346
0 0.236515 0.439612
0 0.264973 0.467994
0 0.290776 0.49369
0 0.316732 0.516808
0 0.345068 0.541894
0 0.372503 0.566033
0 0.398886 0.588281
0 0.42739 0.611963
0 0.455863 0.635508
0 0.480812 0.655619
0 0.505745 0.675593
0 0.527687 0.693767
0 0.548409 0.71104
0 0.56849 0.726894
0 0.586297 0.740505
0 0.603418 0.753811
0 0.620279 0.766827
0 0.637095 0.779644
0 0.65301 0.79176
0 0.668162 0.80325
0 0.680858 0.812802
0 0.693889 0.822354
0 0.364614 0.479377
0 0.350225 0.460822
0 0.361883 0.470832
0.000976577 0.376791 0.482933
0.00604257 0.393759 0.495323
0.0104067 0.411643 0.507973
0.0146181 0.430289 0.520378
0.0193332 0.449165 0.532433
0.0234073 0.467048 0.542626
0 0.165988 0.390524
0 0.200732 0.431617
0 0.232425 0.466926
0 0.262089 0.49752
0 0.287327 0.52221
0 0.315129 0.547723
0 0.343587 0.572686
0 0.369955 0.594934
0 0.395743 0.616693
0 0.42446 0.639765
0 0.452934 0.662074
0 0.478294 0.681895
0 0.503288 0.701289
0 0.526284 0.718868
0 0.546868 0.734737
0 0.567041 0.750011
0 0.584497 0.762905
0 0.60177 0.775387
0 0.619135 0.787884
0 0.63534 0.799802
0 0.650858 0.811154
0 0.665797 0.821653
0 0.679332 0.831083
0 0.69247 0.840543
0 0.364538 0.493828
0 0.349737 0.473854
0 0.361532 0.483787
0.00102235 0.376669 0.495552
0.00607309 0.393469 0.50753
0.0104677 0.411841 0.520668
0.0146334 0.430137 0.532784
0.0193027 0.448798 0.544213
0.023331 0.466346 0.553735
0.00148013 0.155123 0.402396
0.000457771 0.188128 0.442893
0 0.228077 0.488823
0 0.255192 0.518944
0 0.284352 0.548806
0 0.314 0.576913
0 0.341634 0.600793
0 0.368582 0.62327
0 0.395163 0.645212
