filmlog/LutKodakWarm.cube
TITLE "Generated by Resolve"
LUT_3D_SIZE 9
0 0.324819 0
0 0.402853 0
0 0.471489 0
0 0.530251 0
0 0.581308 0
0 0.621927 0
0 0.331273 0
0.0257725 0.350332 0
0.023621 0.316289 0
0 0.310567 0
0 0.388327 0
0 0.459556 0
0 0.519677 0
0 0.572198 0
0 0.614786 0
0 0.240192 0
0.000579843 0.282673 0.0240177
0.0188296 0.367086 0.0737926
0 0.296483 0
0 0.373754 0
0 0.447333 0
0 0.509041 0
0 0.450019 0.0594797
0 0.529091 0.141085
0 0.29308 0.0795453
0.00309758 0.330983 0.121523
0.0204929 0.405264 0.181857
0 0.282277 0
0 0.358816 0
0 0.335378 0.057908
0 0.423606 0.133944
0 0.513726 0.230533
0 0.592279 0.328344
0 0.325139 0.185367
0.00386053 0.353445 0.219791
0.020798 0.421668 0.273945
0 0.185672 0.0517433
0 0.266758 0.121248
0 0.371328 0.213519
0 0.471611 0.315724
0 0.553231 0.407889
0 0.620478 0.486503
0 0.337331 0.275624
0.00378424 0.361913 0.30013
0.0205081 0.427405 0.347051
0 0.188067 0.185214
0 0.28481 0.28101
0 0.390356 0.380514
0 0.486976 0.470314
0 0.562188 0.543008
0 0.626947 0.606241
0 0.341329 0.348989
0.00331121 0.362905 0.361761
0.0199435 0.427268 0.403189
0 0.183856 0.329854
0 0.281193 0.420432
0 0.383017 0.505333
0 0.482765 0.585916
0 0.557031 0.644678
0 0.620249 0.692439
0 0.338842 0.40412
0.00265507 0.359823 0.410147
0.0192874 0.424094 0.448386
0.00141909 0.157855 0.404715
0 0.279423 0.534813
0 0.377584 0.610544
0 0.476051 0.677348
0 0.553063 0.726055
0 0.612299 0.761593
0 0.333791 0.449073
0.00236515 0.356878 0.452033
0.0187076 0.419837 0.486137
0.000564584 0.123476 0.441001
0.000732433 0.261051 0.593668
0 0.372519 0.691218
0 0.465461 0.747585
0 0.542367 0.78851
0 0.606775 0.821073
0 0.332555 0.491768
0.00260929 0.355383 0.48957
0.0185702 0.417075 0.52047
0 0.289387 0
0 0.366323 0
0 0.441199 0
0 0.503624 0
0 0.558328 0
0.0167697 0.280461 0
0.0445563 0.347921 0
0.216114 0.502373 0
0.267979 0.494331 0.0138094
0 0.275166 0
0 0.35137 0
0 0.428656 0
0 0.492439 0
0 0.548806 0
0.0168307 0.274968 0
0.0116426 0.246784 0
0.0802014 0.369833 0.0348363
0.228534 0.526375 0.136034
0 0.260655 0
0 0.33695 0
0 0.414847 0
0 0.481086 0
0 0.43003 0.0615702
0 0.214313 0.0223239
0.0136416 0.297078 0.070634
0.0478218 0.396811 0.141192
0.209705 0.559792 0.275914
0 0.245899 0
0 0.322423 0
0 0.303822 0.059266
0 0.396307 0.134508
0 0.489281 0.231174
0 0.253162 0.116823
0.015259 0.330694 0.18024
0.0398108 0.413153 0.243824
0.193866 0.569665 0.384497
0 0.155734 0.0536202
0 0.232563 0.120912
0 0.331472 0.209796
0 0.438865 0.313954
0 0.525643 0.407202
0 0.268574 0.214099
0.0153353 0.341985 0.273579
0.0327764 0.413931 0.323507
0.181079 0.568872 0.466773
0 0.153552 0.183185
0 0.242374 0.273289
0 0.34493 0.371862
0 0.448539 0.464576
0 0.532784 0.54165
0 0.27155 0.29337
0.0148318 0.34316 0.347265
0.0320287 0.41416 0.3897
0.171923 0.563394 0.528725
0 0.149294 0.319036
0 0.241672 0.414343
0 0.340368 0.499184
0 0.442679 0.579248
0 0.524468 0.641291
0 0.269291 0.355261
0.0142214 0.339757 0.404089
0.0310826 0.410132 0.441215
0.165499 0.556298 0.578332
0.000534066 0.116197 0.374945
0 0.227741 0.503532
0 0.333486 0.600885
0 0.436774 0.672618
0 0.519631 0.723186
0 0.269795 0.411307
0.0144656 0.337484 0.453361
0.0304875 0.405692 0.484657
0.161944 0.551095 0.621973
0 0.113069 0.448981
0.00357061 0.189837 0.528664
0 0.327855 0.674144
0 0.424582 0.739834
0 0.509758 0.786633
0 0.269108 0.456916
0.0159762 0.337957 0.499031
0.03093 0.404105 0.5252
0.164141 0.553323 0.66772
0 0.253315 0
0 0.329763 0
0 0.407675 0
0.00137331 0.195773 0
0.0315099 0.244495 0
0.134279 0.366323 0
0.331716 0.515541 0
0.535653 0.638804 0
0.51838 0.590951 0.0298924
0 0.238483 0
0 0.315206 0
0 0.393332 0
0.00135805 0.188449 0
0.0313115 0.236576 0
0.134966 0.357916 0
0.211246 0.392233 0.0103151
0.331502 0.484504 0.0541085
0.466316 0.611017 0.173968
0 0.225544 0
0 0.301289 0
0 0.378775 0
0.00138857 0.180926 0
0.00375372 0.154147 0
0.0368048 0.248997 0.0243992
0.171618 0.411734 0.117647
0.323949 0.550439 0.234577
0.458457 0.656458 0.346746
0 0.213596 0
0 0.287098 0
0 0.27097 0.0603799
0 0.126574 0.0225376
0.00543221 0.189746 0.062623
0.0267338 0.279194 0.125338
0.148379 0.434714 0.249424
0.311025 0.572885 0.375891
0.448081 0.67332 0.47924
0 0.132753 0.0572976
0 0.198688 0.120699
0 0.292332 0.206683
0 0.146059 0.107912
0.00653086 0.210254 0.164935
0.0250401 0.293111 0.228473
0.129137 0.435752 0.35082
0.299092 0.577188 0.48336
0.438178 0.676631 0.579477
0 0.128252 0.187442
0 0.202152 0.268147
0 0.298283 0.361593
0 0.149828 0.197482
0.0061799 0.213138 0.252247
0.0243992 0.294331 0.312367
0.113329 0.427161 0.426139
0.289723 0.573236 0.562921
0.429725 0.672831 0.653971
0 0.110109 0.295842
0 0.194049 0.396124
0 0.294209 0.488014
0 0.153124 0.278798
0.00869764 0.217929 0.331579
0.0246128 0.293278 0.380972
0.107897 0.420233 0.488182
0.284947 0.568582 0.627512
0.424674 0.668193 0.714794
0 0.104814 0.385626
0.00233463 0.158633 0.441978
0 0.28893 0.583734
0 0.152407 0.33431
0.014374 0.223316 0.396155
0.028397 0.297398 0.443992
0.113634 0.425635 0.553201
0.300801 0.582834 0.701427
0.442985 0.68307 0.785138
0 0.0988632 0.463447
0.000396735 0.125628 0.471534
0.00196841 0.270451 0.630488
0.000732433 0.1402 0.359243
0.0198062 0.221729 0.43856
0.0349584 0.303883 0.499962
0.127962 0.440101 0.619043
0.331701 0.607965 0.775265
0.476509 0.707546 0.853284
0 0.219181 0
0 0.29424 0
0.0184634 0.123674 0
0.0646677 0.201648 0
0.234714 0.3411 0
0.429267 0.477668 0
0.6327 0.604212 0
0.794415 0.69894 0
0.697078 0.623941 0.038819
0 0.208667 0
0 0.280034 0
0.0182803 0.115084 0
0.0680095 0.192828 0
0.232502 0.328679 0
0.426062 0.464759 0
0.460533 0.474434 0.0265812
0.533776 0.525582 0.0553597
0.632059 0.633783 0.189349
0 0.198688 0
0 0.265583 0
0.0181277 0.106737 0
0.0701762 0.182956 0
0.139925 0.230167 0.00221256
0.259144 0.338994 0.0437018
0.411566 0.485054 0.15787
0.533227 0.599252 0.272541
0.628672 0.683116 0.376532
0 0.188617 0
0 0.250935 0
0 0.0536965 0
0.0125887 0.110796 0.0164645
0.112169 0.244099 0.0946059
0.251225 0.386358 0.20705
0.403204 0.52134 0.328008
0.52488 0.626383 0.432792
0.62031 0.702266 0.519066
0 0.111574 0.0634012
0 0.164096 0.120165
0 0.0605173 0.0459907
0.0111849 0.125475 0.100496
0.0927596 0.253864 0.210071
0.238849 0.397559 0.339696
0.391012 0.528298 0.457908
0.513481 0.631327 0.553536
0.610086 0.705486 0.626276
0 0.106035 0.19791
0 0.163638 0.263966
0 0.0666972 0.127535
0.0132601 0.132021 0.194461
0.0792859 0.249302 0.302663
0.231052 0.396582 0.443168
0.381292 0.524132 0.556237
0.502678 0.625238 0.641108
0.600351 0.700023 0.704967
0 0.0935225 0.30602
0.000503548 0.143832 0.359808
0.000595102 0.0624857 0.18201
0.024155 0.141039 0.272831
0.0983902 0.268132 0.399115
0.264546 0.422217 0.544259
0.413672 0.544442 0.647791
0.52752 0.638315 0.721233
0.617685 0.707271 0.773632
0 0.0848554 0.410437
0.000381476 0.118425 0.414084
0 0.0487221 0.216587
0.0257725 0.134188 0.318608
0.109407 0.270298 0.458534
0.27541 0.426307 0.6094
0.422034 0.54789 0.71133
0.535149 0.641871 0.780758
0.623163 0.710063 0.827451
0 0.0651865 0.534966
0 0.114443 0.478691
0 0.0337987 0.239261
0.0231937 0.12108 0.347799
0.110903 0.259953 0.499001
0.272984 0.417594 0.656565
0.415595 0.536995 0.75697
0.529213 0.633494 0.825635
0.616449 0.70251 0.869963
0.0116426 0.0382544 0
0.0476387 0.0679332 0
0.134966 0.139467 0
0.293324 0.257877 0
0.494865 0.392966 0
0.682795 0.516854 0
0.842374 0.624414 0
0.971359 0.708476 0
0.824155 0.627863 0.0437171
0.0146334 0.0341344 0
0.0483101 0.0604105 0
0.131853 0.127092 0
0.286122 0.240299 0
0.487968 0.376425 0
0.675624 0.500237 0
0.638498 0.492027 0.0349126
0.679362 0.533486 0.0628367
0.749432 0.630701 0.195666
0.0170596 0.0301671 0
0.0489662 0.0536355 0
0.128786 0.115526 0
0.278752 0.222827 0
0.343069 0.269184 0.0152743
0.45449 0.361456 0.0521096
0.575433 0.490623 0.172396
0.674479 0.598505 0.286885
0.747326 0.679133 0.389181
0.0201419 0.0261997 0
0.0495613 0.0475319 0
0.0658122 0.0566567 0
0.163241 0.141817 0.0367285
0.30901 0.274266 0.127657
0.452689 0.409918 0.243534
0.570367 0.526619 0.355306
0.666789 0.623713 0.453849
0.738888 0.696666 0.535393
0 0 0
0.0125277 0.0149844 0.0155947
0.0572213 0.0602426 0.0614633
0.155612 0.154635 0.153414
0.300099 0.289021 0.274632
0.441489 0.421134 0.392676
0.558587 0.533623 0.49398
0.655207 0.627832 0.579278
0.728588 0.699306 0.645487
0 0 0.0619211
0.0071107 0.0129397 0.0780041
0.0508278 0.0583505 0.151553
0.146151 0.151614 0.261677
0.286671 0.282399 0.388296
0.427466 0.414847 0.504997
0.544961 0.526665 0.597681
0.642939 0.621363 0.671229
0.717937 0.693782 0.72723
0.0102998 0 0.222812
0.00392157 0.00624094 0.143999
0.0456703 0.0502937 0.227283
0.136614 0.1402 0.344808
0.272862 0.266407 0.472541
0.414008 0.400946 0.586954
0.531334 0.512291 0.672801
0.630701 0.608804 0.740658
0.708003 0.684703 0.791409
0.189136 0 0.951217
0 0 0.190097
0.0415503 0.0403296 0.285496
0.128176 0.126009 0.405554
0.260212 0.246784 0.532219
0.400626 0.382101 0.646677
0.518669 0.495079 0.730251
0.618662 0.59292 0.794827
0.697627 0.671733 0.84213
0.18378 0 1
0 0 0.241199
0.0382849 0.0314336 0.329015
0.120775 0.11107 0.450019
0.248829 0.226932 0.577371
0.387625 0.36112 0.692393
0.507271 0.477256 0.776226
0.607569 0.575967 0.837919
0.687572 0.656916 0.883146
0.0854963 0.0253452 0
0.159823 0.0618143 0
0.305287 0.14197 0
0.493172 0.256123 0
0.679088 0.385672 0
0.841779 0.501656 0
0.978454 0.604776 0
1 0.689738 0
0.908354 0.61268 0.0455482
0.0899519 0.0209506 0
0.157 0.0541085 0
0.295781 0.127169 0
0.479423 0.235538 0
0.665721 0.364538 0
0.831525 0.48307 0
0.755016 0.472801 0.0380255
0.773495 0.514748 0.0650797
0.827146 0.610452 0.19675
0.0977035 0.0146944 0
0.155489 0.0478218 0
0.286351 0.112932 0
0.465705 0.215564 0
0.48835 0.255421 0.0205997
0.577676 0.340475 0.0531472
0.683848 0.465583 0.175982
0.767376 0.574685 0.29044
0.826413 0.657847 0.392172
0.121111 0.0061799 0
0.153964 0.0416114 0
0.178531 0.0514229 0
0.299626 0.126833 0.0418708
0.442802 0.25005 0.135851
0.575326 0.383124 0.251148
0.679713 0.498726 0.362127
0.76083 0.598962 0.459739
0.81857 0.674678 0.539803
0.449958 0 0.328099
0.0793927 0.00958267 0.0238499
0.162432 0.0489357 0.0750744
0.295293 0.137621 0.172015
0.433753 0.259846 0.288167
0.564691 0.392172 0.404013
0.666941 0.5028 0.502144
0.74789 0.599908 0.585702
0.807858 0.675822 0.650629
0.41268 0 0.583108
0.0711681 0.00376898 0.0974136
0.153689 0.0446021 0.174762
0.283345 0.132357 0.287388
0.41767 0.250416 0.404639
0.547295 0.381506 0.516701
0.651942 0.493874 0.606607
0.733471 0.590066 0.677287
0.795254 0.667063 0.731884
0.39147 0 0.797589
0.0611429 0 0.167956
0.141894 0.0349279 0.254337
0.267582 0.118288 0.373037
0.399237 0.232425 0.489708
0.529244 0.363317 0.597345
0.636606 0.478187 0.682277
0.71931 0.575189 0.746319
0.78294 0.654383 0.794827
0.381964 0 0.971588
0.0655528 0 0.247135
0.128328 0.0235752 0.311269
0.251682 0.101549 0.433478
0.381598 0.211658 0.549416
0.511879 0.341863 0.656046
0.621195 0.45919 0.739025
0.706127 0.558618 0.800687
0.771389 0.640131 0.845228
0.372763 0 1
0.0736553 0 0.326452
0.113008 0.0107118 0.345663
0.237064 0.084947 0.476738
0.365499 0.19147 0.594141
0.494499 0.318517 0.700053
0.606683 0.439307 0.783612
0.692851 0.539849 0.842832
0.760494 0.624857 0.886275
0.213626 0.0118715 0
0.298878 0.0530404 0
0.440635 0.119936 0
0.607431 0.218982 0
0.782467 0.342916 0
0.934218 0.461753 0
1 0.56434 0
1 0.653407 0
0.954162 0.582345 0.0447547
0.319371 0 0
0.293141 0.0452583 0
0.425803 0.104189 0
0.590417 0.199207 0
0.76379 0.319326 0
0.920958 0.441749 0
0.820768 0.435248 0.037644
0.830945 0.482734 0.064683
0.882963 0.584192 0.195956
0.933944 0 0.00390631
0.286275 0.0361791 0
0.411444 0.0894789 0
0.573404 0.180209 0
0.567285 0.212924 0.0203555
0.649348 0.301518 0.0525521
0.745724 0.42501 0.173678
0.824018 0.536934 0.287556
0.881407 0.627558 0.390433
0.933944 0 0.00390631
0.28423 0.0297398 0
0.274876 0.0350958 0.00103761
0.377569 0.0936751 0.0398413
0.515343 0.202441 0.131502
0.644297 0.335348 0.246113
0.741863 0.454093 0.357443
0.815579 0.556237 0.454414
0.871595 0.64007 0.536522
0.662943 0 0.320272
0.155962 0 0.0269169
0.245792 0.0278019 0.0762036
0.371649 0.0994278 0.167239
0.505516 0.208087 0.279576
0.631098 0.338827 0.395102
0.728405 0.455787 0.49572
0.80235 0.55552 0.579355
0.859602 0.638437 0.64625
0.615778 0 0.597208
0.161456 0 0.120104
0.229099 0.0205692 0.171695
0.354925 0.0904707 0.277577
0.487175 0.197024 0.392538
0.61146 0.325582 0.504799
0.711269 0.444343 0.59794
0.787427 0.544656 0.670237
0.846647 0.628901 0.727245
0.61416 0 0.848875
0.197269 0 0.259617
0.199069 0.00428778 0.236179
0.333333 0.0746319 0.357885
0.466224 0.179324 0.474937
0.589975 0.304845 0.582071
0.693797 0.427008 0.671687
0.771237 0.527749 0.737606
0.834058 0.615976 0.790204
0.612482 0 1
0.760479 0 1
0.197253 0.000259403 0.307942
0.31107 0.0575723 0.412772
0.445762 0.159686 0.532448
0.568933 0.281621 0.637675
0.676738 0.407156 0.727291
0.75584 0.509148 0.790143
0.820035 0.598581 0.838666
0.611627 0 1
0.764477 0 1
0.199893 0 0.370642
0.288777 0.0413214 0.449165
0.426368 0.140444 0.574762
0.549416 0.258778 0.68014
0.658595 0.384344 0.768719
0.741314 0.489769 0.831388
0.806867 0.580591 0.877852
1 0 0.00474556
0.392096 0.0311894 0
0.513069 0.0842298 0
0.668177 0.173236 0
0.827405 0.285542 0
0.977829 0.407797 0
1 0.51313 0
1 0.608835 0
0.981552 0.545754 0.0429999
1 0 0.00474556
0.385473 0.0232547 0
0.498466 0.0717479 0
0.648814 0.15494 0
0.806256 0.262425 0
0.959915 0.385382 0
0.857282 0.389349 0.0355993
0.866224 0.442451 0.0628367
0.921828 0.550698 0.193637
1 0 0.00474556
0.375006 0.012253 0
0.48748 0.0618448 0
0.629709 0.137377 0
0.601709 0.164172 0.0173037
0.680079 0.251759 0.0512856
0.781643 0.378332 0.168811
0.86154 0.493675 0.282277
0.920317 0.590982 0.386053
1 0 0.00474556
0.386374 0.00335698 0
0.332753 0.0169985 0.00172427
0.414099 0.0577249 0.0353399
0.546944 0.151812 0.12224
0.673716 0.277241 0.233677
0.776547 0.402228 0.34696
0.852277 0.509682 0.446036
0.910719 0.602228 0.531121
0.856382 0 0.321202
0.940291 0 0.498573
0.275334 0 0.0648356
0.402731 0.0569314 0.151568
0.535592 0.153735 0.261677
0.658061 0.275853 0.375494
0.762112 0.401297 0.481605
0.837674 0.506264 0.568383
0.897505 0.598276 0.639445
0.830289 0 0.627237
0.910018 0 0.797284
0.278141 0 0.165652
0.378653 0.0450599 0.250294
0.515343 0.142061 0.368414
0.636347 0.260502 0.479866
0.742672 0.387045 0.580209
0.820981 0.493278 0.656962
0.882338 0.585611 0.718456
0.833722 0 0.897475
0.890822 0 1
0.282445 0 0.259571
0.346517 0.0284733 0.317327
0.492103 0.124865 0.445762
0.613336 0.240009 0.553567
0.721538 0.36643 0.64979
0.803952 0.47567 0.72314
0.867399 0.569635 0.779278
0.833707 0 1
0.882155 0 1
0.287999 0 0.343801
0.315938 0.0135958 0.361074
0.468223 0.105928 0.49839
0.590478 0.217563 0.606226
0.701106 0.344045 0.701595
0.786954 0.456077 0.773922
0.85301 0.552163 0.827375
0.838697 0 1
0.882155 0 1
0.295033 0 0.419593
0.29836 0.00450141 0.399817
0.445289 0.087541 0.536263
0.569497 0.196231 0.646433
0.681086 0.320867 0.740871
0.770443 0.435615 0.813214
0.838849 0.533471 0.865736
1 0 0.00474556
0.463401 0.00717174 0
0.554559 0.05449 0
0.688014 0.126955 0
0.837186 0.226383 0
0.989456 0.347143 0
1 0.460197 0
1 0.56202 0
1 0.50898 0.0413519
1 0 0.00474556
0.524468 0 0
0.539635 0.0440375 0
0.666529 0.109728 0
0.815778 0.205859 0
0.967834 0.323491 0
0.875914 0.341375 0.0329442
0.888457 0.400519 0.0606088
0.95111 0.516304 0.191165
1 0 0.00474556
1 0 0.00474556
0.511513 0.0285649 0
0.644755 0.0930343 0
0.608225 0.118364 0.0141909
0.684001 0.197971 0.0476997
0.801266 0.330068 0.162692
0.885039 0.4477 0.275364
0.947799 0.551461 0.380285
1 0 0.00474556
1 0 0.00474556
0.35053 0 0
0.412863 0.0242466 0.0284123
0.551339 0.104829 0.110521
0.678294 0.217136 0.217411
0.793011 0.346975 0.333303
0.875471 0.460899 0.435599
0.936355 0.558862 0.522683
0.962554 0 0.329
0.940093 0 0.500374
0.34316 0 0.0777752
0.393454 0.0196689 0.127779
0.537408 0.102998 0.238773
0.661631 0.213031 0.351202
0.775113 0.341131 0.461723
0.859861 0.455436 0.555169
0.921874 0.552605 0.629038
0.924559 0 0.643671
0.909194 0 0.8065
0.352636 0 0.190951
0.357351 0.00584421 0.208423
0.513573 0.0897231 0.336217
0.638865 0.197375 0.449836
0.754055 0.3252 0.556268
0.841276 0.44065 0.64094
0.906355 0.539406 0.707088
0.899687 0 0.918227
0.889784 0 1
0.376471 0 0.311498
0.35436 0.00268559 0.289937
0.485725 0.0722515 0.405158
0.614923 0.178286 0.519402
0.729809 0.302541 0.621454
0.822309 0.421744 0.704631
0.889815 0.521889 0.766186
0.88394 0 1
0.882155 0 1
0.882155 0 1
0.358602 0.00129702 0.361761
0.45626 0.0538338 0.449683
0.590982 0.157809 0.568872
0.706554 0.278889 0.669474
0.804379 0.401801 0.753979
0.873838 0.503044 0.812589
0.882155 0 1
0.882155 0 1
0.882155 0 1
0.362432 0 0.42208
0.420966 0.0338293 0.473686
0.569223 0.138827 0.606729
0.684871 0.255879 0.706233
0.785428 0.379583 0.790692
0.858488 0.483558 0.849699
