filmlog/LutKodakWarm.cube
TITLE "Generated by Resolve"
LUT_3D_SIZE 33
0 0.324819 0
0 0.34406 0
0 0.363836 0
0 0.38352 0
0 0.402853 0
0 0.42179 0
0 0.439109 0
0 0.455482 0
0 0.471489 0
0 0.486748 0
0 0.501732 0
0 0.516091 0
0 0.530251 0
0 0.543999 0
0 0.556664 0
0 0.569192 0
0 0.581308 0
0 0.592157 0
0 0.602396 0
0 0.612345 0
0 0.621927 0
0 0.629786 0
0 0.637537 0
0 0.645029 0
0 0.331273 0
0.00444038 0.314641 0
0.0130617 0.323445 0
0.0197604 0.335348 0
0.0257725 0.350332 0
0.00497444 0.264668 0
0.00883497 0.280797 0
0.0125582 0.29514 0
0.023621 0.316289 0
0 0.321157 0
0 0.340536 0
0 0.360098 0
0 0.379812 0
0 0.399176 0
0 0.418189 0
0 0.435996 0
0 0.452445 0
0 0.468513 0
0 0.483955 0
0 0.498939 0
0 0.513436 0
0 0.527565 0
0 0.541421 0
0 0.55433 0
0 0.566857 0
0 0.579095 0
0 0.590219 0
0 0.600458 0
0 0.610498 0
0 0.62034 0
0 0.628336 0
0 0.636088 0
0 0.643671 0
0 0.330404 0
0.00448615 0.313832 0
0.0131228 0.322637 0
0 0.237827 0
0 0.251804 0
0.00389105 0.264897 0
0.00784314 0.278233 0
0.0115206 0.294759 0
0.0186007 0.319112 0.00433356
0 0.317418 0
0 0.336934 0
0 0.356359 0
0 0.376135 0
0 0.395636 0
0 0.41471 0
0 0.432776 0
0 0.449424 0
0 0.465629 0
0 0.481071 0
0 0.496147 0
0 0.510765 0
0 0.525017 0
0 0.538857 0
0 0.55201 0
0 0.564538 0
0 0.576761 0
0 0.588266 0
0 0.598596 0
0 0.608637 0
0 0.618479 0
0 0.626825 0
0 0.634653 0
0 0.642237 0
0 0.329473 0
0 0.220859 0
0 0.227955 0
0 0.238041 0
0 0.251316 0
0.00355535 0.2701 0
0.0081178 0.291646 0.00563058
0.0124819 0.31371 0.0149233
0.0165255 0.335134 0.0245975
0 0.314015 0
0 0.333333 0
0 0.352529 0
0 0.372457 0
0 0.391974 0
0 0.411124 0
0 0.429664 0
0 0.446296 0
0 0.462608 0
0 0.478187 0
0 0.493355 0
0 0.50811 0
0 0.522347 0
0 0.536294 0
0 0.549569 0
0 0.562203 0
0 0.574533 0
0 0.586313 0
0 0.596643 0
0 0.60679 0
0 0.616632 0
0 0.625376 0
0 0.633143 0
0 0.507759 0.00564584
0 0.231876 0
0 0.219013 0
0 0.230442 0
0 0.248432 0
0 0.267292 0.00668345
0.00445563 0.287465 0.0149844
0.00900282 0.308965 0.0245975
0.0133364 0.330724 0.0353857
0.0180514 0.35201 0.0475013
0 0.310567 0
0 0.329641 0
0 0.348791 0
0 0.368795 0
0 0.388327 0
0 0.40766 0
0 0.426429 0
0 0.443275 0
0 0.459556 0
0 0.475303 0
0 0.490562 0
0 0.505348 0
0 0.519677 0
0 0.533623 0
0 0.54725 0
0 0.559869 0
0 0.572198 0
0 0.584329 0
0 0.594705 0
0 0.604944 0
0 0.614786 0
0 0.496834 0.000381476
0 0.497154 0.0249485
0 0.507866 0.041001
0 0.240192 0
0 0.233204 0.00114443
0 0.246723 0.00775158
0 0.263416 0.0150301
0.000579843 0.282673 0.0240177
0.0052491 0.303029 0.0343023
0.00982681 0.324788 0.0465858
0.0141604 0.346441 0.06009
0.0188296 0.367086 0.0737926
0 0.307057 0
0 0.32607 0
0 0.345251 0
0 0.365026 0
0 0.384726 0
0 0.404089 0
0 0.422919 0
0 0.440146 0
0 0.456535 0
0 0.472419 0
0 0.487678 0
0 0.502678 0
0 0.517021 0
0 0.53106 0
0 0.544823 0
0 0.557549 0
0 0.56997 0
0 0.582101 0
0 0.592844 0
0 0.48484 0
0 0.480522 0.0236362
0 0.491722 0.0389868
0 0.509987 0.0613565
0 0.528389 0.0832685
0 0.253605 0.0146487
0 0.246342 0.0166629
0 0.260792 0.024033
0 0.277821 0.0334173
0.00137331 0.297292 0.0449378
0.00605783 0.317891 0.0580911
0.0105898 0.339162 0.0722057
0.0148318 0.360006 0.0867628
0.01944 0.379599 0.10103
0 0.303548 0
0 0.322408 0
0 0.341726 0
0 0.361379 0
0 0.381018 0
0 0.400412 0
0 0.41944 0
0 0.437034 0
0 0.453498 0
0 0.469535 0
0 0.484886 0
0 0.499886 0
0 0.514366 0
0 0.528511 0
0 0.542245 0
0 0.555108 0
0 0.567651 0
0 0.491096 0
0 0.460578 0.0219577
0 0.472953 0.0382696
0 0.492607 0.0605325
0 0.511223 0.0804303
0 0.529564 0.101854
0 0.547555 0.122118
0 0.267048 0.0319066
0 0.259937 0.0347143
0 0.274586 0.0439765
0 0.291463 0.0560769
0.00210575 0.310719 0.0695811
0.00669871 0.330388 0.0837873
0.0111849 0.351232 0.0989242
0.0153353 0.370993 0.113848
0.0198825 0.3897 0.128206
0 0.300053 0
0 0.318669 0
0 0.338109 0
0 0.357534 0
0 0.377447 0
0 0.396857 0
0 0.415961 0
0 0.433814 0
0 0.450477 0
0 0.46656 0
0 0.482002 0
0 0.497078 0
0 0.511696 0
0 0.525841 0
0 0.539681 0
0 0.552789 0
0 0.437568 0.0198672
0 0.453407 0.0386358
0 0.472862 0.0600595
0 0.491096 0.0793927
0 0.510781 0.100679
0 0.530251 0.120974
0 0.54905 0.142702
0 0.567697 0.166003
0 0.280079 0.0537423
0 0.272435 0.0566873
0 0.287297 0.0677653
0 0.303441 0.081178
0.00270085 0.322164 0.095613
0.00720226 0.340902 0.110277
0.0115816 0.360586 0.125505
0.0157015 0.380011 0.140871
0.0202335 0.398184 0.155444
0 0.296483 0
0 0.315175 0
0 0.334508 0
0 0.353811 0
0 0.373754 0
0 0.393194 0
0 0.41236 0
0 0.430716 0
0 0.447333 0
0 0.463661 0
0 0.479225 0
0 0.494285 0
0 0.509041 0
0 0.523278 0
0 0.412848 0.0167544
0 0.429786 0.037583
0 0.450019 0.0594797
0 0.469322 0.0784924
0 0.489769 0.0994888
0 0.509285 0.119692
0 0.529091 0.141085
0 0.549523 0.164401
0 0.568719 0.188907
0 0.587121 0.214069
0 0.29308 0.0795453
0 0.284108 0.0813458
0 0.297871 0.0928817
0 0.314 0.107317
0.00309758 0.330983 0.121523
0.00758373 0.349554 0.136706
0.011902 0.368566 0.152163
0.0160067 0.387747 0.167727
0.0204929 0.405264 0.181857
0 0.292927 0
0 0.311727 0
0 0.330907 0
0 0.349981 0
0 0.370092 0
0 0.389548 0
0 0.408774 0
0 0.427497 0
0 0.444327 0
0 0.460624 0
0 0.476341 0
0 0.491508 0
0 0.388159 0.0138552
0 0.403708 0.0363928
0 0.425208 0.0590066
0 0.444877 0.0776837
0 0.465476 0.0983902
0 0.486076 0.118349
0 0.507149 0.139528
0 0.527123 0.162142
0 0.54789 0.186984
0 0.568231 0.212406
0 0.586908 0.237446
0 0.604395 0.262303
0 0.303929 0.10634
0 0.293385 0.106371
0 0.306493 0.118318
0 0.321691 0.13283
0.00341802 0.338567 0.147646
0.00787366 0.356786 0.163149
0.0121767 0.375616 0.178454
0.0162051 0.393881 0.193484
0.020676 0.410941 0.206821
0 0.289387 0
0 0.308202 0
0 0.32723 0
0 0.346426 0
0 0.366323 0
0 0.385916 0
0 0.405203 0
0 0.42417 0
0 0.441199 0
0 0.457588 0
0 0.362341 0.0105135
0 0.376837 0.0365148
0 0.398627 0.0590677
0 0.417792 0.0766461
0 0.439185 0.0972915
0 0.460334 0.117052
0 0.481453 0.137697
0 0.502708 0.159991
0 0.524727 0.184863
0 0.545769 0.210452
0 0.565759 0.235813
0 0.584421 0.260349
0 0.602335 0.284779
0 0.618799 0.308614
0 0.312184 0.132799
0 0.301335 0.13193
0 0.313649 0.143832
0 0.32871 0.15877
0.00363165 0.344686 0.172946
0.00802625 0.362188 0.188006
0.0123445 0.381064 0.203265
0.0163272 0.398825 0.217426
0.0207675 0.415457 0.23035
0 0.285817 0
0 0.304768 0
0 0.323659 0
0 0.342901 0
0 0.36257 0
0 0.38233 0
0 0.401648 0
0 0.420569 0
0 0.335378 0.00715648
0 0.347311 0.0370184
0 0.369223 0.0586404
0 0.38854 0.0755932
0 0.410513 0.0961624
0 0.432044 0.115602
0 0.453666 0.135821
0 0.476036 0.15816
0 0.498054 0.182437
0 0.520012 0.207782
0 0.542245 0.233921
0 0.562142 0.258793
0 0.580301 0.282994
0 0.598306 0.307088
0 0.614954 0.329992
0 0.629496 0.351949
0 0.319081 0.159289
0 0.307668 0.157015
0 0.319966 0.169131
0 0.333394 0.182925
0.00376898 0.349508 0.197009
0.00814832 0.366781 0.211627
0.0124208 0.385138 0.226368
0.0163729 0.402655 0.240269
0.020798 0.418906 0.252659
0 0.282277 0
0 0.301274 0
0 0.319921 0
0 0.339376 0
0 0.358816 0
0 0.378637 0
0 0.30634 0
0 0.312978 0.0360876
0 0.335378 0.057908
0 0.356313 0.0749065
0 0.379248 0.0948348
0 0.401251 0.113909
0 0.423606 0.133944
0 0.446235 0.155871
0 0.468956 0.179751
0 0.491753 0.204929
0 0.513726 0.230533
0 0.535515 0.256168
0 0.556146 0.281102
0 0.574975 0.30518
0 0.592279 0.328344
0 0.609018 0.350942
0 0.625452 0.373327
0 0.639628 0.394705
0 0.325139 0.185367
0 0.312047 0.180499
0 0.325032 0.193301
0 0.33785 0.205997
0.00386053 0.353445 0.219791
0.00820935 0.370459 0.234165
0.0123903 0.387717 0.24802
0.0163729 0.405524 0.261997
0.020798 0.421668 0.273945
0 0.278752 0
0 0.297704 0
0 0.316335 0
0 0.335775 0
0 0.29987 0
0 0.275822 0.0344549
0 0.297673 0.0567636
0 0.319341 0.0737163
0 0.34226 0.09131
0 0.366445 0.111757
0 0.390448 0.131655
0 0.413947 0.153384
0 0.437293 0.176852
0 0.460792 0.201907
0 0.483696 0.227497
0 0.506279 0.253223
0 0.527703 0.278309
0 0.547601 0.302327
0 0.567117 0.326238
0 0.585657 0.349477
0 0.601999 0.371572
0 0.618418 0.393606
0 0.633707 0.414527
0 0.646677 0.433875
0 0.329854 0.210132
0 0.316121 0.203525
0 0.327825 0.215061
0 0.34136 0.228092
0.00389105 0.356451 0.241459
0.00822461 0.373297 0.255543
0.0123751 0.390295 0.269062
0.0163272 0.407538 0.2822
0.0207523 0.42385 0.294255
0 0.275166 0
0 0.294133 0
0 0.312886 0
0 0.239048 0.0320134
0 0.258625 0.0549935
0 0.279637 0.0721904
0 0.301946 0.089128
0 0.326863 0.108949
0 0.352209 0.128725
0 0.376959 0.14995
0 0.402777 0.173602
0 0.426581 0.198077
0 0.45098 0.224125
0 0.475074 0.25034
0 0.497108 0.27541
0 0.517769 0.29926
0 0.538048 0.32314
0 0.557519 0.346777
0 0.57612 0.369528
0 0.594003 0.39173
0 0.609964 0.412924
0 0.625025 0.433127
0 0.639139 0.452201
0 0.651972 0.469871
0 0.332876 0.232883
0 0.31928 0.22533
0 0.33022 0.236042
0 0.343587 0.249058
0.00389105 0.358862 0.262181
0.00817884 0.375128 0.275639
0.0124056 0.392874 0.289509
0.0162661 0.409247 0.301579
0.0206912 0.425406 0.312886
0 0.271504 0
0 0.204623 0.0292668
0 0.221851 0.0534218
0 0.240833 0.0708324
0 0.261387 0.0870985
0 0.284993 0.105959
0 0.308873 0.124498
0 0.334859 0.145373
0 0.361639 0.168582
0 0.387915 0.193515
0 0.413886 0.219409
0 0.438636 0.245167
0 0.462837 0.271122
0 0.485924 0.296254
0 0.506249 0.319585
0 0.526452 0.343175
0 0.546822 0.366857
0 0.565225 0.389105
0 0.583185 0.410727
0 0.60087 0.431952
0 0.616175 0.45185
0 0.63003 0.46949
0 0.643595 0.486854
0 0.656214 0.503548
0 0.335271 0.254597
0 0.321324 0.245548
0 0.332296 0.256321
0 0.345037 0.268421
0.00384527 0.360632 0.281849
0.0081178 0.376699 0.294957
0.0123293 0.394247 0.30808
0.0161898 0.410391 0.319646
0.0206149 0.426719 0.330846
0 0.185672 0.0517433
0 0.203876 0.0698558
0 0.22266 0.0852064
0 0.244083 0.103273
0 0.266758 0.121248
0 0.290761 0.140642
0 0.31664 0.162676
0 0.343603 0.18732
0 0.371328 0.213519
0 0.397879 0.239536
0 0.42356 0.26508
0 0.448676 0.290974
0 0.471611 0.315724
0 0.492378 0.338628
0 0.513085 0.362036
0 0.533852 0.385611
0 0.553231 0.407889
0 0.570779 0.428428
0 0.58851 0.449226
0 0.605707 0.468818
0 0.620478 0.486503
0 0.634104 0.503471
0 0.64715 0.519844
0 0.659815 0.535653
0 0.337331 0.275624
0 0.322728 0.265003
0 0.334081 0.275807
0 0.346258 0.287144
0.00378424 0.361913 0.30013
0.00805676 0.377935 0.312718
0.0122377 0.395132 0.325704
0.0161135 0.411414 0.336904
0.0205081 0.427405 0.347051
0 0.184878 0.0838636
0 0.205066 0.101167
0 0.226337 0.118303
0 0.248783 0.136965
0 0.271794 0.157076
0 0.297627 0.180896
0 0.324163 0.205875
0 0.351568 0.231998
0 0.379934 0.258808
0 0.405798 0.283986
0 0.431601 0.309728
0 0.456214 0.334707
0 0.477241 0.357351
0 0.499046 0.380743
0 0.52047 0.404166
0 0.538888 0.425055
0 0.557015 0.445136
0 0.574807 0.464912
0 0.592279 0.484199
0 0.609125 0.502617
0 0.623758 0.519753
0 0.636973 0.535805
0 0.649821 0.551064
0 0.66212 0.565469
0 0.338796 0.295598
0 0.323827 0.283787
0 0.334981 0.293767
0 0.347265 0.304738
0.00370794 0.362905 0.31751
0.00796521 0.378729 0.329534
0.0121157 0.395529 0.341558
0.016022 0.412253 0.352926
0.0203861 0.427955 0.362676
0 0.186542 0.115923
0 0.207401 0.132937
0 0.23006 0.153155
0 0.252857 0.174975
0 0.278065 0.198993
0 0.303792 0.223896
0 0.330571 0.249622
0 0.35758 0.27538
0 0.384207 0.300435
0 0.41088 0.32607
0 0.436423 0.351293
0 0.460609 0.375097
0 0.482399 0.397955
0 0.504036 0.420859
0 0.523934 0.442329
0 0.541894 0.461311
0 0.560204 0.480446
0 0.578363 0.499687
0 0.594507 0.516976
0 0.610941 0.534615
0 0.626123 0.551415
0 0.638712 0.565637
0 0.651102 0.579644
0 0.663462 0.593606
0 0.340047 0.314611
0 0.324605 0.300694
0 0.335424 0.310658
0 0.348013 0.321614
0.00358587 0.363195 0.333196
0.00781262 0.378653 0.344564
0.0119936 0.395712 0.356634
0.0159457 0.412833 0.3682
0.0202487 0.427939 0.376883
0 0.187243 0.148074
0 0.209628 0.16936
0 0.2327 0.19205
0 0.257893 0.216709
0 0.282353 0.240742
0 0.307515 0.265538
0 0.334264 0.290974
0 0.361074 0.316136
0 0.388174 0.341527
0 0.414679 0.366781
0 0.439338 0.390463
0 0.463554 0.413642
0 0.485954 0.436393
0 0.50631 0.457237
0 0.524788 0.475731
0 0.543206 0.494285
0 0.561746 0.512917
0 0.578882 0.530327
0 0.595346 0.547478
0 0.611704 0.564248
0 0.626886 0.579721
0 0.639536 0.593439
0 0.651987 0.606607
0 0.664637 0.619715
0 0.3411 0.332631
0 0.325139 0.317006
0 0.335256 0.325856
0 0.348241 0.336736
0.00344854 0.363195 0.347982
0.00767529 0.378485 0.35906
0.011841 0.395377 0.370611
0.0157931 0.412573 0.381796
0.0200961 0.427665 0.390356
0 0.188067 0.185214
0 0.211749 0.208621
0 0.235782 0.232563
0 0.259922 0.256367
0 0.28481 0.28101
0 0.308721 0.304494
0 0.335164 0.329046
0 0.363409 0.355398
0 0.390356 0.380514
0 0.415976 0.404059
0 0.440314 0.426703
0 0.46569 0.450126
0 0.486976 0.470314
0 0.506081 0.488777
0 0.52546 0.507256
0 0.544366 0.525689
0 0.562188 0.543008
0 0.579339 0.559976
0 0.596033 0.576638
0 0.6121 0.592248
0 0.626947 0.606241
0 0.639582 0.618967
0 0.652354 0.631815
0 0.665293 0.644617
0 0.341329 0.348989
0 0.325124 0.332097
0 0.334859 0.340124
0 0.348272 0.351308
0.00331121 0.362905 0.361761
0.00753796 0.378195 0.372595
0.0116579 0.394629 0.383719
0.0156558 0.412207 0.394995
0.0199435 0.427268 0.403189
0 0.187579 0.222431
0 0.212345 0.246525
0 0.234867 0.268956
0 0.259876 0.293751
0 0.284016 0.317128
0 0.308492 0.340948
0 0.336538 0.367178
0 0.363302 0.391562
0 0.388571 0.414115
0 0.414557 0.437232
0 0.441062 0.460578
0 0.465705 0.482475
0 0.48687 0.501717
0 0.506706 0.520088
0 0.527169 0.538872
0 0.544686 0.555367
0 0.562112 0.572015
0 0.580179 0.589349
0 0.596078 0.603876
0 0.611093 0.617182
0 0.625818 0.630549
0 0.639155 0.643214
0 0.651637 0.654429
0 0.66389 0.665431
0 0.340795 0.363821
0 0.325078 0.346853
0 0.334218 0.353719
0 0.347417 0.364279
0.00315862 0.362387 0.37467
0.00740063 0.377935 0.385809
0.01149 0.393973 0.396429
0.0154726 0.411353 0.407126
0.0197757 0.426642 0.415274
0 0.187732 0.260197
0 0.210834 0.283116
0 0.23505 0.306508
0 0.259205 0.329839
0 0.282658 0.352743
0 0.30898 0.377584
0 0.335515 0.401358
0 0.360388 0.423148
0 0.387869 0.447044
0 0.416007 0.471015
0 0.440864 0.492226
0 0.463523 0.511833
0 0.486061 0.531685
0 0.506157 0.549462
0 0.525353 0.566354
0 0.543359 0.582727
0 0.56141 0.5991
0 0.578866 0.614038
0 0.594644 0.627436
0 0.609689 0.640604
0 0.624369 0.652873
0 0.637827 0.664149
0 0.650294 0.674907
0 0.662486 0.685542
0 0.340261 0.377905
0 0.324392 0.35967
0 0.33341 0.366583
0 0.346532 0.376944
0.00299077 0.36173 0.387091
0.00723278 0.377172 0.397742
0.0113832 0.393698 0.408682
0.0152895 0.410361 0.418814
0.0196231 0.426032 0.427115
0 0.185107 0.295445
0 0.208728 0.318532
0 0.234241 0.342519
0 0.258289 0.365225
0 0.281483 0.386954
0 0.308446 0.411383
0 0.335409 0.434836
0 0.361425 0.45716
0 0.387701 0.479316
0 0.41236 0.499077
0 0.436316 0.518853
0 0.460533 0.539345
0 0.48452 0.559396
0 0.504234 0.576226
0 0.523033 0.592172
0 0.541436 0.607584
0 0.559304 0.622446
0 0.576883 0.636774
0 0.592615 0.64947
0 0.607477 0.661387
0 0.62237 0.67303
0 0.636439 0.684215
0 0.648905 0.694514
0 0.661173 0.704417
0 0.33959 0.39118
0 0.323598 0.371984
0 0.332601 0.379049
0 0.345617 0.388891
0.00282292 0.360815 0.398764
0.00706493 0.376165 0.408911
0.0112764 0.393484 0.420676
0.0151369 0.409461 0.430152
0.0194553 0.425101 0.437995
0 0.183856 0.329854
0 0.208225 0.353429
0 0.233738 0.37705
0 0.258366 0.399588
0 0.281193 0.420432
0 0.3084 0.444205
0 0.335988 0.467567
0 0.35938 0.486686
0 0.383017 0.505333
0 0.408286 0.525429
0 0.434943 0.546944
0 0.459602 0.567147
0 0.482765 0.585916
0 0.50193 0.600931
0 0.520699 0.615946
0 0.539376 0.631052
0 0.557031 0.644678
0 0.573831 0.657343
0 0.589837 0.669627
0 0.605005 0.681147
0 0.620249 0.692439
0 0.634638 0.703227
0 0.647211 0.713008
0 0.659754 0.72256
0 0.338842 0.40412
0 0.322759 0.383764
0 0.331853 0.390524
0 0.344747 0.400366
0.00265507 0.359823 0.410147
0.00689708 0.375113 0.419776
0.0111391 0.392767 0.431632
0.0149691 0.408408 0.440513
0.0192874 0.424094 0.448386
0 0.182467 0.36054
0 0.207233 0.385306
0 0.233875 0.409918
0 0.259327 0.432837
0 0.282109 0.453605
0 0.306874 0.474189
0 0.333196 0.496071
0 0.356344 0.513985
0 0.381231 0.533349
0 0.40824 0.554589
0 0.435767 0.576196
0 0.458 0.592905
0 0.479805 0.609186
0 0.499641 0.624323
0 0.518608 0.638849
0 0.536828 0.652171
0 0.55407 0.664698
0 0.570764 0.677089
0 0.586923 0.688869
0 0.602457 0.699733
0 0.617685 0.710628
0 0.632654 0.721538
0 0.64538 0.730922
0 0.657389 0.73904
0 0.337057 0.415351
0 0.322225 0.395422
0 0.331228 0.401877
0 0.344106 0.411795
0.002533 0.358968 0.421103
0.00677501 0.374411 0.430533
0.0109865 0.391745 0.441779
0.0148165 0.407309 0.450568
0.0191348 0.423072 0.458488
0 0.177157 0.381857
0 0.205676 0.412589
0 0.234348 0.440574
0 0.258701 0.462516
0 0.279927 0.480797
0 0.304204 0.501091
0 0.330999 0.523644
0 0.355734 0.542779
0 0.381064 0.562234
0 0.407248 0.58146
0 0.433356 0.600488
0 0.455802 0.616693
0 0.477516 0.632242
0 0.498177 0.646769
0 0.516823 0.659983
0 0.534569 0.672389
0 0.551812 0.684565
0 0.568963 0.696361
0 0.584649 0.706981
0 0.600076 0.717586
0 0.615366 0.728313
0 0.629984 0.738231
0 0.642451 0.746258
0 0.654353 0.753902
0 0.335485 0.426535
0 0.321798 0.406973
0 0.330617 0.412909
0 0.343206 0.422065
0.00244144 0.358129 0.431601
0.00669871 0.373846 0.44123
0.0108644 0.390875 0.451881
0.0146639 0.406256 0.46038
0.018967 0.421912 0.467933
0 0.170672 0.397833
0 0.201831 0.433433
0 0.229618 0.462364
0 0.254994 0.486595
0 0.279011 0.507897
0 0.303639 0.529183
0 0.329625 0.550622
0 0.354543 0.56936
0 0.379278 0.586892
