filmlog/LutKodakWarm.cube
TITLE "Generated by Resolve"
LUT_3D_SIZE 5
0 0.324819 0
0 0.471489 0
0 0.581308 0
0 0.331273 0
0.023621 0.316289 0
0 0.296483 0
0 0.447333 0
0 0.450019 0.0594797
0 0.29308 0.0795453
0.0204929 0.405264 0.181857
0 0.185672 0.0517433
0 0.371328 0.213519
0 0.553231 0.407889
0 0.337331 0.275624
0.0205081 0.427405 0.347051
0 0.183856 0.329854
0 0.383017 0.505333
0 0.557031 0.644678
0 0.338842 0.40412
0.0192874 0.424094 0.448386
0.000564584 0.123476 0.441001
0 0.372519 0.691218
0 0.542367 0.78851
0 0.332555 0.491768
0.0185702 0.417075 0.52047
0 0.253315 0
0 0.407675 0
0.0315099 0.244495 0
0.331716 0.515541 0
0.51838 0.590951 0.0298924
0 0.225544 0
0 0.378775 0
0.00375372 0.154147 0
0.171618 0.411734 0.117647
0.458457 0.656458 0.346746
0 0.132753 0.0572976
0 0.292332 0.206683
0.00653086 0.210254 0.164935
0.129137 0.435752 0.35082
0.438178 0.676631 0.579477
0 0.110109 0.295842
0 0.294209 0.488014
0.00869764 0.217929 0.331579
0.107897 0.420233 0.488182
0.424674 0.668193 0.714794
0 0.0988632 0.463447
0.00196841 0.270451 0.630488
0.0198062 0.221729 0.43856
0.127962 0.440101 0.619043
0.476509 0.707546 0.853284
0.0116426 0.0382544 0
0.134966 0.139467 0
0.494865 0.392966 0
0.842374 0.624414 0
0.824155 0.627863 0.0437171
0.0170596 0.0301671 0
0.128786 0.115526 0
0.343069 0.269184 0.0152743
0.575433 0.490623 0.172396
0.747326 0.679133 0.389181
0 0 0
0.0572213 0.0602426 0.0614633
0.300099 0.289021 0.274632
0.558587 0.533623 0.49398
0.728588 0.699306 0.645487
0.0102998 0 0.222812
0.0456703 0.0502937 0.227283
0.272862 0.266407 0.472541
0.531334 0.512291 0.672801
0.708003 0.684703 0.791409
0.18378 0 1
0.0382849 0.0314336 0.329015
0.248829 0.226932 0.577371
0.507271 0.477256 0.776226
0.687572 0.656916 0.883146
0.213626 0.0118715 0
0.440635 0.119936 0
0.782467 0.342916 0
1 0.56434 0
0.954162 0.582345 0.0447547
0.933944 0 0.00390631
0.411444 0.0894789 0
0.567285 0.212924 0.0203555
0.745724 0.42501 0.173678
0.881407 0.627558 0.390433
0.662943 0 0.320272
0.245792 0.0278019 0.0762036
0.505516 0.208087 0.279576
0.728405 0.455787 0.49572
0.859602 0.638437 0.64625
0.61416 0 0.848875
0.199069 0.00428778 0.236179
0.466224 0.179324 0.474937
0.693797 0.427008 0.671687
0.834058 0.615976 0.790204
0.611627 0 1
0.199893 0 0.370642
0.426368 0.140444 0.574762
0.658595 0.384344 0.768719
0.806867 0.580591 0.877852
1 0 0.00474556
0.554559 0.05449 0
0.837186 0.226383 0
1 0.460197 0
1 0.50898 0.0413519
1 0 0.00474556
0.511513 0.0285649 0
0.608225 0.118364 0.0141909
0.801266 0.330068 0.162692
0.947799 0.551461 0.380285
0.962554 0 0.329
0.34316 0 0.0777752
0.537408 0.102998 0.238773
0.775113 0.341131 0.461723
0.921874 0.552605 0.629038
0.899687 0 0.918227
0.376471 0 0.311498
0.485725 0.0722515 0.405158
0.729809 0.302541 0.621454
0.889815 0.521889 0.766186
0.882155 0 1
0.882155 0 1
0.420966 0.0338293 0.473686
0.684871 0.255879 0.706233
0.858488 0.483558 0.849699
