filmlog/LutLookExposure.cube
TITLE "Generated by Resolve"
LUT_3D_SIZE 9
0.369528 0.810681 0.313863
0.263111 0.263111 0.263111
0.263111 0.263111 0.263111
1 0.902632 0.0801709
1 0.902632 0.0801709
1 0.902632 0.0801709
0.369528 0.810681 0.313863
0.263111 0.263111 0.263111
0.263111 0.263111 0.263111
0.369528 0.810681 0.313863
0.263111 0.263111 0.263111
0.263111 0.263111 0.263111
1 0.902632 0.0801709
1 0.902632 0.0801709
1 0.902632 0.0801709
0.369528 0.810681 0.313863
0.369528 0.810681 0.313863
0.263111 0.263111 0.263111
0.369528 0.810681 0.313863
0.263111 0.263111 0.263111
0.263111 0.263111 0.263111
1 0.902632 0.0801709
1 0.902632 0.0801709
1 0.902632 0.0801709
0.369528 0.810681 0.313863
0.263111 0.263111 0.263111
1 0.902632 0.0801709
0.369528 0.810681 0.313863
0.263111 0.263111 0.263111
0.263111 0.263111 0.263111
1 0.902632 0.0801709
1 0.902632 0.0801709
0.810681 0.263111 0.0801709
0.263111 0.263111 0.263111
0.263111 0.263111 0.263111
1 0.902632 0.0801709
0.176043 0.369528 0.0801709
0.369528 0.810681 0.313863
0.263111 0.263111 0.263111
1 0.902632 0.0801709
0.810681 0.263111 0.0801709
0.810681 0.263111 0.0801709
0.263111 0.263111 0.263111
0.263111 0.263111 0.263111
1 0.902632 0.0801709
0.176043 0.369528 0.0801709
0.263111 0.263111 0.263111
0.263111 0.263111 0.263111
1 0.902632 0.0801709
0.810681 0.263111 0.0801709
0.810681 0.263111 0.0801709
0.263111 0.263111 0.263111
0.263111 0.263111 0.263111
1 0.902632 0.0801709
0.176043 0.369528 0.0801709
0.263111 0.263111 0.263111
1 0.902632 0.0801709
1 0.902632 0.0801709
0.810681 0.263111 0.0801709
0.810681 0.263111 0.0801709
0.263111 0.263111 0.263111
1 0.902632 0.0801709
1 0.902632 0.0801709
0.176043 0.369528 0.0801709
0.263111 0.263111 0.263111
1 0.902632 0.0801709
1 0.902632 0.0801709
0.810681 0.263111 0.0801709
0.810681 0.263111 0.0801709
0.263111 0.263111 0.263111
1 0.902632 0.0801709
1 0.902632 0.0801709
0.176043 0.369528 0.0801709
0.369528 0.810681 0.313863
1 0.902632 0.0801709
1 0.902632 0.0801709
0.810681 0.263111 0.0801709
0.810681 0.263111 0.0801709
0.263111 0.263111 0.263111
1 0.902632 0.0801709
1 0.902632 0.0801709
0.369528 0.810681 0.313863
0.263111 0.263111 0.263111
0.263111 0.263111 0.263111
1 0.902632 0.0801709
1 0.902632 0.0801709
0.369528 0.810681 0.313863
0.263111 0.263111 0.263111
0.810681 0.263111 0.0801709
0.810681 0.263111 0.0801709
0.369528 0.810681 0.313863
0.263111 0.263111 0.263111
0.263111 0.263111 0.263111
1 0.902632 0.0801709
1 0.902632 0.0801709
0.369528 0.810681 0.313863
0.369528 0.810681 0.313863
1 0.902632 0.0801709
0.810681 0.263111 0.0801709
0.369528 0.810681 0.313863
0.369528 0.810681 0.313863
0.263111 0.263111 0.263111
1 0.902632 0.0801709
0.263111 0.263111 0.263111
0.369528 0.810681 0.313863
0.263111 0.263111 0.263111
1 0.902632 0.0801709
0.810681 0.369528 0.0801709
0.369528 0.810681 0.313863
0.369528 0.810681 0.313863
0.369528 0.810681 0.313863
0.263111 0.263111 0.263111
1 0.902632 0.0801709
0.369528 0.810681 0.313863
0.263111 0.263111 0.263111
1 0.902632 0.0801709
0.810681 0.369528 0.0801709
0.176043 0.369528 0.0801709
0.369528 0.810681 0.313863
0.263111 0.263111 0.263111
1 0.902632 0.0801709
1 0.902632 0.0801709
0.369528 0.810681 0.313863
0.263111 0.263111 0.263111
1 0.902632 0.0801709
0.810681 0.369528 0.0801709
0.176043 0.369528 0.0801709
0.369528 0.810681 0.313863
0.263111 0.263111 0.263111
1 0.902632 0.0801709
0.810681 0.263111 0.0801709
0.263111 0.263111 0.263111
0.263111 0.263111 0.263111
1 0.902632 0.0801709
0.810681 0.369528 0.0801709
0.176043 0.369528 0.0801709
0.369528 0.810681 0.313863
0.263111 0.263111 0.263111
1 0.902632 0.0801709
0.810681 0.263111 0.0801709
0.263111 0.263111 0.263111
1 0.902632 0.0801709
1 0.902632 0.0801709
0.810681 0.369528 0.0801709
0.176043 0.369528 0.0801709
0.369528 0.810681 0.313863
0.263111 0.263111 0.263111
1 0.902632 0.0801709
0.810681 0.263111 0.0801709
0.263111 0.263111 0.263111
1 0.902632 0.0801709
1 0.902632 0.0801709
0.810681 0.369528 0.0801709
0.176043 0.369528 0.0801709
0.176043 0.369528 0.0801709
0.263111 0.263111 0.263111
1 0.902632 0.0801709
0.810681 0.263111 0.0801709
0.263111 0.263111 0.263111
1 0.902632 0.0801709
1 0.902632 0.0801709
0.810681 0.369528 0.0801709
0.369528 0.810681 0.313863
0.369528 0.810681 0.313863
0.263111 0.263111 0.263111
0.176043 0.369528 0.0801709
0.369528 0.810681 0.313863
0.263111 0.263111 0.263111
0.810681 0.263111 0.0801709
0.810681 0.369528 0.0801709
0.810681 0.369528 0.0801709
0.369528 0.810681 0.313863
0.369528 0.810681 0.313863
0.263111 0.263111 0.263111
0.176043 0.369528 0.0801709
0.369528 0.810681 0.313863
0.263111 0.263111 0.263111
1 0.902632 0.0801709
0.810681 0.263111 0.0801709
0.810681 0.107637 0.0570535
0.176043 0.369528 0.0801709
0.369528 0.810681 0.313863
0.263111 0.263111 0.263111
0.176043 0.369528 0.0801709
0.176043 0.369528 0.0801709
0.369528 0.810681 0.313863
1 0.902632 0.0801709
0.810681 0.369528 0.0801709
0.810681 0.107637 0.0570535
0.176043 0.369528 0.0801709
0.369528 0.810681 0.313863
0.369528 0.810681 0.313863
0.176043 0.369528 0.902632
0.369528 0.810681 0.313863
0.263111 0.263111 0.263111
0.810681 0.263111 0.0801709
0.810681 0.369528 0.0801709
0.810681 0.107637 0.0570535
0.176043 0.369528 0.902632
0.176043 0.369528 0.0801709
0.263111 0.263111 0.263111
0.176043 0.369528 0.0801709
0.369528 0.810681 0.313863
0.263111 0.263111 0.263111
0.810681 0.263111 0.0801709
0.810681 0.369528 0.0801709
0.810681 0.107637 0.0570535
0.176043 0.369528 0.0801709
0.369528 0.810681 0.313863
0.263111 0.263111 0.263111
0.176043 0.369528 0.0801709
0.369528 0.810681 0.313863
0.263111 0.263111 0.263111
0.810681 0.263111 0.0801709
0.810681 0.369528 0.0801709
0.810681 0.107637 0.0570535
0.176043 0.369528 0.902632
0.369528 0.810681 0.313863
0.263111 0.263111 0.263111
0.176043 0.369528 0.0801709
0.369528 0.810681 0.313863
0.263111 0.263111 0.263111
1 0.902632 0.0801709
0.810681 0.369528 0.0801709
0.810681 0.107637 0.0570535
0.176043 0.369528 0.902632
0.176043 0.369528 0.0801709
0.263111 0.263111 0.263111
0.176043 0.369528 0.0801709
0.369528 0.810681 0.313863
0.263111 0.263111 0.263111
0.810681 0.263111 0.0801709
0.810681 0.107637 0.0570535
0.810681 0.107637 0.0570535
0.176043 0.369528 0.902632
0.176043 0.369528 0.0801709
0.263111 0.263111 0.263111
0.176043 0.369528 0.0801709
0.263111 0.263111 0.263111
1 0.902632 0.0801709
0.810681 0.263111 0.0801709
0.810681 0.107637 0.0570535
0.810681 0.139559 0.107637
0.176043 0.369528 0.0801709
0.369528 0.810681 0.313863
0.176043 0.369528 0.902632
0.369528 0.810681 0.313863
1 0.902632 0.0801709
0.810681 0.263111 0.0801709
0.810681 0.369528 0.0801709
0.810681 0.107637 0.0570535
0.810681 0.107637 0.0570535
0.176043 0.369528 0.0801709
0.369528 0.810681 0.313863
0.176043 0.369528 0.902632
0.369528 0.810681 0.313863
1 0.902632 0.0801709
0.810681 0.263111 0.0801709
0.810681 0.263111 0.0801709
0.810681 0.369528 0.0801709
0.810681 0.107637 0.0570535
0.176043 0.369528 0.0801709
0.369528 0.810681 0.313863
0.176043 0.369528 0.902632
0.176043 0.369528 0.0801709
0.263111 0.263111 0.263111
1 0.902632 0.0801709
0.810681 0.369528 0.0801709
0.810681 0.107637 0.0570535
0.810681 0.107637 0.0570535
0.176043 0.369528 0.0801709
0.369528 0.810681 0.313863
0.176043 0.0801709 0.369528
0.176043 0.369528 0.902632
0.263111 0.263111 0.263111
0.810681 0.263111 0.0801709
0.810681 0.369528 0.0801709
0.810681 0.107637 0.0570535
0.810681 0.139559 0.107637
0.176043 0.369528 0.902632
0.176043 0.369528 0.0801709
0.0570535 0.217197 0.495918
0.176043 0.369528 0.0801709
0.263111 0.263111 0.263111
0.810681 0.263111 0.0801709
0.810681 0.369528 0.0801709
0.810681 0.107637 0.0570535
0.810681 0.139559 0.107637
0.176043 0.369528 0.902632
0.176043 0.369528 0.0801709
0.0570535 0.217197 0.495918
0.176043 0.369528 0.0801709
0.263111 0.263111 0.263111
0.810681 0.263111 0.0801709
0.810681 0.369528 0.0801709
0.810681 0.107637 0.0570535
0.810681 0.139559 0.107637
0.176043 0.369528 0.902632
0.176043 0.369528 0.0801709
0.0570535 0.217197 0.495918
0.176043 0.369528 0.0801709
0.263111 0.263111 0.263111
0.810681 0.263111 0.0801709
0.810681 0.107637 0.0570535
0.810681 0.107637 0.0570535
0.810681 0.139559 0.107637
0.176043 0.369528 0.902632
0.176043 0.369528 0.0801709
0.176043 0.0801709 0.369528
0.176043 0.369528 0.0801709
0.263111 0.263111 0.263111
0.810681 0.263111 0.0801709
0.810681 0.107637 0.0570535
0.810681 0.107637 0.0570535
0.810681 0.139559 0.107637
0.176043 0.369528 0.902632
0.176043 0.369528 0.0801709
0.0111086 0.0111086 0.0111086
0.176043 0.369528 0.0801709
0.263111 0.263111 0.263111
0.810681 0.263111 0.0801709
0.810681 0.107637 0.0570535
0.810681 0.107637 0.0570535
0.810681 0.139559 0.107637
0.0233005 0.0233005 0.0233005
0.0570535 0.217197 0.495918
0.176043 0.369528 0.0801709
0.263111 0.263111 0.263111
0.810681 0.263111 0.0801709
0.810681 0.369528 0.0801709
0.810681 0.107637 0.0570535
0.810681 0.107637 0.0570535
0.810681 0.107637 0.0570535
0.0111086 0.0111086 0.0111086
0.0570535 0.217197 0.495918
0.176043 0.369528 0.0801709
0.263111 0.263111 0.263111
0.810681 0.263111 0.0801709
0.810681 0.369528 0.0801709
0.810681 0.369528 0.0801709
0.810681 0.369528 0.0801709
0.810681 0.107637 0.0570535
0.0111086 0.0111086 0.0111086
0.0570535 0.217197 0.495918
0.176043 0.369528 0.0801709
0.263111 0.263111 0.263111
1 0.902632 0.0801709
0.810681 0.263111 0.0801709
0.810681 0.369528 0.0801709
0.810681 0.107637 0.0570535
0.810681 0.139559 0.107637
0.00222782 0.00222782 0.00222782
0.0570535 0.217197 0.495918
0.0570535 0.217197 0.495918
0.369528 0.810681 0.313863
1 0.902632 0.0801709
0.810681 0.263111 0.0801709
0.810681 0.369528 0.0801709
0.810681 0.107637 0.0570535
0.810681 0.139559 0.107637
0.00222782 0.00222782 0.00222782
0.00222782 0.00222782 0.00222782
0.176043 0.369528 0.902632
0.369528 0.810681 0.313863
1 0.902632 0.0801709
0.810681 0.369528 0.0801709
0.810681 0.107637 0.0570535
0.810681 0.107637 0.0570535
0.810681 0.139559 0.107637
0.00222782 0.00222782 0.00222782
0.00222782 0.00222782 0.00222782
0.176043 0.369528 0.902632
0.369528 0.810681 0.313863
1 0.902632 0.0801709
0.810681 0.369528 0.0801709
0.810681 0.107637 0.0570535
0.810681 0.107637 0.0570535
0.810681 0.139559 0.107637
0.00222782 0.00222782 0.00222782
0.00222782 0.00222782 0.00222782
0.176043 0.369528 0.902632
0.369528 0.810681 0.313863
1 0.902632 0.0801709
0.810681 0.263111 0.0801709
0.810681 0.369528 0.0801709
0.810681 0.107637 0.0570535
0.810681 0.139559 0.107637
0.176043 0.0801709 0.369528
0.00222782 0.00222782 0.00222782
0.0570535 0.217197 0.495918
0.369528 0.810681 0.313863
1 0.902632 0.0801709
0.810681 0.263111 0.0801709
0.810681 0.369528 0.0801709
0.810681 0.107637 0.0570535
0.810681 0.139559 0.107637
0.176043 0.0801709 0.369528
0.00222782 0.00222782 0.00222782
0.0570535 0.217197 0.495918
0.369528 0.810681 0.313863
1 0.902632 0.0801709
0.810681 0.263111 0.0801709
0.810681 0.369528 0.0801709
0.810681 0.107637 0.0570535
0.810681 0.139559 0.107637
0.176043 0.0801709 0.369528
0.176043 0.369528 0.902632
0.369528 0.810681 0.313863
1 0.902632 0.0801709
0.810681 0.263111 0.0801709
0.810681 0.369528 0.0801709
0.810681 0.107637 0.0570535
0.810681 0.107637 0.0570535
0.810681 0.107637 0.0570535
0.0233005 0.0233005 0.0233005
0.176043 0.369528 0.902632
0.369528 0.810681 0.313863
0.263111 0.263111 0.263111
0.810681 0.263111 0.0801709
0.810681 0.369528 0.0801709
0.810681 0.369528 0.0801709
0.810681 0.369528 0.0801709
0.810681 0.107637 0.0570535
0.0111086 0.0111086 0.0111086
0.176043 0.369528 0.902632
0.369528 0.810681 0.313863
0.263111 0.263111 0.263111
1 0.902632 0.0801709
0.810681 0.263111 0.0801709
0.810681 0.369528 0.0801709
0.810681 0.107637 0.0570535
0.810681 0.139559 0.107637
0.00222782 0.00222782 0.00222782
0.0570535 0.217197 0.495918
0.176043 0.369528 0.902632
0.369528 0.810681 0.313863
1 0.902632 0.0801709
0.810681 0.263111 0.0801709
0.810681 0.369528 0.0801709
0.810681 0.107637 0.0570535
0.810681 0.139559 0.107637
0.0570535 0.217197 0.495918
0.00222782 0.00222782 0.00222782
0.176043 0.369528 0.902632
0.369528 0.810681 0.313863
1 0.902632 0.0801709
0.810681 0.369528 0.0801709
0.810681 0.107637 0.0570535
0.810681 0.107637 0.0570535
0.810681 0.139559 0.107637
0.0570535 0.217197 0.495918
0.00222782 0.00222782 0.00222782
0.176043 0.369528 0.902632
0.369528 0.810681 0.313863
1 0.902632 0.0801709
0.810681 0.369528 0.0801709
0.810681 0.107637 0.0570535
0.810681 0.107637 0.0570535
0.810681 0.139559 0.107637
0.0570535 0.217197 0.495918
0.00222782 0.00222782 0.00222782
0.176043 0.369528 0.902632
0.369528 0.810681 0.313863
1 0.902632 0.0801709
0.810681 0.263111 0.0801709
0.810681 0.369528 0.0801709
0.810681 0.107637 0.0570535
0.810681 0.139559 0.107637
0.0570535 0.217197 0.495918
0.00222782 0.00222782 0.00222782
0.0570535 0.217197 0.495918
0.369528 0.810681 0.313863
1 0.902632 0.0801709
0.810681 0.263111 0.0801709
0.810681 0.369528 0.0801709
0.810681 0.107637 0.0570535
0.810681 0.139559 0.107637
0.0570535 0.217197 0.495918
0.00222782 0.00222782 0.00222782
0.176043 0.0801709 0.369528
0.369528 0.810681 0.313863
1 0.902632 0.0801709
0.810681 0.263111 0.0801709
0.810681 0.369528 0.0801709
0.810681 0.107637 0.0570535
0.810681 0.139559 0.107637
0.176043 0.0801709 0.369528
0.176043 0.369528 0.902632
0.369528 0.810681 0.313863
1 0.902632 0.0801709
0.810681 0.263111 0.0801709
0.810681 0.369528 0.0801709
0.810681 0.107637 0.0570535
0.810681 0.107637 0.0570535
0.810681 0.107637 0.0570535
0.0233005 0.0233005 0.0233005
0.176043 0.369528 0.902632
0.369528 0.810681 0.313863
0.263111 0.263111 0.263111
0.810681 0.263111 0.0801709
0.810681 0.369528 0.0801709
0.810681 0.369528 0.0801709
0.810681 0.369528 0.0801709
0.810681 0.107637 0.0570535
0.176043 0.369528 0.902632
0.176043 0.369528 0.902632
0.176043 0.369528 0.0801709
0.263111 0.263111 0.263111
1 0.902632 0.0801709
0.810681 0.263111 0.0801709
0.810681 0.369528 0.0801709
0.810681 0.107637 0.0570535
0.810681 0.107637 0.0570535
0.176043 0.369528 0.902632
0.0570535 0.217197 0.495918
0.176043 0.369528 0.902632
0.369528 0.810681 0.313863
1 0.902632 0.0801709
0.810681 0.263111 0.0801709
0.810681 0.369528 0.0801709
0.810681 0.107637 0.0570535
0.810681 0.139559 0.107637
0.176043 0.369528 0.902632
0.00222782 0.00222782 0.00222782
0.176043 0.369528 0.902632
0.369528 0.810681 0.313863
1 0.902632 0.0801709
0.810681 0.263111 0.0801709
0.810681 0.369528 0.0801709
0.810681 0.107637 0.0570535
0.810681 0.139559 0.107637
0.176043 0.369528 0.902632
0.0111086 0.0111086 0.0111086
0.0570535 0.217197 0.495918
0.369528 0.810681 0.313863
1 0.902632 0.0801709
0.810681 0.263111 0.0801709
0.810681 0.369528 0.0801709
0.810681 0.107637 0.0570535
0.810681 0.139559 0.107637
0.176043 0.369528 0.902632
0.0233005 0.0233005 0.0233005
0.176043 0.0801709 0.369528
0.369528 0.810681 0.313863
1 0.902632 0.0801709
0.810681 0.263111 0.0801709
0.810681 0.369528 0.0801709
0.810681 0.107637 0.0570535
0.810681 0.139559 0.107637
0.176043 0.369528 0.902632
0.176043 0.369528 0.902632
0.176043 0.0801709 0.369528
0.176043 0.369528 0.0801709
0.263111 0.263111 0.263111
0.810681 0.263111 0.0801709
0.810681 0.369528 0.0801709
0.810681 0.107637 0.0570535
0.810681 0.139559 0.107637
0.176043 0.369528 0.902632
0.176043 0.369528 0.902632
0.176043 0.0801709 0.369528
0.176043 0.369528 0.0801709
0.263111 0.263111 0.263111
0.810681 0.263111 0.0801709
0.810681 0.369528 0.0801709
0.810681 0.107637 0.0570535
0.810681 0.107637 0.0570535
0.176043 0.369528 0.902632
0.176043 0.369528 0.902632
0.369528 0.810681 0.313863
0.263111 0.263111 0.263111
1 0.902632 0.0801709
0.810681 0.369528 0.0801709
0.810681 0.369528 0.0801709
0.810681 0.107637 0.0570535
0.810681 0.107637 0.0570535
0.176043 0.369528 0.902632
0.0570535 0.217197 0.495918
0.176043 0.369528 0.0801709
0.263111 0.263111 0.263111
1 0.902632 0.0801709
0.810681 0.263111 0.0801709
0.810681 0.263111 0.0801709
0.810681 0.369528 0.0801709
0.810681 0.107637 0.0570535
0.176043 0.369528 0.902632
0.0570535 0.217197 0.495918
0.176043 0.369528 0.0801709
0.263111 0.263111 0.263111
0.263111 0.263111 0.263111
1 0.902632 0.0801709
0.810681 0.369528 0.0801709
0.810681 0.107637 0.0570535
0.810681 0.107637 0.0570535
0.176043 0.369528 0.902632
0.176043 0.0801709 0.369528
0.0570535 0.217197 0.495918
0.176043 0.369528 0.0801709
0.263111 0.263111 0.263111
0.810681 0.263111 0.0801709
0.810681 0.369528 0.0801709
0.810681 0.107637 0.0570535
0.810681 0.107637 0.0570535
0.176043 0.369528 0.902632
0.176043 0.369528 0.902632
0.176043 0.0801709 0.369528
0.176043 0.369528 0.0801709
0.263111 0.263111 0.263111
0.810681 0.263111 0.0801709
0.810681 0.369528 0.0801709
0.810681 0.107637 0.0570535
0.810681 0.139559 0.107637
0.176043 0.369528 0.902632
0.176043 0.369528 0.0801709
0.176043 0.0801709 0.369528
0.176043 0.369528 0.0801709
0.263111 0.263111 0.263111
0.810681 0.263111 0.0801709
0.810681 0.369528 0.0801709
0.810681 0.107637 0.0570535
0.810681 0.107637 0.0570535
0.176043 0.369528 0.902632
0.176043 0.369528 0.0801709
0.176043 0.0801709 0.369528
0.176043 0.369528 0.902632
0.263111 0.263111 0.263111
0.810681 0.263111 0.0801709
0.810681 0.369528 0.0801709
0.810681 0.107637 0.0570535
0.810681 0.107637 0.0570535
0.176043 0.369528 0.0801709
0.176043 0.369528 0.0801709
0.176043 0.0801709 0.369528
0.176043 0.369528 0.902632
0.263111 0.263111 0.263111
1 0.902632 0.0801709
0.810681 0.369528 0.0801709
0.810681 0.107637 0.0570535
0.810681 0.107637 0.0570535
0.176043 0.369528 0.0801709
0.176043 0.369528 0.0801709
0.0570535 0.217197 0.495918
0.0570535 0.217197 0.495918
0.369528 0.810681 0.313863
1 0.902632 0.0801709
0.810681 0.263111 0.0801709
0.810681 0.369528 0.0801709
0.810681 0.107637 0.0570535
0.176043 0.369528 0.902632
0.0570535 0.217197 0.495918
0.176043 0.369528 0.0801709
0.263111 0.263111 0.263111
1 0.902632 0.0801709
0.810681 0.263111 0.0801709
0.810681 0.369528 0.0801709
0.810681 0.107637 0.0570535
0.810681 0.369528 0.0801709
0.176043 0.369528 0.902632
0.176043 0.0801709 0.369528
0.176043 0.369528 0.0801709
0.369528 0.810681 0.313863
1 0.902632 0.0801709
0.810681 0.263111 0.0801709
0.810681 0.263111 0.0801709
0.810681 0.369528 0.0801709
0.810681 0.107637 0.0570535
0.176043 0.369528 0.902632
0.176043 0.369528 0.902632
0.176043 0.369528 0.902632
0.369528 0.810681 0.313863
0.369528 0.810681 0.313863
1 0.902632 0.0801709
0.810681 0.263111 0.0801709
0.810681 0.369528 0.0801709
0.810681 0.107637 0.0570535
0.176043 0.369528 0.902632
0.176043 0.369528 0.902632
0.0233005 0.0233005 0.0233005
0.176043 0.369528 0.902632
0.369528 0.810681 0.313863
1 0.902632 0.0801709
0.810681 0.369528 0.0801709
0.810681 0.107637 0.0570535
0.810681 0.107637 0.0570535
0.176043 0.369528 0.902632
0.176043 0.369528 0.902632
0.176043 0.0801709 0.369528
0.176043 0.369528 0.902632
0.263111 0.263111 0.263111
1 0.902632 0.0801709
0.810681 0.369528 0.0801709
0.810681 0.107637 0.0570535
0.810681 0.107637 0.0570535
0.176043 0.369528 0.902632
0.176043 0.369528 0.0801709
0.176043 0.0801709 0.369528
0.0570535 0.217197 0.495918
0.369528 0.810681 0.313863
1 0.902632 0.0801709
0.810681 0.263111 0.0801709
0.810681 0.369528 0.0801709
0.810681 0.107637 0.0570535
0.176043 0.369528 0.0801709
0.176043 0.369528 0.0801709
0.0570535 0.217197 0.495918
0.0570535 0.217197 0.495918
0.369528 0.810681 0.313863
1 0.902632 0.0801709
0.810681 0.263111 0.0801709
0.810681 0.369528 0.0801709
0.810681 0.107637 0.0570535
0.176043 0.369528 0.0801709
0.176043 0.369528 0.0801709
0.176043 0.369528 0.0801709
0.0570535 0.217197 0.495918
0.369528 0.810681 0.313863
1 0.902632 0.0801709
0.810681 0.263111 0.0801709
0.810681 0.369528 0.0801709
0.810681 0.107637 0.0570535
0.176043 0.369528 0.0801709
0.176043 0.369528 0.0801709
0.176043 0.369528 0.0801709
0.0570535 0.217197 0.495918
0.176043 0.369528 0.0801709
0.263111 0.263111 0.263111
0.810681 0.263111 0.0801709
0.810681 0.369528 0.0801709
0.810681 0.107637 0.0570535
